brand-bible/brands/assets/blkgrlcotoo-luts/709to709_500T_x65_Clean_White.cube
TITLE "Generated by Resolve"
LUT_3D_SIZE 65
0.0370947 0.0487526 0.0576486
0.0412299 0.0493019 0.0570077
0.0498054 0.0496529 0.0567483
0.0605783 0.0493629 0.0554665
0.0681773 0.0495155 0.0544289
0.0742046 0.0501411 0.0534066
0.079408 0.0508278 0.0525368
0.0851606 0.0518044 0.0518349
0.0909438 0.0530861 0.0509194
0.0965896 0.0544594 0.0500191
0.106676 0.0555734 0.0486915
0.117494 0.0563668 0.0473335
0.132387 0.0573892 0.0457771
0.150805 0.0583505 0.0437629
0.168215 0.0591287 0.0412909
0.184436 0.0597848 0.0385901
0.200763 0.0603342 0.0357824
0.216953 0.0604257 0.0324254
0.232288 0.0605478 0.0276188
0.252354 0.0591287 0.018555
0.271382 0.0578927 0.00700389
0.295399 0.0557259 0
0.317174 0.054963 4.57771e-05
0.340368 0.0529335 7.62951e-05
0.360204 0.0508583 6.10361e-05
0.378698 0.0486763 4.57771e-05
0.396292 0.044007 1.5259e-05
0.413108 0.0392462 0
0.42826 0.0367132 0
0.440986 0.0319219 0
0.453376 0.0269017 0
0.463981 0.0241093 0
0.473533 0.0220188 0
0.483207 0.0192569 0
0.491966 0.018143 0
0.500175 0.0161898 0
0.509621 0.0146487 0
0.517876 0.0127718 0
0.528572 0.00840772 0
0.536645 0.00299077 0
0.546136 6.10361e-05 0
0.555047 1.5259e-05 0
0.564187 0 0
0.573404 1.5259e-05 0
0.583566 4.57771e-05 0
0.591287 4.57771e-05 0
0.600336 3.0518e-05 0
0.607462 3.0518e-05 0
0.615915 1.5259e-05 0
0.623575 1.5259e-05 0
0.629465 0 0
0.634546 0 0
0.639521 0 0
0.644053 0 0
0.648478 0 0
0.653239 0 0
0.65771 0 0
0.660929 0 0
0.664439 0 0
0.667842 0 0
0.671168 0 0
0.674296 0 0
0.677043 0 0
0.680522 0 0
0.68307 0 0
0.0383764 0.0517281 0.0587015
0.0433204 0.0527199 0.0589761
0.0489662 0.052903 0.0576333
0.0599374 0.0530404 0.0554818
0.0694285 0.0535592 0.0543832
0.0762798 0.0541848 0.0534218
0.0827344 0.0547799 0.0524605
0.0889754 0.0559854 0.0518959
0.0947585 0.0572061 0.0510262
0.101549 0.0584573 0.0500343
0.111849 0.0591287 0.0487221
0.121553 0.0596628 0.0476081
0.135988 0.0606394 0.046067
0.153094 0.0615396 0.0442054
0.168826 0.06215 0.0417487
0.183963 0.0630655 0.0395514
0.198383 0.0638895 0.0371405
0.214221 0.0643015 0.0342565
0.228916 0.064683 0.0305791
0.244678 0.0644541 0.0245823
0.263813 0.0634623 0.0162814
0.282017 0.0631418 0.00741588
0.30396 0.0616312 0.00169375
0.3243 0.0607462 3.0518e-05
0.344381 0.0599069 4.57771e-05
0.364004 0.0585946 7.62951e-05
0.382528 0.0577249 6.10361e-05
0.400214 0.0567178 4.57771e-05
0.416556 0.0553292 3.0518e-05
0.431418 0.0542916 1.5259e-05
0.445335 0.0531167 0
0.457328 0.0505684 0
0.466102 0.0489967 0
0.475746 0.0463264 0
0.483818 0.0446021 0
0.493553 0.0420233 0
0.501518 0.0397192 0
0.511879 0.0329595 0
0.52108 0.0266728 0
0.530602 0.0201724 0
0.540856 0.0122377 0
0.54905 0.00686656 0
0.558541 0.00579843 0
0.567895 0.00572213 0
0.577874 0.00552377 0
0.586999 0.00531014 0
0.596841 0.00250248 0
0.604929 0.000976577 0
0.612421 0.000762951 0
0.620554 0.000823987 0
0.627512 0.000808728 0
0.633524 0.000839246 0
0.638224 0.000717174 0
0.643259 0.000366217 0
0.647639 3.0518e-05 0
0.652247 0 0
0.656748 0 0
0.661387 0 0
0.664759 0 0
0.667826 0 0
0.671321 0 0
0.67451 0 0
0.677836 0 0
0.681102 0 0
0.684459 0 0
0.0376593 0.0555734 0.0593576
0.0422217 0.0566873 0.0598611
0.0482795 0.057435 0.0594797
0.0612192 0.0570077 0.0580606
0.0694591 0.0568551 0.0566262
0.0772564 0.0577096 0.0554818
0.0840467 0.0586252 0.0544747
0.0902113 0.0596323 0.0535744
0.0963149 0.060914 0.0525978
0.10222 0.0623636 0.0517739
0.112459 0.0634775 0.05066
0.12224 0.0644083 0.0496529
0.133761 0.0652323 0.0482185
0.149264 0.0661326 0.0465705
0.164538 0.0672007 0.0450904
0.179431 0.0681926 0.0426337
0.194644 0.069276 0.0400244
0.209125 0.0702068 0.0374762
0.22417 0.0710613 0.0348363
0.238712 0.0717937 0.03122
0.255161 0.0714733 0.024506
0.273121 0.0707713 0.0167239
0.291173 0.0707561 0.0089723
0.311528 0.0697795 0.00419623
0.330053 0.0689403 0.000259403
0.349676 0.068452 3.0518e-05
0.368658 0.0676127 4.57771e-05
0.387198 0.0664225 6.10361e-05
0.405417 0.0654765 6.10361e-05
0.420569 0.063798 4.57771e-05
0.43566 0.0623941 3.0518e-05
0.446754 0.0613565 1.5259e-05
0.459403 0.0599832 0
0.468299 0.057145 0
0.477241 0.0544594 0
0.487327 0.0521859 0
0.495842 0.0509804 0
0.506035 0.0502785 0
0.515175 0.048249 0
0.524956 0.0437171 0
0.535225 0.0380255 0
0.543404 0.0334173 0
0.553689 0.0268864 0
0.562676 0.0208743 0
0.572824 0.0146639 0
0.583322 0.00787366 0
0.591974 0.00790417 0
0.602167 0.00807202 0
0.610208 0.00601205 0
0.61709 0.00425727 0
0.624323 0.00236515 0
0.630945 0.00140383 0
0.637095 0.00135805 0
0.641978 0.00128176 0
0.646891 0.00117494 0
0.651728 0.000961318 0
0.655802 0.00062562 0
0.660334 0.000228885 0
0.664637 0 0
0.668437 0 0
0.671778 0 0
0.674907 0 0
0.677897 0 0
0.681346 0 0
0.684611 0 0
0.035935 0.0605325 0.0608377
0.0410163 0.0612039 0.0608225
0.0463569 0.0621653 0.061265
0.0598306 0.0632486 0.0606394
0.0726177 0.0626688 0.0593118
0.079408 0.0628519 0.0577859
0.0860151 0.0635691 0.0566262
0.0925307 0.064271 0.0557107
0.0979934 0.0651255 0.0550393
0.10341 0.0658122 0.0542
0.112398 0.0666972 0.0532235
0.123171 0.0679484 0.0521248
0.133165 0.0688487 0.0509804
0.146166 0.0694591 0.049424
0.161028 0.0703899 0.0479438
0.176089 0.0715496 0.0460975
0.190356 0.0728923 0.0436255
0.204837 0.0742962 0.0414435
0.218814 0.0752117 0.0387121
0.233845 0.076112 0.0356298
0.248188 0.0769665 0.0323644
0.265171 0.0768444 0.0255131
0.283024 0.0766308 0.0183871
0.299825 0.0762951 0.0117342
0.31902 0.0757458 0.00733959
0.337316 0.0750744 0.0031281
0.355978 0.0743877 0
0.375998 0.0729992 3.0518e-05
0.393835 0.0720073 4.57771e-05
0.410666 0.0715343 6.10361e-05
0.426307 0.0702373 6.10361e-05
0.438178 0.0693217 4.57771e-05
0.451102 0.068513 3.0518e-05
0.461555 0.0680247 1.5259e-05
0.471275 0.0675517 0
0.481819 0.0664225 0
0.489906 0.0657359 0
0.50016 0.0643168 0
0.510536 0.0622721 0
0.519783 0.0607462 0
0.529992 0.0568704 0
0.538506 0.0528725 0
0.549584 0.0477302 0
0.559319 0.0436408 0
0.568444 0.0370336 0
0.579217 0.0303349 0
0.588251 0.0251011 0
0.597406 0.0178988 0
0.607141 0.0121157 0
0.614389 0.0110781 0
0.621439 0.00927749 0
0.628138 0.00814832 0
0.635142 0.00749218 0
0.640696 0.00724804 0
0.64596 0.00529488 0
0.650996 0.00582895 0
0.655543 0.00611887 0
0.660197 0.00643931 0
0.664134 0.00552377 0
0.668284 0.0047303 0
0.671977 0.00451667 0
0.675044 0.0047303 0
0.67863 0.00367742 0
0.681895 0.00325017 0
0.685069 0.00227359 0
0.0276951 0.0685435 0.0619059
0.0341344 0.0693065 0.0620584
0.0425422 0.0696727 0.0623636
0.0534371 0.0715038 0.0628061
0.0697642 0.0733806 0.0618906
0.0817426 0.0707713 0.0604562
0.0891737 0.0695659 0.0590982
0.0952316 0.0700236 0.0580911
0.100343 0.0710765 0.0572213
0.105379 0.0720684 0.0565499
0.11371 0.0729229 0.0557412
0.123766 0.0738842 0.0547189
0.13341 0.0746929 0.0537728
0.146715 0.0753796 0.052369
0.159991 0.0758068 0.0507362
0.17406 0.0765087 0.0494087
0.188357 0.0774243 0.0471199
0.201007 0.0784161 0.0448463
0.214206 0.0796521 0.0426337
0.229267 0.0806287 0.0392462
0.243687 0.0813306 0.0363928
0.259709 0.0822309 0.0323949
0.276585 0.0823987 0.02533
0.29279 0.0821393 0.0188449
0.30959 0.0819867 0.0132296
0.328328 0.0817273 0.00866712
0.347662 0.0810254 0.00401312
0.365637 0.0803998 0.000366217
0.384222 0.0801099 1.5259e-05
0.401816 0.0793622 3.0518e-05
0.418616 0.0788281 4.57771e-05
0.430442 0.0778821 4.57771e-05
0.442771 0.0770886 4.57771e-05
0.454765 0.0767376 3.0518e-05
0.46424 0.0763409 1.5259e-05
0.475273 0.0756542 0
0.484672 0.0745708 0
0.49453 0.0730602 0
0.505364 0.0719005 0
0.514824 0.0711986 0
0.52575 0.0702983 0
0.535866 0.0684367 0
0.545632 0.0648203 0
0.555352 0.0620584 0
0.565637 0.0583505 0
0.575235 0.0546731 0
0.584527 0.0516213 0
0.594202 0.0452125 0
0.603265 0.0378271 0
0.612284 0.0319982 0
0.619684 0.0281834 0
0.626657 0.0248112 0
0.633112 0.022858 0
0.63946 0.0220645 0
0.645747 0.0210269 0
0.650721 0.0191348 0
0.654932 0.016495 0
0.659281 0.0158236 0
0.663874 0.0159609 0
0.668437 0.0154269 0
0.672526 0.0150454 0
0.675685 0.0140536 0
0.678828 0.0127871 0
0.682261 0.0121004 0
0.68574 0.0110475 0
0.0197604 0.0760815 0.0633402
0.0280461 0.0763714 0.0633249
0.0369726 0.0767987 0.0637064
0.0500343 0.0784772 0.0644846
0.0635386 0.0803693 0.0643168
0.0782177 0.082536 0.0629587
0.0896468 0.080766 0.0618906
0.0977035 0.0793164 0.060441
0.102937 0.0796674 0.0593423
0.107866 0.0803845 0.0586099
0.116228 0.0814221 0.0577707
0.124254 0.0819257 0.0567025
0.134264 0.0821241 0.0558785
0.147478 0.0826734 0.0546883
0.161105 0.082826 0.0533303
0.174884 0.0831922 0.0519417
0.188663 0.08365 0.0501869
0.201556 0.0839857 0.0480812
0.215152 0.0849928 0.0460975
0.228367 0.0857557 0.0435035
0.242206 0.0864576 0.040116
0.256489 0.0872663 0.0369879
0.271092 0.0872969 0.0324254
0.288106 0.0873579 0.0255283
0.304265 0.0875257 0.019501
0.32015 0.0867475 0.0128634
0.339574 0.0865034 0.0084535
0.357137 0.0862287 0.00433356
0.375952 0.0854047 0.00129702
0.393591 0.0848707 0
0.409659 0.0852064 1.5259e-05
0.423362 0.085771 3.0518e-05
0.435035 0.0858778 3.0518e-05
0.44744 0.0855421 3.0518e-05
0.458427 0.0853742 1.5259e-05
0.468971 0.0851759 1.5259e-05
0.479988 0.085771 0
0.490974 0.0852369 0
0.501274 0.0850996 0
0.511727 0.0843824 0
0.522423 0.0833295 0
0.532494 0.0823987 0
0.54258 0.0817731 0
0.551751 0.0813764 0
0.561715 0.0777447 0
0.572076 0.0729534 0
0.581933 0.0698405 0
0.591089 0.067216 0
0.600214 0.0633555 0
0.610666 0.0551156 0
0.618189 0.0488594 0
0.625513 0.0441596 0
0.631846 0.040116 0
0.638193 0.0359655 0
0.644099 0.033814 0
0.649866 0.0324559 0
0.654826 0.0304875 0
0.659571 0.0278935 0
0.663859 0.0260624 0
0.667735 0.0247501 0
0.671946 0.0243534 0
0.676478 0.0239719 0
0.67985 0.022858 0
0.683085 0.0213169 0
0.686534 0.0191043 0
0.00984207 0.0825055 0.0647898
0.0190738 0.0829023 0.0650187
0.0283055 0.0834516 0.0655222
0.0443732 0.0848402 0.0661326
0.0620279 0.0865644 0.0662242
0.0733806 0.0889143 0.0661784
0.0872816 0.090959 0.0642557
0.0979171 0.0894026 0.0632334
0.105318 0.0876936 0.0615702
0.111147 0.0881819 0.0606394
0.119692 0.088426 0.0593881
0.12845 0.0893721 0.058381
0.137392 0.0908217 0.0575723
0.148089 0.0921492 0.0567178
0.161852 0.0922255 0.055314
0.175647 0.0925917 0.0540322
0.189273 0.0932174 0.0527199
0.202792 0.093904 0.0505074
0.215442 0.0943313 0.0484169
0.22884 0.0949721 0.0462806
0.242908 0.0958877 0.0430915
0.257404 0.0962692 0.0399329
0.271839 0.0962844 0.0362707
0.287648 0.0964523 0.030045
0.301762 0.0964065 0.0243839
0.316472 0.0962844 0.0185397
0.333593 0.0951553 0.00946059
0.351736 0.0949416 0.00517281
0.369192 0.0948653 0.00106813
0.386908 0.0952163 0.000991836
0.402441 0.0947738 0.000137331
0.416556 0.0952926 1.5259e-05
0.429938 0.0955673 1.5259e-05
0.44126 0.0953994 1.5259e-05
0.452949 0.0959793 1.5259e-05
0.464027 0.0964828 1.5259e-05
0.474388 0.0961013 0
0.487236 0.0950484 0
0.49749 0.0955062 0
0.507485 0.0954757 0
0.518074 0.0956436 0
0.528756 0.0948196 0
0.538476 0.0935225 0
0.54815 0.0925002 0
0.558663 0.0915084 0
0.568154 0.0897993 0
0.579293 0.0855879 0
0.589151 0.0823835 0
0.597772 0.0788434 0
0.607324 0.0753033 0
0.616648 0.0706493 0
0.624781 0.063798 0
0.630716 0.0584421 0
0.637003 0.0539712 0
0.642847 0.0486305 0
0.648905 0.0453346 0
0.654887 0.0434424 0
0.658946 0.041001 0
0.663752 0.0388495 0
0.667887 0.0369268 0
0.67219 0.0344549 0
0.676646 0.0331884 0
0.680308 0.031693 0
0.683589 0.0303197 0
0.686976 0.028275 0
0.00350958 0.088777 0.0665751
0.0104067 0.0892958 0.0668498
0.0226902 0.0897383 0.0671855
0.0399786 0.090486 0.0673686
0.0585489 0.0924849 0.0680552
0.0716869 0.094728 0.0680552
0.0802777 0.0968795 0.0677653
0.095613 0.0993362 0.0656138
0.105776 0.0984207 0.0649119
0.115251 0.0960555 0.0630198
0.124498 0.0962539 0.0616617
0.133135 0.0968032 0.0605173
0.141772 0.0980392 0.0597238
0.15346 0.0994125 0.0586862
0.164523 0.100511 0.057496
0.176516 0.102007 0.0563973
0.190372 0.102556 0.0549325
0.203067 0.102815 0.0530556
0.216114 0.103548 0.0509499
0.230335 0.104448 0.0487068
0.244526 0.105013 0.0463417
0.258549 0.105379 0.0426947
0.272831 0.106203 0.0394598
0.288029 0.106172 0.0349279
0.302663 0.106203 0.0284581
0.316991 0.106325 0.0220188
0.333211 0.105348 0.0135958
0.349248 0.104326 0.00549325
0.365011 0.104219 0.00294499
0.380041 0.103639 0.000320439
0.395438 0.104036 0.000213626
0.409354 0.104219 0.000106813
0.423575 0.104341 1.5259e-05
0.435584 0.104967 1.5259e-05
0.446677 0.105089 0
0.457527 0.10544 0
0.469123 0.105898 0
0.481178 0.105516 0
0.492012 0.106065 0
0.50341 0.106126 0
0.5131 0.105577 0
0.523934 0.10486 0
0.534844 0.104753 0
0.544915 0.104036 0
0.555001 0.102464 0
0.56556 0.100999 0
0.576898 0.0985885 0
0.586328 0.0968643 0
0.596353 0.0937667 0
0.605997 0.0904097 0
0.614374 0.086183 0
0.623056 0.0825971 0
0.629465 0.0794995 0
0.636225 0.0743267 0
0.642176 0.0693675 0
0.647715 0.06421 0
0.654063 0.059144 0
0.659403 0.0547341 0
0.664057 0.0520638 0
0.668101 0.0488594 0
0.67216 0.0461433 0
0.676555 0.0437324 0
0.680751 0.0402533 0
0.684474 0.0374609 0
0.68809 0.0352789 0
0.00233463 0.0948501 0.0688487
0.00776684 0.0954604 0.0690166
0.0196994 0.0956741 0.0691539
0.0394446 0.0964523 0.0691691
0.0582284 0.0983139 0.0700847
0.0702068 0.100465 0.070222
0.0794995 0.102403 0.0698405
0.0900435 0.105104 0.0694591
0.104372 0.108095 0.0676585
0.114382 0.107164 0.066804
0.128313 0.10454 0.0645151
0.138003 0.104707 0.0631113
0.147036 0.105241 0.0619516
0.158846 0.106035 0.0605936
0.171069 0.107454 0.0594186
0.182803 0.10898 0.0583505
0.193423 0.110369 0.0571908
0.205539 0.11191 0.0556191
0.219104 0.112749 0.053666
0.232822 0.11342 0.0514382
0.246937 0.114137 0.0489815
0.260777 0.114702 0.0462348
0.274678 0.115541 0.0430457
0.289036 0.115679 0.0382239
0.303563 0.115419 0.0335241
0.318517 0.115618 0.0270085
0.333776 0.11548 0.0196078
0.348943 0.114458 0.0116274
0.363973 0.113695 0.00410468
0.378622 0.113558 0.000671397
0.393683 0.114076 0.000381476
0.406271 0.114031 0.00030518
0.418448 0.113863 0.000213626
0.430152 0.114061 0.000137331
0.441718 0.114626 3.0518e-05
0.451789 0.115175 1.5259e-05
0.463828 0.115297 0
0.475975 0.115496 0
0.486641 0.115434 0
0.499001 0.115358 0
0.509407 0.115679 0
0.521141 0.114855 0
0.531472 0.11397 0
0.542382 0.113542 0
0.553048 0.112963 0
0.562432 0.111696 0
0.574075 0.109239 0
0.584466 0.107469 0
0.5944 0.105623 0
0.60322 0.103838 0
0.612482 0.10016 0
0.62153 0.0965133 0
0.629053 0.0934157 0
0.635493 0.0910048 0
0.64184 0.0879988 0
0.648417 0.0822614 0
0.654337 0.0766918 0
0.659648 0.071107 0
0.664912 0.0677348 0
0.669093 0.0644694 0
0.673457 0.0612955 0
0.677638 0.0577554 0
0.681468 0.054551 0
0.685573 0.050782 0
0.688975 0.046067 0
0.00151064 0.101015 0.0712596
0.00706493 0.101106 0.0710918
0.0159609 0.101457 0.0712139
0.0375525 0.102388 0.0712902
0.0579385 0.104067 0.071931
0.0686198 0.105776 0.0722667
0.0776379 0.10779 0.0719615
0.0874037 0.110231 0.07187
0.0984665 0.1131 0.0710765
0.112322 0.115679 0.0692912
0.127291 0.115038 0.0682689
0.141802 0.112932 0.0661631
0.153826 0.112596 0.0642557
0.164981 0.112917 0.0627604
0.177371 0.114199 0.0616159
0.189288 0.115557 0.0603799
0.200443 0.117113 0.0590066
0.210971 0.118654 0.0575723
0.222202 0.120638 0.0561074
0.23476 0.12224 0.054139
0.248356 0.122484 0.0516365
0.262592 0.123156 0.0492714
0.276905 0.124071 0.0459754
0.290394 0.124331 0.0421759
0.304723 0.124376 0.0373083
0.319768 0.124865 0.0325322
0.334371 0.124804 0.0258183
0.349828 0.124193 0.0178378
0.36527 0.124224 0.0108492
0.379614 0.12372 0.00396735
0.393332 0.123476 0.000198367
0.405615 0.123445 0.000228885
0.417685 0.124193 0.000228885
0.428382 0.124758 0.000228885
0.439841 0.124971 0.000122072
0.45005 0.124788 3.0518e-05
0.460853 0.124208 3.0518e-05
0.471641 0.124422 1.5259e-05
0.48307 0.12462 0
0.493965 0.124544 0
0.505486 0.124346 0
0.5178 0.12401 0
0.528405 0.123583 0
0.538872 0.122972 0
0.549554 0.122591 0
0.560555 0.121462 0
0.571603 0.119905 0
0.581308 0.118349 0
0.59202 0.115831 0
0.601755 0.114046 0
0.611032 0.112047 0
0.619699 0.109331 0
0.628153 0.105867 0
0.635966 0.102953 0
0.641855 0.100847 0
0.64799 0.098146 0
0.654383 0.0936446 0
0.660151 0.0881514 0
0.66627 0.0822156 0
0.670405 0.0793011 0
0.67425 0.0758984 0
0.678492 0.0731365 0
0.682475 0.0692912 0
0.687007 0.0653239 0
0.690944 0.0616617 0
0 0.109361 0.073518
0.00531014 0.10901 0.0733654
0.0150454 0.109148 0.0732891
0.033341 0.10959 0.0733654
0.0516365 0.110796 0.0738079
0.0683146 0.112245 0.0742046
0.0766003 0.114504 0.0741131
0.085893 0.117067 0.0740368
0.0946365 0.119783 0.0739147
0.106416 0.122835 0.0725261
0.124071 0.124865 0.0710613
0.14136 0.12314 0.0700236
0.156588 0.120699 0.0673991
0.171786 0.120241 0.0650339
0.18381 0.121096 0.0637675
0.19556 0.122286 0.0625772
0.20708 0.123812 0.0609598
0.217319 0.125277 0.0594949
0.228412 0.127184 0.0581369
0.23978 0.128939 0.0563973
0.251255 0.130465 0.0543069
0.265538 0.131563 0.0520027
0.279423 0.132342 0.0498512
0.29218 0.132815 0.045655
0.30753 0.133257 0.0402686
0.32192 0.133333 0.0356909
0.335698 0.133562 0.031342
0.351736 0.133425 0.023331
0.366629 0.133059 0.0152895
0.381216 0.13283 0.00790417
0.393408 0.132509 0.0019379
0.40557 0.132555 0.000320439
0.416526 0.132967 0
0.426749 0.133455 1.5259e-05
0.43772 0.134081 1.5259e-05
0.448585 0.134524 3.0518e-05
0.459266 0.134005 3.0518e-05
0.469978 0.134096 3.0518e-05
0.481376 0.134188 3.0518e-05
0.49279 0.134234 3.0518e-05
0.503014 0.133806 1.5259e-05
0.514595 0.133165 0
0.524666 0.13283 0
0.535683 0.132204 0
0.546487 0.131975 0
0.557366 0.13106 0
0.568093 0.129549 0
0.579217 0.128054 0
0.589853 0.126131 0
0.599817 0.123888 0
0.610056 0.121263 0
0.61915 0.11931 0
0.627283 0.116838 0
0.635157 0.114015 0
0.642222 0.111208 0
0.648508 0.108919 0
0.65481 0.107027 0
0.660212 0.10425 0
0.666148 0.097612 0
0.671458 0.0931716 0
0.675883 0.0906996 0
0.680079 0.0877241 0
0.684443 0.0853285 0
0.688411 0.080705 0
0.692348 0.0759136 0
0 0.117556 0.0757916
0.00350958 0.117464 0.0757763
0.0169833 0.117784 0.0755474
0.0314641 0.118212 0.0752422
0.0482948 0.118929 0.0755932
0.0632944 0.120699 0.0758984
0.0756085 0.12285 0.0759442
0.0850538 0.125292 0.0758373
0.0935988 0.127687 0.0756695
0.101137 0.130266 0.0753185
0.114351 0.134127 0.0741741
0.137713 0.136294 0.0724956
0.154269 0.133059 0.0713817
0.174456 0.129 0.0684215
0.190509 0.128267 0.0660563
0.201938 0.129198 0.0647746
0.212955 0.130404 0.0630808
0.223865 0.131579 0.0613718
0.23563 0.133471 0.059968
0.246723 0.135302 0.0584268
0.25774 0.136782 0.0562905
0.270634 0.138857 0.0543221
0.282734 0.140703 0.0525063
0.294957 0.140917 0.0499428
0.309865 0.14107 0.0438087
0.324498 0.141711 0.0381628
0.338399 0.141817 0.0336767
0.353368 0.141497 0.0258335
0.368017 0.141756 0.0186313
0.38233 0.141588 0.0112306
0.393957 0.141039 0.00485237
0.406195 0.141344 0.00158694
0.417029 0.141756 0.000823987
0.427726 0.142565 0.000488289
0.438148 0.142947 0
0.44889 0.143603 1.5259e-05
0.459052 0.143771 1.5259e-05
0.469108 0.143709 1.5259e-05
0.481102 0.143832 1.5259e-05
0.492241 0.144045 1.5259e-05
0.503792 0.143786 1.5259e-05
0.515236 0.14313 0
0.52517 0.142184 0
0.5355 0.141527 0
0.544656 0.140459 0
0.555718 0.139452 0
0.566522 0.138247 0
0.577417 0.136446 0
0.588586 0.13463 0
0.599344 0.132845 0
0.608728 0.130495 0
0.617807 0.128313 0
0.627222 0.125612 0
0.634852 0.12343 0
0.642039 0.121736 0
0.6486 0.119203 0
0.654597 0.116762 0
0.660883 0.114321 0
0.66717 0.112123 0
0.67274 0.109712 0
0.677378 0.105043 0
0.681453 0.101579 0
0.685496 0.0984207 0
0.690028 0.0953384 0
0.694408 0.0919051 0
0 0.126604 0.0781872
0.00573739 0.126284 0.0781109
0.0191196 0.126589 0.0778973
0.0312963 0.126741 0.0775311
0.0446937 0.127428 0.0774548
0.0585184 0.129107 0.0775158
0.0714427 0.131121 0.0776837
0.0835431 0.133455 0.0776074
0.0927443 0.135729 0.0774243
0.100038 0.138186 0.0770886
0.107713 0.141207 0.0768597
0.127047 0.145312 0.0750896
0.150469 0.146593 0.0733959
0.172305 0.143786 0.0713359
0.192737 0.138994 0.0686961
0.209033 0.136538 0.0661631
0.219684 0.137163 0.0645914
0.230167 0.137987 0.0630503
0.241886 0.139895 0.0615549
0.253208 0.141802 0.0599069
0.264851 0.143572 0.057847
0.276127 0.145373 0.0558175
0.287663 0.147265 0.0538186
0.298024 0.149157 0.0518196
0.311482 0.14931 0.046891
0.325704 0.149264 0.0418097
0.340124 0.149599 0.0363012
0.354147 0.149615 0.0296941
0.368017 0.149371 0.0217288
0.383062 0.149752 0.0143282
0.395651 0.149966 0.00823987
0.407553 0.149905 0.00294499
0.418219 0.150149 0.00216678
0.429297 0.150866 0.00151064
0.439811 0.1514 0.000869764
0.449958 0.152193 0.000350958
0.460853 0.152941 0
0.470603 0.152941 1.5259e-05
0.480644 0.152712 1.5259e-05
0.49163 0.15288 0
0.503807 0.152697 0
0.515358 0.152178 0
0.526284 0.151369 0
0.536294 0.150149 0
0.54609 0.149187 0
0.556542 0.147875 0
0.56672 0.146365 0
0.576791 0.144472 0
0.586923 0.142763 0
0.597559 0.140917 0
0.608484 0.138903 0
0.617487 0.137041 0
0.625925 0.134417 0
0.63418 0.132525 0
0.641733 0.130373 0
0.649622 0.128161 0
0.655787 0.12639 0
0.661494 0.123919 0
0.667674 0.121157 0
0.67364 0.119234 0
0.679286 0.117082 0
0.683513 0.115434 0
0.687938 0.113176 0
0.691875 0.109667 0
0.696254 0.107103 0
7.62951e-05 0.138094 0.080705
0.00468452 0.138018 0.0799725
0.0166476 0.137896 0.0795605
0.0287785 0.137484 0.0791791
0.041825 0.137545 0.0787213
0.0548409 0.139116 0.0787518
0.0677958 0.140963 0.0788586
0.0793622 0.142916 0.0788891
0.0911574 0.145663 0.0785687
0.0991379 0.148089 0.0782025
0.106172 0.151232 0.0779431
0.116381 0.154543 0.0773175
0.1402 0.157931 0.0750439
0.165835 0.158846 0.0734417
0.189273 0.154665 0.0715648
0.209186 0.150561 0.0688029
0.226734 0.14786 0.0655222
0.237079 0.148211 0.0638895
0.24831 0.149447 0.0623484
0.260212 0.151354 0.0601816
0.271839 0.15314 0.0577859
0.282322 0.154467 0.0558175
0.293355 0.156146 0.0539101
0.304158 0.157946 0.0513924
0.316228 0.159304 0.0466316
0.32842 0.161227 0.0417334
0.342382 0.161212 0.0365148
0.356512 0.160983 0.0310216
0.371023 0.160967 0.0235599
0.385412 0.160723 0.0154879
0.398291 0.160586 0.00923171
0.410193 0.160433 0.00350958
0.42179 0.161135 0.00314336
0.431769 0.161227 0.00274662
0.442695 0.1617 0.00207523
0.452247 0.162005 0.00149538
0.463218 0.162478 0.00077821
0.473518 0.162936 0.000198367
0.482582 0.162448 0
0.492485 0.162051 0
0.503441 0.161715 0
0.515068 0.160906 3.0518e-05
0.52665 0.159899 4.57771e-05
0.537743 0.158465 1.5259e-05
0.547189 0.157351 0
0.557382 0.156191 0
0.568063 0.154955 0
0.578729 0.153079 0
0.588663 0.151186 0
0.596902 0.149035 0
0.607095 0.146944 0
0.617014 0.144991 0
0.626032 0.142992 0
0.634562 0.141238 0
0.642191 0.139178 0
