brand-bible/brands/assets/blkgrlcotoo-luts/709to709_160T_x65_Film_White.cube
TITLE "Generated by Resolve"
LUT_3D_SIZE 65
0.0956436 0.0900587 0.0857557
0.0975052 0.0903944 0.0859846
0.099382 0.0908675 0.0865187
0.101518 0.0914015 0.0870527
0.103136 0.0919203 0.0871138
0.104631 0.0921798 0.0855421
0.105898 0.0913252 0.0847944
0.107591 0.0912642 0.0838941
0.111131 0.0914778 0.0830091
0.118273 0.0915847 0.0823224
0.126772 0.0925917 0.0829328
0.134035 0.0933394 0.0826276
0.14049 0.0931258 0.0810712
0.148791 0.0923171 0.0793011
0.159289 0.0916915 0.0771954
0.171328 0.0913405 0.0749523
0.18381 0.0905165 0.0725872
0.196002 0.0902266 0.069276
0.20763 0.0900587 0.0657206
0.222553 0.0907454 0.06421
0.239124 0.0914778 0.0620737
0.253376 0.0916304 0.0601968
0.267277 0.0918898 0.0582284
0.282856 0.0910964 0.0558785
0.298451 0.0900893 0.0535744
0.313817 0.0889906 0.0500343
0.331273 0.0862593 0.0454566
0.347753 0.0839246 0.0410925
0.363806 0.0818647 0.0352483
0.37911 0.0782483 0.0284581
0.393912 0.0750134 0.0221408
0.408225 0.0725567 0.0164492
0.42034 0.0704509 0.0119936
0.430869 0.0680095 0.00955215
0.44155 0.0653391 0.00704967
0.453239 0.0625315 0.00442512
0.463722 0.0609598 0.00396735
0.471824 0.0593576 0.00367742
0.478462 0.0569314 0.00256352
0.485023 0.0541085 0.00123598
0.492088 0.0511635 3.0518e-05
0.498909 0.049958 0
0.507225 0.0463874 0
0.514992 0.0426032 0
0.522683 0.0380255 0
0.530297 0.0327153 0
0.538338 0.0281529 0
0.546044 0.0234226 0
0.555261 0.0184787 0
0.564553 0.0146487 0
0.573388 0.0118563 0
0.58114 0.00701915 0
0.591409 0.00503548 0
0.601236 0.0052491 0
0.609949 0.00296025 0
0.618418 0.000137331 0
0.626444 0.000137331 0
0.635004 0.00015259 0
0.64184 9.15541e-05 0
0.648157 3.0518e-05 0
0.653971 0 0
0.660136 0 0
0.665324 0 0
0.669535 0 0
0.673548 0 0
0.0958724 0.0926375 0.0865644
0.0975662 0.0926223 0.0861372
0.0992447 0.0927443 0.0861219
0.101518 0.0933394 0.086717
0.103655 0.093904 0.0873274
0.105409 0.0945296 0.0866712
0.106767 0.0937819 0.0854505
0.108705 0.0938277 0.0846418
0.113588 0.0944381 0.0840772
0.120958 0.0946517 0.0837873
0.129305 0.0952468 0.084062
0.135592 0.0954452 0.0833143
0.142321 0.0949264 0.0815137
0.151278 0.0941787 0.0792248
0.161395 0.093492 0.0768292
0.173602 0.0931258 0.0743114
0.185824 0.0923629 0.0721752
0.19823 0.0921035 0.0690929
0.20943 0.0919356 0.0658427
0.224659 0.0927596 0.0643778
0.241169 0.0936446 0.062211
0.255421 0.0939956 0.0605631
0.269291 0.0942702 0.0587167
0.284901 0.0935988 0.0563821
0.299428 0.0922713 0.0541085
0.314778 0.0915084 0.0510872
0.331884 0.0893873 0.0463569
0.348028 0.0868849 0.0422217
0.363363 0.0846113 0.0374762
0.37879 0.0819257 0.0313725
0.394003 0.0784772 0.0251926
0.408347 0.0750744 0.0187076
0.42208 0.0734264 0.0130617
0.433539 0.0706188 0.00978103
0.444877 0.0678569 0.00680552
0.456504 0.0652018 0.00402838
0.467796 0.063859 0.00390631
0.47744 0.0624247 0.00370794
0.484398 0.0594339 0.00231937
0.491539 0.0565957 0.000961318
0.498726 0.0539101 0
0.506569 0.052781 0
0.514046 0.0514229 0
0.521233 0.0474098 0
0.529091 0.0420233 0
0.536538 0.0370184 0
0.545068 0.0324865 0
0.553613 0.0276799 0
0.5626 0.0222324 0
0.570962 0.0208743 0
0.580667 0.0157473 0
0.590387 0.00941482 0
0.599405 0.00686656 0
0.609079 0.00679026 0
0.616861 0.00489815 0
0.625223 0.00283818 0
0.633173 0.000732433 0
0.641703 0.000244144 0
0.647639 0.000183108 0
0.653681 0.000106813 0
0.659571 4.57771e-05 0
0.665263 0 0
0.6701 0 0
0.674189 0 0
0.678309 0 0
0.0962997 0.0957198 0.0880903
0.098024 0.0957809 0.0876783
0.099794 0.0958724 0.0873274
0.101549 0.0958724 0.0869764
0.103838 0.0962387 0.0872053
0.10634 0.0970169 0.0878614
0.10779 0.0968948 0.0866712
0.109712 0.0968032 0.0858473
0.116304 0.0973068 0.0851759
0.123873 0.0979477 0.0852216
0.131334 0.098085 0.0849317
0.137148 0.0975814 0.0835431
0.143847 0.0971542 0.0810712
0.153384 0.0963912 0.0787518
0.163241 0.095613 0.0761425
0.175631 0.0953689 0.0738689
0.188479 0.0947585 0.0718242
0.201389 0.0944839 0.0688182
0.212711 0.0944076 0.0659495
0.226627 0.0949264 0.0644846
0.242374 0.096025 0.0625467
0.256916 0.0966354 0.060853
0.270344 0.0968338 0.0591745
0.285771 0.0964218 0.0568246
0.300771 0.095552 0.0547799
0.315602 0.0948348 0.0521401
0.333043 0.092958 0.0466316
0.350149 0.0905318 0.0421149
0.366491 0.0881819 0.0367742
0.38294 0.0857557 0.0294652
0.397375 0.0820478 0.0228885
0.411292 0.078996 0.0168917
0.425132 0.0770581 0.0115053
0.437415 0.0745861 0.00851453
0.448661 0.0716869 0.00564584
0.460502 0.0695201 0.00373846
0.472435 0.0682841 0.00367742
0.483299 0.067689 0.00326543
0.490806 0.0644388 0.00195315
0.498085 0.0602426 0.000503548
0.50486 0.0577554 0
0.512688 0.0560769 0
0.520439 0.0547341 0
0.527504 0.051957 0
0.535592 0.0461891 0
0.543542 0.0409705 0
0.551553 0.0367437 0
0.560296 0.0327153 0
0.56968 0.028397 0
0.578958 0.0274205 0
0.58822 0.0230106 0
0.597864 0.0190585 0
0.606638 0.0142519 0
0.614939 0.0121157 0
0.623804 0.0111391 0
0.631632 0.00975052 0
0.639658 0.00791943 0
0.647074 0.00648508 0
0.653147 0.00601205 0
0.658839 0.00642405 0
0.664775 0.00573739 0
0.669932 0.00442512 0
0.674449 0.00280766 0
0.678523 0.000198367 0
0.682109 0 0
0.0963912 0.0987411 0.0897078
0.0981765 0.09897 0.0895399
0.10016 0.0990616 0.0890211
0.102083 0.0990921 0.0885023
0.104204 0.0991073 0.0879683
0.106523 0.0991226 0.0876173
0.108614 0.0996567 0.0874189
0.110674 0.0995499 0.0867323
0.117952 0.100328 0.0866865
0.125628 0.100694 0.0862745
0.132967 0.100542 0.0850385
0.139467 0.100206 0.0830549
0.146731 0.0998245 0.0809644
0.156649 0.0993057 0.0786603
0.166186 0.0984054 0.0756085
0.178149 0.0979629 0.0731518
0.191959 0.0975967 0.0712596
0.204639 0.0971389 0.0683452
0.21622 0.0971084 0.065919
0.229587 0.0974746 0.0644236
0.245319 0.098497 0.062501
0.259892 0.0989548 0.0606394
0.274357 0.0992447 0.0587015
0.290242 0.0990005 0.0564126
0.305455 0.0983749 0.0542306
0.320729 0.0970932 0.0503243
0.338689 0.0954757 0.0448005
0.355367 0.0930953 0.0403754
0.370794 0.0907301 0.0345464
0.387015 0.0885481 0.026978
0.401617 0.0852216 0.0205844
0.415442 0.0829023 0.0150454
0.428656 0.0813458 0.0101472
0.441001 0.0797589 0.00770581
0.453391 0.0771038 0.00480659
0.465293 0.0754406 0.00354009
0.476478 0.0744793 0.00340276
0.486992 0.0737774 0.0027924
0.49601 0.0727703 0.00157168
0.504036 0.0690318 0.000167849
0.511376 0.0668956 0
0.518441 0.0658427 0
0.525734 0.0653697 0
0.532982 0.0646982 0
0.540566 0.064332 0
0.549371 0.0599222 0
0.558083 0.0547189 0
0.56788 0.0500649 0
0.57702 0.045304 0
0.586007 0.041001 0
0.594812 0.0380865 0
0.604028 0.0342107 0
0.613626 0.0304265 0
0.621118 0.0271153 0
0.629709 0.0240177 0
0.638056 0.0224308 0
0.645594 0.0207065 0
0.652644 0.019501 0
0.65832 0.0177768 0
0.663966 0.0161746 0
0.669322 0.0159609 0
0.674815 0.0139162 0
0.678645 0.0121309 0
0.682246 0.0102693 0
0.685817 0.00700389 0
0.0949721 0.100847 0.0897383
0.0970321 0.101274 0.0896773
0.0991226 0.101625 0.0895705
0.101427 0.102007 0.0894789
0.104021 0.102388 0.0893111
0.106966 0.102708 0.0889448
0.10927 0.102937 0.0886091
0.11284 0.103227 0.0881666
0.119051 0.103395 0.0871595
0.126528 0.10338 0.0856794
0.13373 0.103166 0.0836957
0.141451 0.102586 0.0810559
0.149874 0.102113 0.0789502
0.160281 0.101488 0.0766461
0.170108 0.10045 0.0737621
0.182712 0.0999466 0.0716106
0.196139 0.0996567 0.0692454
0.209827 0.099443 0.0669871
0.221988 0.0995651 0.0653086
0.235676 0.0999619 0.0635996
0.250751 0.100816 0.0616464
0.265126 0.101625 0.0599069
0.27985 0.101869 0.0577096
0.295796 0.101595 0.055314
0.31075 0.100755 0.0526284
0.325887 0.0994583 0.0484321
0.343099 0.098024 0.0430457
0.35874 0.0958419 0.0382544
0.374258 0.093843 0.0324559
0.390799 0.0917525 0.024979
0.405371 0.0894484 0.0184787
0.418463 0.0875105 0.0131685
0.431708 0.0864118 0.00877394
0.44416 0.0853742 0.00669871
0.456123 0.0846265 0.00477607
0.467353 0.0829633 0.00343328
0.478614 0.0825208 0.0034638
0.488945 0.082475 0.00323491
0.497581 0.0824445 0.00225834
0.506889 0.0821851 0.0011902
0.515099 0.0813458 0.000167849
0.521981 0.0806592 0
0.529366 0.0796521 0
0.538216 0.0785534 0
0.546578 0.076936 0
0.555993 0.0750896 0
0.56466 0.0721141 0
0.574197 0.0668193 0
0.583627 0.0623636 0
0.592401 0.05832 0
0.601343 0.0542611 0
0.610559 0.0507973 0
0.620127 0.0466316 0
0.628031 0.0441596 0
0.635599 0.0404669 0
0.643671 0.0357824 0
0.651102 0.0336004 0
0.657237 0.0315557 0
0.663172 0.0299687 0
0.668452 0.0267491 0
0.673884 0.0250858 0
0.678813 0.0240177 0
0.682658 0.0203403 0
0.686061 0.0193637 0
0.689143 0.0163272 0
0.0948806 0.10341 0.0888075
0.0967727 0.103899 0.0888075
0.0987564 0.104356 0.0888228
0.101198 0.104784 0.0888228
0.103731 0.104982 0.0887312
0.106447 0.105272 0.0885481
0.109621 0.105516 0.0884565
0.112596 0.105821 0.0881361
0.118654 0.105287 0.0860456
0.125231 0.105013 0.0838941
0.131655 0.10457 0.0814069
0.13959 0.104601 0.0797131
0.148043 0.104479 0.0780957
0.15938 0.104112 0.0760662
0.171328 0.103319 0.0734112
0.185702 0.103105 0.0715038
0.199863 0.102953 0.068925
0.21326 0.102739 0.0669261
0.224948 0.102831 0.0652934
0.238682 0.103197 0.0634318
0.254078 0.104234 0.0616312
0.268101 0.105165 0.0599832
0.2822 0.105089 0.057847
0.297948 0.104906 0.0555428
0.312978 0.104677 0.0528878
0.327459 0.103517 0.0487831
0.344305 0.102068 0.043473
0.360388 0.100893 0.0387884
0.37525 0.099321 0.0335241
0.38999 0.0977798 0.0269932
0.404196 0.0965286 0.0209506
0.417456 0.0954452 0.0155337
0.430182 0.0943008 0.0110628
0.442863 0.0933394 0.00820935
0.455344 0.0927596 0.0062562
0.467201 0.0925154 0.00471504
0.477989 0.0922408 0.00395209
0.489143 0.092195 0.00407416
0.499352 0.0921035 0.00325017
0.509041 0.0919661 0.00225834
0.518273 0.0912947 0.00111391
0.527123 0.0908827 0.000122072
0.535363 0.0907301 0
0.543389 0.0891737 0
0.552514 0.0868391 0
0.561685 0.0848249 0
0.571069 0.082948 0
0.579934 0.0816815 0
0.589166 0.0771954 0
0.598383 0.0734417 0
0.607645 0.0684672 0
0.617014 0.0649729 0
0.62594 0.0618296 0
0.634119 0.0589761 0
0.641779 0.055848 0
0.648905 0.050721 0
0.65655 0.0451362 0
0.661921 0.0436408 0
0.66714 0.0415503 0
0.672877 0.0383001 0
0.677638 0.0350347 0
0.68249 0.0327001 0
0.686 0.028687 0
0.689326 0.026566 0
0.692485 0.0247196 0
0.0939345 0.105547 0.087541
0.0959335 0.106386 0.087892
0.098146 0.106874 0.0882582
0.100938 0.107286 0.0882124
0.103868 0.107637 0.0884565
0.106783 0.107866 0.0886549
0.110323 0.107881 0.0887922
0.113207 0.108385 0.0884108
0.1196 0.10837 0.0865034
0.126131 0.107607 0.0838483
0.132372 0.107301 0.0812695
0.139315 0.10721 0.0798047
0.147417 0.106859 0.0780041
0.15938 0.106706 0.0762188
0.172229 0.106447 0.0738384
0.186603 0.106401 0.071931
0.200809 0.106508 0.0695964
0.214374 0.106538 0.0676585
0.226398 0.106706 0.0660868
0.239765 0.107073 0.0641642
0.254307 0.107912 0.0623941
0.267857 0.108736 0.0607156
0.282322 0.109316 0.0585794
0.297658 0.109361 0.0564279
0.312108 0.109209 0.0541695
0.326406 0.108965 0.05037
0.343374 0.107698 0.0454566
0.359182 0.106523 0.0407263
0.374273 0.105638 0.0353246
0.388876 0.104448 0.0294804
0.402228 0.103014 0.023682
0.415335 0.101747 0.018204
0.428443 0.101152 0.0134737
0.442542 0.100786 0.00999466
0.454475 0.0999313 0.00819409
0.466789 0.0998245 0.0065919
0.47834 0.100069 0.00521859
0.488777 0.100389 0.0043946
0.500633 0.101366 0.00419623
0.512612 0.101289 0.00311284
0.522927 0.10042 0.0018616
0.531991 0.0999466 0.000747692
0.540597 0.0995346 0
0.54873 0.0993362 0
0.557931 0.0984054 0
0.567178 0.0952926 0
0.576608 0.0937057 0
0.586648 0.0918898 0
0.595605 0.0905318 0
0.605112 0.0868849 0
0.614801 0.0826123 0
0.623575 0.0776837 0
0.632425 0.075288 0
0.639963 0.0737774 0
0.647807 0.0703136 0
0.654994 0.0666056 0
0.661631 0.0611582 0
0.667369 0.058732 0
0.672694 0.0569009 0
0.677409 0.0535744 0
0.68217 0.0485389 0
0.686015 0.0433356 0
0.689433 0.0379034 0
0.692348 0.0337987 0
0.695308 0.031342 0
0.0930953 0.107897 0.0867475
0.0948196 0.108888 0.0869764
0.0969406 0.109728 0.0872053
0.100755 0.110445 0.0877546
0.10399 0.110704 0.087892
0.108507 0.110445 0.0890669
0.110964 0.110796 0.0887007
0.113848 0.111254 0.0882734
0.118654 0.11194 0.0880751
0.127169 0.111208 0.0844739
0.133562 0.11046 0.0816968
0.139971 0.110582 0.0803235
0.147936 0.110445 0.0787976
0.158953 0.110033 0.0766308
0.171542 0.109773 0.073991
0.186709 0.110277 0.072282
0.201343 0.110597 0.0703746
0.215335 0.110994 0.0684977
0.22742 0.111131 0.0669871
0.240162 0.111406 0.0650797
0.254643 0.11252 0.0632944
0.268345 0.113512 0.0617227
0.28191 0.114137 0.0597848
0.297704 0.114473 0.057435
0.312612 0.11458 0.0555123
0.326284 0.114397 0.0525216
0.342611 0.114107 0.047364
0.358511 0.1131 0.042771
0.372915 0.111894 0.0383612
0.387274 0.11133 0.0326848
0.401465 0.110811 0.0265354
0.414282 0.109819 0.021149
0.426795 0.108965 0.0159152
0.440681 0.108721 0.0115511
0.454917 0.108721 0.00958267
0.466682 0.108873 0.00807202
0.478294 0.109255 0.0068513
0.49015 0.109667 0.00535592
0.502632 0.109819 0.00424201
0.515007 0.110399 0.00352483
0.526513 0.110597 0.00335698
0.536355 0.109834 0.00234989
0.545586 0.109148 0.00148013
0.553979 0.108476 0.000671397
0.563104 0.108064 0.000656138
0.573556 0.107057 0.000610361
0.583261 0.104463 0.000488289
0.5935 0.102327 0.000915541
0.602731 0.100755 0.000686656
0.612055 0.0993668 0.000671397
0.621241 0.0970321 0.000564584
0.630701 0.0918441 0.000366217
0.638544 0.0890211 6.10361e-05
0.646235 0.0872969 0
0.653483 0.0858625 0
0.660548 0.0827344 0
0.667521 0.0780957 0
0.672663 0.0749371 0
0.677821 0.0724193 0
0.682628 0.0690929 0
0.687144 0.0648203 0
0.691218 0.0591135 0
0.693721 0.0530861 0
0.696605 0.0471809 0
0.698787 0.0414435 0
0.0926223 0.110597 0.0857252
0.0944381 0.111421 0.0859846
0.0966354 0.112169 0.0859693
0.100649 0.112917 0.086717
0.105943 0.113207 0.0880751
0.108751 0.113634 0.0881666
0.11165 0.114153 0.087953
0.114641 0.114733 0.087953
0.119371 0.11548 0.0880293
0.126085 0.115984 0.0860761
0.136126 0.114794 0.0834516
0.141939 0.114397 0.0812848
0.148363 0.114458 0.0796368
0.159564 0.114199 0.0774548
0.172625 0.114199 0.075227
0.187259 0.114397 0.0729229
0.201373 0.114443 0.0711681
0.21619 0.115084 0.0693217
0.229252 0.115679 0.0678569
0.241856 0.116045 0.0661479
0.255451 0.116945 0.0643778
0.269368 0.11812 0.0627298
0.283253 0.11902 0.0610208
0.298375 0.119417 0.0586709
0.313191 0.119875 0.0566415
0.326848 0.119982 0.0544747
0.341329 0.119646 0.049836
0.356878 0.119417 0.0449226
0.371328 0.11873 0.0407721
0.385122 0.11809 0.0363775
0.398825 0.117739 0.0304875
0.412131 0.117906 0.0248264
0.425696 0.117693 0.0190585
0.438956 0.117067 0.0138552
0.452873 0.117266 0.0105592
0.4654 0.117754 0.00932326
0.478462 0.118029 0.00788891
0.491341 0.118791 0.00735485
0.504097 0.118669 0.00669871
0.516472 0.118532 0.00636301
0.528939 0.118944 0.00689708
0.540291 0.11928 0.00671397
0.549798 0.118959 0.00610361
0.559762 0.117754 0.00529488
0.569085 0.116564 0.00511177
0.579202 0.115496 0.00556954
0.590036 0.114397 0.00584421
0.599542 0.113054 0.00588998
0.608164 0.11017 0.0043183
0.617975 0.108888 0.00440986
0.626902 0.107134 0.00419623
0.636103 0.106188 0.00419623
0.64416 0.101518 0.00216678
0.651347 0.0998093 0.00161746
0.658946 0.0980087 0.00132753
0.666453 0.0965591 0.00109865
0.673075 0.0938888 0.00062562
0.678141 0.0914626 0
0.682994 0.0887465 0
0.6878 0.0848402 0
0.692271 0.0804913 0
0.695796 0.0748913 0
0.698299 0.068101 0
0.700542 0.0620737 0
0.702907 0.0564584 0
0.0918898 0.113619 0.0848554
0.0939651 0.114336 0.0848859
0.0981918 0.115175 0.0860914
0.103273 0.115953 0.0877241
0.107195 0.116793 0.0885176
0.110002 0.117464 0.0880903
0.112657 0.11783 0.0878157
0.115831 0.118257 0.0875715
0.120378 0.118944 0.0877699
0.125719 0.119677 0.0877852
0.135744 0.119432 0.084535
0.144701 0.118379 0.0823987
0.151202 0.11809 0.0802014
0.161181 0.118349 0.078172
0.174655 0.118822 0.0763561
0.188891 0.11931 0.074403
0.203143 0.119799 0.0724804
0.21622 0.120043 0.0707103
0.229877 0.120592 0.0690318
0.243198 0.121141 0.0672313
0.256062 0.121935 0.0654765
0.269627 0.122881 0.0638132
0.283192 0.123919 0.06215
0.298024 0.124575 0.0600595
0.311986 0.125032 0.0579538
0.325872 0.125597 0.0560922
0.339773 0.125704 0.0526741
0.354742 0.125628 0.0480201
0.368811 0.125399 0.043534
0.382284 0.125338 0.0394903
0.395972 0.125109 0.0347906
0.409018 0.125124 0.0292058
0.423148 0.1252 0.0234226
0.437507 0.125505 0.0177768
0.452293 0.1252 0.0124208
0.464897 0.12549 0.0115511
0.477852 0.126177 0.0112459
0.491615 0.126345 0.0110628
0.505425 0.127001 0.0107881
0.518898 0.126909 0.010071
0.530968 0.127214 0.0102388
0.543496 0.12781 0.0112612
0.55465 0.127703 0.0115053
0.565209 0.127092 0.0113222
0.575525 0.125689 0.0104677
0.585016 0.124544 0.0103761
0.595209 0.12401 0.0105898
0.605722 0.122789 0.0108797
0.614038 0.121294 0.00927749
0.622919 0.118776 0.00823987
0.632685 0.117006 0.00839246
0.641245 0.11516 0.00825513
0.649699 0.113451 0.00538643
0.657145 0.110002 0.0021973
0.664149 0.107836 0.00207523
0.67155 0.106325 0.00195315
0.678187 0.104921 0.00157168
0.682979 0.103151 0
0.687785 0.101701 0
0.692515 0.0994888 0
0.697063 0.0963912 0
0.700603 0.0911269 0
0.702922 0.0857252 0
0.705089 0.079118 0
0.706996 0.0717632 0
0.0904555 0.11696 0.0839704
0.0955367 0.117723 0.0852064
0.101183 0.118273 0.0869764
0.104692 0.119112 0.0879377
0.107668 0.120027 0.0880598
0.110842 0.120912 0.0882582
0.113909 0.121614 0.0876936
0.117189 0.122072 0.0875715
0.121248 0.122774 0.087892
0.126772 0.123674 0.0881056
0.133623 0.124208 0.0870527
0.144945 0.123857 0.0836042
0.155123 0.123003 0.0818189
0.16466 0.122896 0.0792248
0.176867 0.124041 0.0773938
0.189548 0.124788 0.0756847
0.203815 0.125444 0.074052
0.21767 0.126055 0.0724041
0.230518 0.126284 0.0707561
0.242588 0.126696 0.0690623
0.254917 0.12723 0.0669413
0.268208 0.128069 0.065156
0.281895 0.129076 0.063386
0.296788 0.130144 0.0612497
0.311299 0.130739 0.0592813
0.325414 0.131456 0.0574655
0.33875 0.131853 0.0552529
0.353628 0.131914 0.0505989
0.36762 0.131975 0.04654
0.380423 0.131762 0.0425269
0.393164 0.132143 0.03888
0.407294 0.132738 0.0342718
0.420813 0.132723 0.0292363
0.436408 0.132753 0.0241245
0.451621 0.132967 0.0193332
0.464698 0.133089 0.0148013
0.477821 0.133898 0.014023
0.492409 0.13434 0.0144198
0.506844 0.13489 0.0144045
0.520562 0.135271 0.0146334
0.532357 0.135439 0.0142672
0.545144 0.136233 0.0158846
0.558038 0.13637 0.0166629
0.569879 0.136019 0.0167544
0.580301 0.134981 0.0158694
0.590326 0.133654 0.0150912
0.600061 0.132906 0.01561
0.610529 0.131624 0.016144
0.61976 0.1299 0.014725
0.628412 0.128038 0.0128328
0.638361 0.126085 0.0121004
0.647654 0.124163 0.0121309
0.655283 0.122148 0.00936904
0.662638 0.119661 0.00462348
0.669886 0.117266 0.00209049
0.676799 0.115297 0.0019379
0.683436 0.113787 0.00154116
0.688014 0.112352 0.000381476
0.692744 0.110826 0
0.697307 0.108354 0
0.701366 0.106218 0
0.705287 0.104082 0
0.707988 0.101427 0
0.709682 0.0970474 0
0.711727 0.0899672 0
0.0910201 0.121859 0.0844129
0.0972457 0.122698 0.0854353
0.101091 0.123537 0.0865644
0.103532 0.124483 0.0865187
0.106447 0.125322 0.0863813
0.109453 0.126131 0.0866102
0.112947 0.126864 0.0867018
0.116686 0.127672 0.0867933
0.122118 0.129137 0.0870985
0.128267 0.130236 0.0878157
0.134142 0.131075 0.0885939
0.141009 0.130907 0.0873884
0.153521 0.129229 0.0848554
0.169512 0.12845 0.0816205
0.180163 0.128878 0.0793317
0.192233 0.129885 0.0770581
0.204669 0.130846 0.0757153
0.218738 0.131456 0.0739147
0.232212 0.132052 0.0723583
0.243809 0.132311 0.0708629
0.256443 0.133104 0.0688792
0.269978 0.134188 0.0668956
0.282689 0.13492 0.0651713
0.295476 0.135607 0.0632486
0.310292 0.136522 0.0609598
0.325139 0.137438 0.0589761
0.33843 0.138125 0.0573129
0.352071 0.138415 0.0537118
0.366033 0.138735 0.049424
0.378744 0.138842 0.0460517
0.390539 0.138964 0.0427253
0.403769 0.139345 0.040238
0.41976 0.13991 0.035584
0.434455 0.140246 0.0304112
0.449348 0.140566 0.0263371
0.464225 0.1411 0.0221103
0.476631 0.141238 0.0189059
0.491249 0.142016 0.0187381
0.50631 0.143053 0.0184787
0.522087 0.143618 0.0191806
0.533806 0.143847 0.0193027
0.545785 0.143969 0.0192111
0.560006 0.144717 0.0206455
0.573327 0.144533 0.021912
0.58439 0.143374 0.0217441
0.595575 0.141848 0.0211948
0.604868 0.140826 0.0201724
0.615518 0.140002 0.0209201
0.625605 0.137987 0.0197757
0.634668 0.136065 0.0183719
0.64361 0.133577 0.0167239
0.653346 0.131701 0.0164492
0.661219 0.129732 0.0135195
0.66807 0.127398 0.00915541
0.674952 0.124804 0.00430304
0.681483 0.123354 0.00283818
0.687953 0.12137 0.00254826
0.692943 0.119738 0.00134279
0.697108 0.118013 0.000198367
0.701549 0.117067 0
0.705898 0.114961 0
0.709575 0.1122 0
0.712337 0.110277 0
0.714824 0.108476 0
0.716426 0.103761 0
0.0915389 0.126833 0.0859998
0.0961929 0.128115 0.0861372
0.0985428 0.129427 0.0861677
0.101167 0.130587 0.0864118
0.104372 0.131594 0.086656
0.107897 0.132403 0.0869306
0.111055 0.133013 0.0870375
0.113405 0.133486 0.0871901
0.118517 0.135012 0.0881819
0.124773 0.13669 0.0895552
0.132494 0.138506 0.0905318
0.13875 0.139544 0.0918441
0.147951 0.138476 0.0892653
0.165179 0.136584 0.0864271
0.182376 0.135073 0.0829786
0.193683 0.135485 0.0805982
0.206043 0.136553 0.0790417
0.218494 0.137423 0.0770275
0.232776 0.137911 0.0745098
0.245808 0.138491 0.0726177
0.258579 0.139391 0.0709392
0.272007 0.14052 0.0690471
0.285344 0.141649 0.0671702
0.29778 0.142458 0.0654765
0.310796 0.142992 0.0632639
0.32401 0.143755 0.0611582
0.336629 0.144244 0.0590982
0.349523 0.144915 0.0575113
0.362463 0.145022 0.0537728
0.375463 0.145434 0.050248
0.388418 0.145876 0.0469978
0.401556 0.146136 0.0438849
0.416266 0.146578 0.0423438
0.431907 0.147295 0.0379644
0.446097 0.147951 0.0338445
0.461219 0.148959 0.0302586
0.476402 0.149493 0.0271458
0.490059 0.149248 0.0237736
0.506371 0.15021 0.0234836
0.521096 0.151507 0.0234073
0.534752 0.152697 0.0235904
0.547204 0.153353 0.0237278
0.560876 0.153658 0.0242466
0.576272 0.154223 0.0265202
0.588556 0.154177 0.0263371
0.599878 0.153353 0.0262913
0.610742 0.152239 0.0259098
0.620142 0.150729 0.0253605
0.630457 0.14963 0.0242008
0.640589 0.147616 0.0224613
0.64892 0.14551 0.0209049
0.658244 0.14255 0.0193484
0.666651 0.141054 0.0168765
0.673274 0.138903 0.0128481
0.679942 0.135744 0.00840772
0.686305 0.132692 0.00425727
0.692561 0.130419 0.00318914
0.697383 0.127993 0.00233463
0.701686 0.125566 0.00112917
0.705806 0.124025 0.000106813
0.709743 0.122591 0
0.713649 0.120256 0
0.716228 0.118425 0
0.7187 0.116228 0
0.720958 0.11429 0
0.0872663 0.132708 0.0888991
0.0898146 0.134127 0.0892348
0.0926528 0.135241 0.0892042
0.0955062 0.136553 0.0890059
0.0988785 0.137667 0.0887007
0.103395 0.138598 0.0881361
0.106783 0.139223 0.0881971
0.109926 0.13991 0.088365
0.112505 0.141054 0.0892348
0.118288 0.142596 0.0904555
0.12546 0.144228 0.0918898
0.133669 0.145953 0.0934005
0.142565 0.147463 0.09337
0.154635 0.145998 0.0909743
0.174365 0.145052 0.0885328
0.194034 0.143771 0.0851759
0.206638 0.144869 0.0837262
0.219638 0.146014 0.0818494
0.231983 0.147036 0.0795911
0.244999 0.147768 0.0768292
0.260304 0.148547 0.0735485
0.274006 0.149111 0.0709239
0.287221 0.149935 0.0694438
0.299489 0.15082 0.0680705
0.312901 0.151537 0.0660868
0.325536 0.15198 0.0644694
0.337728 0.152499 0.0628672
0.349828 0.153292 0.0616464
0.362661 0.153231 0.059144
0.374151 0.153048 0.0558328
0.38558 0.153079 0.0523995
0.398978 0.153933 0.0495918
0.413855 0.154818 0.0468605
0.429313 0.155764 0.045182
0.444511 0.15671 0.0407721
0.459113 0.15787 0.0370794
0.475044 0.15935 0.0334478
0.490578 0.160128 0.0304723
0.505241 0.160662 0.0275883
0.520821 0.162097 0.0282139
0.5355 0.16347 0.028336
0.548394 0.16463 0.0285954
0.562234 0.165103 0.0294347
0.577249 0.165316 0.0301976
0.591348 0.166003 0.0313115
0.603281 0.165743 0.0311131
0.61442 0.165331 0.0309606
0.625299 0.163516 0.0300145
0.635157 0.162188 0.0298161
0.645502 0.161044 0.0288548
0.654597 0.159548 0.0277562
0.663096 0.156512 0.0261387
0.67155 0.154208 0.0240635
0.678752 0.152895 0.0200656
0.68513 0.150576 0.0153506
