brand-bible/brands/assets/blkgrlcotoo-luts/709to709_250D_x65_Clean_White.cube
TITLE "Generated by Resolve"
LUT_3D_SIZE 65
0.0197147 0.0792401 0.0977493
0.0205081 0.0792706 0.0979324
0.0218814 0.0793011 0.0982071
0.0233616 0.0794232 0.0984207
0.0280308 0.0797131 0.098558
0.0379339 0.0803082 0.0983902
0.0499428 0.080827 0.097734
0.062562 0.0811322 0.096849
0.0711986 0.0815747 0.0951095
0.0778363 0.0807355 0.0923934
0.0871595 0.078584 0.0886244
0.097734 0.0769207 0.0855879
0.105623 0.0747845 0.0793164
0.112383 0.0747845 0.075349
0.121477 0.0746471 0.0713359
0.131456 0.0748455 0.0692607
0.144717 0.0752117 0.0669413
0.159274 0.0751202 0.06421
0.172808 0.0748302 0.0614786
0.185428 0.0750744 0.0589609
0.200595 0.0759747 0.056733
0.215427 0.0769665 0.0551766
0.22916 0.0774853 0.053193
0.240436 0.0778515 0.0515297
0.250034 0.0782025 0.0500801
0.260853 0.0778058 0.0476692
0.272129 0.0771954 0.0450446
0.282368 0.0764935 0.0426032
0.292882 0.0757 0.0401465
0.304463 0.0742657 0.0364843
0.316915 0.0723735 0.032105
0.328389 0.0707408 0.0280919
0.339986 0.0687572 0.0242008
0.352834 0.0667582 0.0196231
0.366629 0.0648814 0.0148013
0.382345 0.0628061 0.00950637
0.396811 0.0607156 0.00480659
0.411063 0.057969 0.00047303
0.427085 0.0549783 0.000534066
0.443503 0.052018 0.000701915
0.459297 0.0486915 0.00103761
0.473838 0.0413672 1.5259e-05
0.487724 0.0349279 1.5259e-05
0.501396 0.0290379 1.5259e-05
0.514565 0.0234836 1.5259e-05
0.527321 0.0202182 0
0.539345 0.0141299 0
0.550927 0.00856031 0
0.56257 0.00453193 0
0.573892 0.00456245 0
0.584649 0.00538643 0
0.595087 0.00325017 0
0.605798 0.00378424 0
0.614313 0.00389105 0
0.623224 0.00479133 0
0.631617 0.00753796 0
0.640131 0.010956 0
0.648249 0.0143282 0
0.654612 0.0167544 0.000198367
0.66067 0.0186465 0.00137331
0.666957 0.0200504 0.0024567
0.67303 0.0212711 0.00320439
0.679225 0.022797 0.00395209
0.684733 0.023621 0.00410468
0.689769 0.0228885 0.00392157
0.0172274 0.0805829 0.0976272
0.0178988 0.0807507 0.0979171
0.0192721 0.0808423 0.0982986
0.0210574 0.0809339 0.0987106
0.0270085 0.0811627 0.0988479
0.0390478 0.0817578 0.0987106
0.0505226 0.0821241 0.0980697
0.0639963 0.0826276 0.0971237
0.0728923 0.0830701 0.0950484
0.079408 0.0818952 0.0918898
0.0900435 0.0807965 0.0894484
0.0997787 0.0780346 0.0848859
0.107439 0.0757305 0.0782483
0.11548 0.075639 0.0743267
0.124605 0.0755779 0.0710918
0.134981 0.0760662 0.0692149
0.149691 0.0763104 0.0669108
0.164385 0.0763714 0.0642405
0.177996 0.0763104 0.0616312
0.190311 0.0762341 0.0591287
0.204761 0.0770123 0.057023
0.219608 0.0778058 0.0550851
0.232959 0.078294 0.0530404
0.244862 0.0787366 0.0513008
0.25507 0.0789807 0.0496529
0.266041 0.0784009 0.0471504
0.27686 0.0779126 0.0447089
0.288151 0.0774395 0.0422522
0.298909 0.0768139 0.0398871
0.310842 0.0749981 0.0356146
0.322545 0.0732128 0.0313878
0.335134 0.0713817 0.0269627
0.347417 0.0695354 0.0227817
0.360998 0.0675212 0.0178683
0.375891 0.0656443 0.0128939
0.390417 0.0635996 0.00830091
0.406653 0.0613413 0.00318914
0.42269 0.0573587 0.000839246
0.437812 0.0553292 0.00102235
0.453986 0.0533761 0.00129702
0.468818 0.0514382 0.00125124
0.481941 0.0471809 0
0.494255 0.0429236 0
0.507622 0.0387274 0
0.519722 0.0350805 0
0.531899 0.0288396 0
0.543969 0.0227359 0
0.555413 0.018555 0
0.567041 0.0142977 0
0.577737 0.0142824 0
0.588861 0.0146487 0
0.599268 0.0175174 0
0.609033 0.0184939 0
0.618143 0.0187076 0
0.626627 0.0204013 0
0.634546 0.0223087 0.000717174
0.6421 0.0238041 0.00199893
0.650095 0.0255589 0.00352483
0.657038 0.0279393 0.00442512
0.662989 0.0288548 0.0052491
0.669108 0.0309453 0.00527962
0.675212 0.0331731 0.00437934
0.681636 0.0347906 0.00373846
0.687388 0.0357061 0.00291447
0.692073 0.0336919 0.00242618
0.0126955 0.0821546 0.0966506
0.0132906 0.0824445 0.0969558
0.014374 0.0827802 0.0974136
0.0165866 0.0831769 0.0978714
0.0215152 0.0836652 0.0982376
0.0358587 0.0843366 0.0982681
0.0474861 0.0844129 0.0979477
0.0632181 0.084596 0.0971389
0.0742504 0.0846113 0.0948806
0.0819104 0.0835279 0.0916762
0.0916762 0.0822309 0.0888991
0.10248 0.0798047 0.0834211
0.110369 0.0771344 0.0774701
0.119188 0.0771038 0.0738689
0.129061 0.0772259 0.0712902
0.140826 0.0777905 0.0693217
0.156512 0.0779736 0.0668803
0.170703 0.0778821 0.0642252
0.184131 0.0776684 0.0614786
0.196933 0.0776379 0.0589303
0.211566 0.0781415 0.0567788
0.226291 0.0788434 0.0547341
0.238895 0.0793927 0.052781
0.249729 0.0798199 0.0511177
0.261006 0.0798199 0.0490272
0.27303 0.0793317 0.0463722
0.284031 0.0788739 0.0439307
0.295125 0.0784161 0.0415198
0.306279 0.0772259 0.0382391
0.318761 0.0753338 0.0337224
0.330083 0.0737011 0.0297093
0.340963 0.072282 0.0260624
0.354177 0.0708324 0.0222629
0.367727 0.0693828 0.0182193
0.382727 0.0682231 0.0138552
0.399069 0.0667277 0.00889601
0.414664 0.0652018 0.00430304
0.429496 0.0627604 0.00184634
0.443961 0.0614176 0.00201419
0.45922 0.0598611 0.00238041
0.472786 0.0584878 0.00247196
0.486336 0.0548562 0.000885023
0.499382 0.0517739 0
0.511757 0.0500343 0
0.524727 0.0453193 0
0.536736 0.0390173 0
0.548348 0.0339818 0
0.560327 0.0319524 0
0.571389 0.0304723 0
0.581704 0.0317082 0
0.591531 0.0315709 0
0.602228 0.0339666 0
0.61178 0.0364385 0.000762951
0.621073 0.0387732 0.00224308
0.629374 0.0383764 0.00358587
0.636606 0.0397498 0.00485237
0.644419 0.04065 0.00588998
0.65185 0.0412757 0.00616464
0.659724 0.0425422 0.00646983
0.665339 0.0440375 0.00468452
0.671397 0.0459449 0.00230411
0.67776 0.047776 0.0010071
0.683513 0.0480964 0.000732433
0.689586 0.0493324 0.000183108
0.694316 0.0472877 0
0.00924697 0.0833906 0.0945602
0.00982681 0.0837415 0.0947585
0.0112459 0.0841688 0.0950027
0.0142214 0.0847944 0.0955215
0.0188296 0.0854658 0.0961318
0.0326848 0.0862135 0.0963607
0.0459297 0.0865949 0.0962844
0.0618601 0.0869917 0.0962234
0.0749065 0.0873884 0.09514
0.0847181 0.0864118 0.0922713
0.0944228 0.0847181 0.0882124
0.105791 0.0816358 0.0813306
0.115526 0.0794995 0.0763561
0.12462 0.078706 0.0729686
0.135088 0.0789502 0.0710155
0.150408 0.0792096 0.0684672
0.165179 0.0793317 0.0660105
0.177646 0.0794537 0.0637217
0.190967 0.0794995 0.0612497
0.203891 0.0796826 0.0589456
0.218372 0.0804608 0.0570993
0.232746 0.0811017 0.054963
0.244434 0.0816205 0.0532998
0.254932 0.0821241 0.0518044
0.266224 0.0820783 0.0495918
0.27689 0.0815442 0.0470436
0.288289 0.0812085 0.0446784
0.299092 0.0810254 0.0425422
0.310002 0.0803693 0.0397803
0.321889 0.0792554 0.0359808
0.333867 0.0780499 0.032578
0.344823 0.0770275 0.0293431
0.357733 0.0758831 0.0259861
0.372656 0.0741588 0.0209506
0.388312 0.0733959 0.0161898
0.403296 0.0722972 0.0118257
0.418509 0.0709239 0.00714122
0.432959 0.0691234 0.00444038
0.446998 0.067216 0.00294499
0.462501 0.0660868 0.00337224
0.477287 0.0649271 0.00367742
0.490303 0.0610666 0.00213626
0.503807 0.059266 0.000610361
0.516289 0.0586252 0
0.528878 0.059617 0
0.54136 0.0600595 0
0.552071 0.0587778 0
0.563409 0.0566415 0
0.574319 0.0544289 0
0.584772 0.0552071 0.000289921
0.594263 0.055848 0.00198367
0.604532 0.0541695 0.00355535
0.613703 0.0556649 0.00529488
0.622797 0.056611 0.00679026
0.630976 0.0565347 0.00610361
0.639017 0.0582742 0.00569161
0.646403 0.0594339 0.00604257
0.653986 0.0599222 0.00648508
0.661433 0.0602579 0.00666819
0.668147 0.0620737 0.00611887
0.673503 0.0627756 0.00434882
0.679667 0.0628061 0.00248722
0.68571 0.062089 0.000366217
0.691356 0.0622416 0
0.696727 0.0608682 0
0.00857557 0.0852827 0.0922713
0.00894179 0.0857099 0.0923323
0.00959792 0.0862135 0.0924697
0.0125124 0.0869612 0.0929885
0.018143 0.0878004 0.0936141
0.0317845 0.0887465 0.0939498
0.0471351 0.0893721 0.0938125
0.0634623 0.0897078 0.0938125
0.0768749 0.0902113 0.0941787
0.0855879 0.0890669 0.0901961
0.097261 0.0876783 0.0853742
0.1084 0.0848859 0.0782177
0.119646 0.08336 0.0746014
0.130114 0.0818494 0.0725872
0.141588 0.0810559 0.0705577
0.156649 0.0813611 0.0685893
0.170871 0.0817731 0.0666514
0.183749 0.0818647 0.0643473
0.196246 0.082063 0.062089
0.209583 0.0823682 0.0598459
0.224323 0.0832227 0.0581216
0.237324 0.084062 0.0564431
0.247593 0.0844434 0.0548562
0.258 0.0849622 0.0533608
0.269337 0.0849622 0.0515755
0.280507 0.0848096 0.0488899
0.290913 0.084535 0.0466926
0.301762 0.084535 0.0447395
0.313146 0.0841077 0.0425422
0.324605 0.0833753 0.0394293
0.336004 0.0829786 0.0361791
0.348058 0.0823987 0.0325628
0.360845 0.0813001 0.0289006
0.375082 0.0797436 0.0242313
0.390707 0.0780499 0.0189975
0.406302 0.0773632 0.0145571
0.42063 0.0768444 0.010071
0.436316 0.0755169 0.00721752
0.45095 0.0747539 0.00502022
0.465873 0.0746014 0.00416571
0.481804 0.074876 0.00445563
0.494911 0.0757763 0.00328069
0.507301 0.0763256 0.00199893
0.520638 0.0754864 0.000579843
0.531975 0.0751507 0
0.543496 0.0763256 0
0.554482 0.0766308 0
0.565454 0.0777447 0.00108339
0.576303 0.0768139 0.00321965
0.586496 0.0773632 0.00476081
0.596368 0.0776226 0.00553903
0.606287 0.0770581 0.00724804
0.615808 0.0759442 0.00843824
0.62536 0.0761578 0.010132
0.633402 0.0763409 0.0105135
0.641474 0.0757916 0.00967422
0.648447 0.0760967 0.00866712
0.655879 0.0771038 0.00793469
0.663157 0.0778515 0.00849927
0.670207 0.0778515 0.00880446
0.676066 0.0784924 0.00715648
0.681483 0.0780957 0.00518807
0.687846 0.075227 0.00262455
0.693629 0.0733959 0.000335698
0.698802 0.0721447 0
0.00819409 0.087541 0.0907912
0.0083772 0.0881208 0.0909438
0.00843824 0.0888991 0.0910811
0.00921645 0.0898146 0.0911269
0.0140078 0.0903182 0.0913558
0.026688 0.0910658 0.0917372
0.0453803 0.0917525 0.0920272
0.0624247 0.0921187 0.0924239
0.0771344 0.0932021 0.09308
0.0866865 0.0923934 0.0897383
0.0976577 0.0904402 0.0829938
0.10898 0.0893263 0.0778821
0.121294 0.088014 0.0752422
0.133471 0.0866712 0.0733959
0.147707 0.0860609 0.0713054
0.162936 0.0854658 0.0693828
0.176165 0.085008 0.0675059
0.189319 0.0847181 0.0653239
0.202274 0.0849622 0.0631266
0.215488 0.0853742 0.0609598
0.228885 0.0860609 0.0592813
0.240513 0.0868544 0.0577096
0.250858 0.0876173 0.05626
0.260456 0.0881514 0.054902
0.271229 0.0883345 0.0536049
0.282429 0.0883345 0.0513619
0.292927 0.0884565 0.049134
0.303822 0.0886244 0.0470741
0.314427 0.0883192 0.0450599
0.326162 0.0874952 0.0424659
0.337896 0.0870069 0.0390631
0.350545 0.0863813 0.0353857
0.363806 0.0863508 0.0315099
0.37789 0.0862593 0.0266728
0.392889 0.085481 0.0213779
0.409537 0.0851453 0.0160983
0.424765 0.0853437 0.01149
0.440009 0.0861372 0.00903334
0.455009 0.0869306 0.00741588
0.468956 0.0868696 0.00531014
0.484276 0.0870069 0.00511177
0.49807 0.0878004 0.00416571
0.509926 0.089189 0.00299077
0.522484 0.0905776 0.00178531
0.533867 0.0919356 0.000762951
0.545144 0.0916915 0.0016022
0.556451 0.092546 0.00361639
0.5673 0.0928969 0.00550851
0.578744 0.0932326 0.00788891
0.589563 0.0932326 0.00996414
0.59884 0.093019 0.0101778
0.608209 0.09308 0.0107729
0.617487 0.0935378 0.0118563
0.627268 0.0928511 0.0134585
0.635935 0.0928511 0.0149996
0.643198 0.0929885 0.0139315
0.651011 0.0915999 0.0128939
0.657816 0.091371 0.0113375
0.664591 0.0906844 0.00994888
0.672053 0.089189 0.00906386
0.678096 0.088777 0.00852979
0.684108 0.0881056 0.00727855
0.689738 0.0859388 0.00485237
0.695537 0.0827955 0.00236515
0.701122 0.0800641 0
0.00553903 0.0901656 0.0898909
0.00582895 0.0908522 0.0899825
0.00616464 0.0916304 0.0899977
0.00743114 0.0925002 0.0898146
0.00972 0.0934615 0.0899519
0.0199893 0.0941176 0.0903029
0.0396429 0.0943008 0.0901808
0.0654917 0.0948043 0.091783
0.0757153 0.0962539 0.0912337
0.0876326 0.0972305 0.0885634
0.0990311 0.0942702 0.0806897
0.108736 0.0938125 0.0778363
0.122499 0.0932326 0.0762036
0.137133 0.0920119 0.0742809
0.153079 0.0912184 0.0720836
0.168582 0.0906539 0.0701457
0.181582 0.0900282 0.0681315
0.194537 0.0897383 0.06598
0.206653 0.0892042 0.06392
0.219532 0.0893721 0.062089
0.232761 0.0897993 0.0603037
0.243626 0.0904707 0.0589761
0.253361 0.0912184 0.0577249
0.263157 0.0922713 0.056611
0.273838 0.0927749 0.0552529
0.284535 0.0930495 0.0536202
0.29572 0.0935378 0.0515297
0.305959 0.0939651 0.0495003
0.315847 0.0945602 0.0474556
0.328466 0.0947433 0.0440681
0.340597 0.0944076 0.0411231
0.353292 0.0941024 0.0374456
0.367147 0.094316 0.0335393
0.381109 0.0946212 0.0286717
0.395468 0.0949721 0.0233768
0.411551 0.0948806 0.017792
0.427359 0.0953994 0.0132143
0.441535 0.0957351 0.010193
0.457221 0.0967575 0.00866712
0.470985 0.0978408 0.00733959
0.484871 0.0989395 0.00598154
0.499458 0.100069 0.0052491
0.511864 0.100954 0.0043183
0.523354 0.102083 0.00518807
0.535958 0.103517 0.00619516
0.547601 0.104417 0.00738537
0.558709 0.104234 0.00794995
0.57023 0.10544 0.00993362
0.580606 0.106218 0.0120394
0.590951 0.106798 0.0140841
0.60145 0.105928 0.0153048
0.609812 0.105684 0.0154574
0.619287 0.105196 0.0159915
0.628244 0.104128 0.0164492
0.637293 0.104982 0.0176547
0.64535 0.105577 0.0172427
0.65243 0.104997 0.014725
0.659739 0.103243 0.0132753
0.666484 0.101717 0.0116121
0.673304 0.0997787 0.00993362
0.680674 0.0974136 0.00944533
0.686122 0.096437 0.00968948
0.692042 0.0964065 0.0102083
0.69778 0.094377 0.0089723
0.703166 0.0906386 0.00593576
0.00247196 0.0933852 0.0885176
0.00306706 0.0944839 0.0890669
0.00401312 0.0957656 0.0894026
0.00572213 0.0967422 0.0893873
0.00729381 0.0978103 0.0894179
0.0118105 0.0980087 0.0884718
0.0391089 0.0975662 0.0887007
0.0635233 0.0982376 0.0887007
0.0735027 0.0999008 0.088365
0.0867628 0.10193 0.0871901
0.100435 0.100008 0.0802625
0.108537 0.0988632 0.078233
0.121767 0.0987564 0.0770123
0.137591 0.0982528 0.0753338
0.156191 0.0974441 0.0730602
0.17409 0.096376 0.0706493
0.187121 0.0958267 0.0687266
0.199969 0.0959945 0.0669413
0.212924 0.0960098 0.0650339
0.22536 0.0962387 0.0633555
0.237339 0.096849 0.0617227
0.247608 0.0976272 0.060441
0.257176 0.0983749 0.0592508
0.266636 0.0993515 0.0581979
0.276951 0.0999466 0.0568246
0.287907 0.100465 0.0555428
0.298222 0.101137 0.0536812
0.308629 0.101793 0.0515297
0.317937 0.102312 0.0495766
0.330114 0.102663 0.0465248
0.342702 0.102922 0.0433661
0.356008 0.10341 0.0399481
0.368811 0.1037 0.0359045
0.382666 0.104021 0.0314336
0.397589 0.104494 0.026276
0.41149 0.104784 0.02121
0.428412 0.105394 0.0154726
0.442954 0.106798 0.012253
0.457343 0.107942 0.0107576
0.472267 0.109071 0.00918593
0.486198 0.110231 0.00822461
0.500542 0.11133 0.00892653
0.51368 0.112459 0.00979629
0.52546 0.113741 0.0107271
0.53753 0.115282 0.0121004
0.549874 0.116152 0.0132753
0.560784 0.116701 0.0139162
0.571298 0.116381 0.0146334
0.582223 0.117388 0.016495
0.591836 0.118334 0.0179904
0.60267 0.119173 0.0203861
0.611948 0.11902 0.0204623
0.620584 0.11812 0.0204776
0.63003 0.116869 0.0206149
0.638911 0.115343 0.0206455
0.647044 0.114885 0.0213626
0.6542 0.114275 0.0190127
0.661097 0.113497 0.0162356
0.668528 0.112871 0.0149844
0.675547 0.110964 0.0150301
0.682902 0.108553 0.0146181
0.688792 0.107958 0.0154421
0.694179 0.106432 0.0149538
0.700114 0.105409 0.0155642
0.705592 0.103166 0.0142672
0.000747692 0.0979629 0.0887007
0.00144961 0.0991989 0.0894026
0.00262455 0.100465 0.0896925
0.00427253 0.101244 0.0892958
0.0065919 0.101717 0.0881208
0.0180056 0.101915 0.0878157
0.0382391 0.102358 0.0872206
0.0577249 0.103273 0.086244
0.0705272 0.10457 0.0855421
0.0843977 0.10663 0.0845045
0.100618 0.107454 0.0817426
0.109636 0.104494 0.0793622
0.121447 0.104311 0.0775311
0.13846 0.104829 0.0763104
0.157717 0.104707 0.0741894
0.176181 0.104036 0.0721141
0.192554 0.103853 0.0700694
0.207248 0.103487 0.0680858
0.220371 0.103624 0.0661784
0.2318 0.104021 0.0645762
0.242161 0.104509 0.0630655
0.251637 0.105348 0.0619364
0.260594 0.106142 0.0607156
0.269703 0.107118 0.0596323
0.280095 0.107576 0.058381
0.290028 0.108019 0.0570993
0.299962 0.108995 0.0558938
0.309804 0.110079 0.0538033
0.319844 0.111147 0.0517891
0.331228 0.111757 0.0491951
0.343755 0.112261 0.0462348
0.357275 0.1131 0.0430304
0.370245 0.113848 0.0396124
0.383642 0.114321 0.0352178
0.399023 0.115648 0.0295567
0.413184 0.116274 0.0241398
0.428916 0.116945 0.0188754
0.444038 0.117601 0.0135805
0.458106 0.118898 0.0122225
0.472908 0.120272 0.0131685
0.488136 0.122011 0.0148318
0.501625 0.122988 0.0153658
0.51548 0.124025 0.0153658
0.527092 0.124636 0.01561
0.538506 0.125978 0.016968
0.550881 0.127657 0.0182345
0.562524 0.128832 0.0201572
0.573022 0.128939 0.0208743
0.58349 0.128649 0.02121
0.593591 0.128817 0.0223545
0.603235 0.128878 0.0241398
0.613489 0.128893 0.0251469
0.622461 0.128344 0.0247654
0.631098 0.127489 0.0246128
0.640375 0.126452 0.0247349
0.648402 0.124651 0.0247501
0.655894 0.123659 0.0243381
0.663615 0.12343 0.0243992
0.670542 0.122515 0.0231937
0.677775 0.121965 0.0226291
0.685267 0.120806 0.020798
0.690944 0.118944 0.0200351
0.696559 0.118029 0.0206912
0.702113 0.115694 0.0204166
0.707454 0.11397 0.0203403
0.000991836 0.102953 0.0893263
0.00183108 0.103777 0.0893111
0.00315862 0.104616 0.0887617
0.00494392 0.10518 0.0886702
0.0107729 0.10547 0.0886244
0.0271458 0.105974 0.0876783
0.0420386 0.106645 0.086305
0.0583505 0.107424 0.0855726
0.0690471 0.108522 0.0851148
0.0834058 0.110796 0.084947
0.0992752 0.113985 0.0836652
0.112062 0.111696 0.0811933
0.124193 0.110323 0.078706
0.140459 0.112032 0.0771801
0.158724 0.112413 0.0755932
0.177295 0.112734 0.0737621
0.19295 0.112642 0.0721599
0.209125 0.113222 0.0702983
0.223377 0.113542 0.0685588
0.23537 0.113527 0.0667277
0.246174 0.113787 0.0648966
0.25536 0.114168 0.0637217
0.264134 0.114595 0.0624857
0.273243 0.115526 0.0614176
0.282445 0.116426 0.0602426
0.293202 0.117525 0.0589609
0.302708 0.118273 0.0578622
0.312825 0.119219 0.0565805
0.322774 0.120409 0.0548562
0.333959 0.121462 0.0524605
0.345602 0.122576 0.0495308
0.35938 0.123644 0.0459297
0.372396 0.124483 0.042649
0.385092 0.124956 0.0391546
0.399588 0.125963 0.0342412
0.413916 0.126711 0.028748
0.428916 0.128023 0.0237736
0.444572 0.129152 0.0205539
0.459693 0.13022 0.0181125
0.473075 0.130938 0.0183413
0.488746 0.132509 0.0198367
0.502968 0.134279 0.0211185
0.515892 0.135515 0.0222324
0.528344 0.136477 0.022858
0.539544 0.137209 0.0226444
0.551125 0.137896 0.0237736
0.563119 0.138643 0.0254368
0.574197 0.139223 0.0264439
0.584131 0.138842 0.0264134
0.594491 0.138628 0.0272984
0.605035 0.138155 0.0284428
0.614649 0.137865 0.0289769
0.623636 0.137163 0.0288548
0.632441 0.135973 0.0287633
0.641337 0.135225 0.0302586
0.650294 0.134997 0.0315099
0.658274 0.134463 0.0322271
0.665614 0.133745 0.0319219
0.67277 0.133684 0.0318761
0.679149 0.13315 0.029984
0.686961 0.131762 0.0280003
0.693721 0.130678 0.0268406
0.698711 0.129152 0.0267185
0.703929 0.126879 0.026215
0.709178 0.124422 0.0256046
0 0.108782 0.0881208
0.00154116 0.109621 0.0882277
0.00369268 0.110231 0.0886091
0.00598154 0.11043 0.0888991
0.0147402 0.110689 0.0882734
0.0278782 0.111482 0.087068
0.0417945 0.112032 0.0862287
0.0555428 0.112642 0.0858778
0.0673075 0.113497 0.0857099
0.080293 0.115541 0.0858625
0.0961624 0.118959 0.0856947
0.112245 0.121386 0.0834516
0.131121 0.119066 0.0809491
0.144457 0.119081 0.0786755
0.161669 0.120638 0.0766613
0.177859 0.121263 0.0751354
0.193957 0.121538 0.0739605
0.210285 0.122271 0.0723583
0.224659 0.122713 0.0706035
0.236713 0.123217 0.0689097
0.24712 0.123781 0.0675822
0.257099 0.124498 0.0663615
0.266606 0.125277 0.0652018
0.275486 0.125978 0.063859
0.2851 0.127016 0.0628367
0.295338 0.127916 0.0616007
0.305516 0.128435 0.0603494
0.315328 0.129183 0.0592203
0.325307 0.130571 0.0579385
0.336172 0.13164 0.0558022
0.347829 0.132509 0.0526894
0.36025 0.133745 0.049836
0.373281 0.134798 0.0465553
0.385977 0.135454 0.0433204
0.400458 0.136599 0.0397955
0.415457 0.137881 0.0366064
0.429664 0.138903 0.0338445
0.443961 0.140124 0.0310369
0.460258 0.141299 0.0287327
0.474159 0.141756 0.0263981
0.488075 0.142794 0.0251316
0.5028 0.144503 0.025864
0.51548 0.145464 0.0268406
0.528984 0.146258 0.0278477
0.540108 0.146578 0.0280766
0.551629 0.146868 0.0288243
0.563775 0.147311 0.0299382
0.575235 0.147967 0.0309758
0.58558 0.147677 0.0317693
0.5953 0.146746 0.0318761
0.605875 0.146883 0.0323644
0.615793 0.147341 0.0328832
0.624857 0.147555 0.0335851
0.634104 0.147341 0.0353552
0.643122 0.147127 0.0364538
0.65153 0.146838 0.0374456
0.660426 0.1467 0.0392615
0.667353 0.14612 0.0391852
0.674128 0.145937 0.0383764
0.681254 0.145327 0.0368353
0.688457 0.143633 0.0348974
0.695247 0.14139 0.0326848
0.700786 0.139696 0.0324865
0.705928 0.137407 0.0316777
0.711269 0.135164 0.0308843
0 0.115816 0.0894026
0.000213626 0.116899 0.0895552
0.00224308 0.117678 0.0896773
0.00422675 0.118425 0.0895399
0.0110475 0.119768 0.0889143
0.0185397 0.120653 0.0881819
0.0308995 0.121126 0.0875868
0.0463111 0.121523 0.0872816
0.0654002 0.122576 0.0868849
0.0797894 0.124422 0.0869917
0.0932631 0.127657 0.0870375
0.109026 0.131701 0.0857557
0.134249 0.128389 0.083299
0.15169 0.127077 0.0805676
0.168368 0.127779 0.0783398
0.183246 0.128923 0.0768749
0.197604 0.130282 0.075639
0.213397 0.13138 0.0741741
0.227619 0.132479 0.0729534
0.238956 0.133211 0.0715343
0.249546 0.134234 0.0704051
0.25951 0.135119 0.0690776
0.269306 0.13611 0.0680095
0.279149 0.137087 0.0669718
0.28893 0.138277 0.0659037
0.299138 0.139315 0.0645457
0.308888 0.139834 0.0631266
0.319585 0.141024 0.0619821
0.329717 0.14229 0.0611429
0.339757 0.143114 0.0596933
0.351888 0.14432 0.0569162
0.364385 0.145541 0.0539254
0.376181 0.146593 0.0511025
0.389273 0.146914 0.0487373
0.402075 0.147951 0.0477302
0.415641 0.148653 0.0476539
0.429236 0.149706 0.0454108
0.443442 0.150774 0.0423285
0.459754 0.151751 0.0391394
0.474922 0.152148 0.0363012
0.487938 0.152239 0.0330205
0.502342 0.152834 0.0316777
0.51606 0.154009 0.0322881
0.529747 0.15555 0.0321508
0.541573 0.156466 0.0331731
0.553002 0.156863 0.0339818
0.564599 0.15758 0.0341344
0.576181 0.158328 0.03505
0.586587 0.159136 0.0357214
0.596887 0.159274 0.0358587
0.606241 0.159091 0.0363622
0.61677 0.159411 0.0391699
0.626902 0.159747 0.0412146
0.63534 0.159365 0.0412757
0.644282 0.159564 0.041413
0.652934 0.159152 0.0429541
0.661112 0.157809 0.0442664
0.669093 0.157397 0.0450294
0.676173 0.156985 0.0439002
0.682612 0.155749 0.0429236
0.689632 0.154025 0.0407874
0.696544 0.15169 0.0386511
0.702724 0.14995 0.037644
0.707881 0.147631 0.036347
0.712657 0.144839 0.035172
0 0.124758 0.0910353
0 0.126116 0.091371
0 0.127581 0.0913863
0 0.128847 0.0912184
0.00292973 0.12961 0.0907912
0.0111849 0.130434 0.090135
0.0191501 0.131014 0.0897231
0.0301671 0.131243 0.0890516
0.0505531 0.132128 0.0888228
0.072755 0.133349 0.0883345
0.0888075 0.136294 0.0885176
0.104112 0.140398 0.0877852
0.131044 0.143984 0.0846418
0.156863 0.139193 0.0828412
0.177035 0.137438 0.0804303
0.190936 0.137102 0.0787671
0.205219 0.138186 0.0771649
0.218952 0.140322 0.0758373
0.231312 0.142596 0.0746777
0.241764 0.14403 0.0734874
0.252171 0.144717 0.0724193
0.262425 0.145602 0.071458
0.272358 0.146487 0.0705577
0.282612 0.147524 0.0695964
0.292607 0.148669 0.0684367
0.302495 0.149691 0.0672618
0.312367 0.1505 0.0661631
0.323171 0.151781 0.0650187
0.33402 0.153048 0.063798
0.345403 0.154681 0.062501
0.357214 0.1561 0.0605631
0.369696 0.157122 0.0593729
0.382635 0.15845 0.0579385
0.39585 0.159182 0.0560769
0.408179 0.160098 0.0544747
0.421225 0.161593 0.0538643
0.435279 0.162799 0.0540627
0.447837 0.163516 0.0513161
0.462318 0.16466 0.0487984
0.478035 0.164889 0.0446479
0.490196 0.165286 0.0420844
0.504036 0.165637 0.0396582
0.516564 0.166201 0.037171
0.529458 0.167452 0.0371862
0.542016 0.168399 0.0378729
0.553643 0.169299 0.0390326
0.565133 0.169711 0.0392615
0.576165 0.170123 0.0394141
0.58703 0.170596 0.0402838
0.597299 0.17116 0.0412604
0.607416 0.171344 0.0426184
0.617594 0.171084 0.0446937
0.62797 0.170947 0.0466926
0.636713 0.170703 0.0471504
0.644785 0.170153 0.0477455
0.653666 0.169467 0.0480659
0.661967 0.169192 0.0486152
0.670146 0.167819 0.0489052
0.677272 0.166293 0.0482185
0.683787 0.165103 0.0478828
0.690867 0.163317 0.04654
0.698009 0.161807 0.0445106
0.704402 0.158831 0.0412146
0.709758 0.156863 0.0410925
0.714885 0.15465 0.040238
0 0.137026 0.0903639
0 0.139178 0.0906691
0 0.140841 0.0908827
0 0.141939 0.0911269
0 0.142687 0.091371
0.00222782 0.143709 0.0914931
0.00634775 0.144045 0.0911269
0.0196231 0.143893 0.0906844
0.0382544 0.144305 0.0899977
