brand-bible/brands/assets/blkgrlcotoo-luts/709to709_160T_x65_Film_White.cube
TITLE "Generated by Resolve"
LUT_3D_SIZE 5
0.0956436 0.0900587 0.0857557
0.18381 0.0905165 0.0725872
0.42034 0.0704509 0.0119936
0.555261 0.0184787 0
0.673548 0 0
0.0425422 0.158541 0.0987106
0.187304 0.176989 0.0988632
0.419699 0.191882 0.0606088
0.647593 0.206287 0.0537423
0.736324 0.157626 0.00373846
0.0821393 0.357534 0.0848859
0.225635 0.369116 0.0989242
0.408331 0.400107 0.0703136
0.720562 0.46302 0.0670481
0.829816 0.433448 0.106172
0.359838 0.563516 0
0.428397 0.580682 0
0.561074 0.604852 1.5259e-05
0.761395 0.650721 0
0.889372 0.684215 0.204532
0.622629 0.726589 0
0.664424 0.736599 0
0.736492 0.748425 0
0.817868 0.763928 0
0.910307 0.77528 0.0211795
0.0871748 0.0833753 0.139559
0.174365 0.0919356 0.128374
0.418402 0.0998093 0.111086
0.638972 0.0637369 0.0916762
0.717205 1.5259e-05 0.0100862
0.0607462 0.174975 0.153689
0.226001 0.208576 0.168887
0.45301 0.198032 0.14023
0.700862 0.219623 0.151202
0.74696 0.0916152 0.0453956
0.0252689 0.402991 0.205112
0.197436 0.420172 0.198825
0.41622 0.452583 0.205371
0.727565 0.475486 0.214984
0.847929 0.434272 0.234028
0.353124 0.584604 0.0922866
0.42623 0.597253 0.0569467
0.530083 0.616236 0.111864
0.752636 0.665736 0.217792
0.89305 0.701396 0.34229
0.611627 0.725917 0.000122072
0.662104 0.737942 0
0.733166 0.752346 1.5259e-05
0.810178 0.76524 0.0105135
0.911513 0.794766 0.286061
0.0434424 0.0677043 0.317372
0.194919 0.109834 0.324376
0.387213 0.130983 0.347097
0.652949 0.122194 0.32256
0.757244 0.066804 0.203433
6.10361e-05 0.198947 0.366735
0.204349 0.202762 0.376761
0.402823 0.22945 0.383932
0.71667 0.246647 0.364935
0.805554 0.244312 0.284764
3.0518e-05 0.422568 0.43267
0.0985885 0.446738 0.437324
0.467613 0.497887 0.464012
0.736782 0.464714 0.42182
0.855833 0.395468 0.355291
0.23653 0.625635 0.343038
0.316228 0.641047 0.34638
0.52105 0.690318 0.466606
0.766583 0.715068 0.48687
0.887984 0.70425 0.456245
0.596139 0.744686 0.248585
0.642252 0.754879 0.246632
0.724865 0.773098 0.255985
0.797589 0.799939 0.360464
0.91603 0.833082 0.517784
0 0.144488 0.464836
0.183047 0.153933 0.472404
0.424659 0.229374 0.500328
0.665522 0.226658 0.507057
0.789166 0.212009 0.416892
0.000518807 0.268345 0.511376
0.128908 0.276432 0.505638
0.43331 0.311269 0.525567
0.652491 0.313375 0.539742
0.81738 0.286091 0.449104
7.62951e-05 0.441932 0.557931
0.0630655 0.43859 0.553689
0.472862 0.479667 0.608927
0.706691 0.504875 0.598718
0.870604 0.476066 0.567819
0 0.633951 0.612604
0.144121 0.66186 0.616342
0.530495 0.716548 0.642466
0.772442 0.738689 0.651331
0.890654 0.705165 0.61297
0.529076 0.778668 0.469642
0.579599 0.792172 0.479164
0.666743 0.819425 0.544106
0.795468 0.851423 0.655894
0.922469 0.854337 0.652674
0 0.27982 0.584192
0.0965438 0.297169 0.578729
0.423163 0.336614 0.600198
0.67631 0.359136 0.633982
0.806683 0.296483 0.566064
6.10361e-05 0.371237 0.611536
0.0513771 0.373739 0.605707
0.399252 0.386984 0.62591
0.680674 0.408682 0.646601
0.817746 0.354025 0.604242
3.0518e-05 0.509865 0.655497
0.00329595 0.507897 0.650996
0.41088 0.519265 0.683558
0.709178 0.540627 0.690227
0.846006 0.572656 0.7084
0.000289921 0.642985 0.702068
3.0518e-05 0.662547 0.707546
0.509224 0.709407 0.738521
0.762142 0.731014 0.75378
0.879362 0.724239 0.74023
0.492409 0.818021 0.718685
0.558755 0.832471 0.740475
0.669017 0.857954 0.771221
0.766796 0.881346 0.785458
0.941131 0.900038 0.785458
