brand-bible/brands/assets/blkgrlcotoo-luts/709to709_250D_x65_Clean_White.cube
TITLE "Generated by Resolve"
LUT_3D_SIZE 9
0.0197147 0.0792401 0.0977493
0.0711986 0.0815747 0.0951095
0.144717 0.0752117 0.0669413
0.250034 0.0782025 0.0500801
0.339986 0.0687572 0.0242008
0.459297 0.0486915 0.00103761
0.56257 0.00453193 0
0.640131 0.010956 0
0.689769 0.0228885 0.00392157
0.000747692 0.0979629 0.0887007
0.0705272 0.10457 0.0855421
0.192554 0.103853 0.0700694
0.280095 0.107576 0.058381
0.370245 0.113848 0.0396124
0.488136 0.122011 0.0148318
0.58349 0.128649 0.02121
0.655894 0.123659 0.0243381
0.707454 0.11397 0.0203403
1.5259e-05 0.169619 0.0889143
0.0211185 0.179675 0.0913558
0.225528 0.198779 0.082826
0.319356 0.2 0.0717021
0.407004 0.216419 0.064683
0.509819 0.222538 0.0589456
0.598306 0.222797 0.0645762
0.665431 0.212634 0.0633555
0.721553 0.195834 0.0558938
7.62951e-05 0.251286 0.088365
0.0356298 0.26392 0.0898451
0.184924 0.287526 0.0946822
0.36083 0.309789 0.0910964
0.476402 0.304372 0.0799268
0.563195 0.320089 0.0777905
0.633555 0.326284 0.0861067
0.696895 0.324376 0.0954452
0.759289 0.302541 0.0961929
0.0141451 0.358022 0.066743
0.0555886 0.362905 0.0723888
0.171359 0.373205 0.0781109
0.305776 0.407599 0.0690776
0.509499 0.444114 0.105119
0.63714 0.422477 0.11046
0.697505 0.436454 0.113878
0.750149 0.45243 0.12256
0.805753 0.456764 0.15053
0.0551461 0.452201 0.0344091
0.107408 0.459937 0.0364843
0.192935 0.471717 0.0397498
0.304982 0.49482 0.0437171
0.438071 0.5355 0.0388647
0.643992 0.572656 0.0628367
0.759472 0.550347 0.164355
0.808103 0.562142 0.177859
0.857359 0.580011 0.200549
0.128298 0.537133 0.0251621
0.197147 0.54583 0.0156558
0.275593 0.558312 0.0178531
0.34873 0.576501 0.0262608
0.443732 0.603525 0.0171359
0.579034 0.640192 0.00466926
0.750149 0.674449 0.000427253
0.852567 0.661402 0.251469
0.900786 0.67039 0.273915
0.255039 0.623285 0.0155795
0.29749 0.631449 0.0106661
0.350866 0.643946 0.0127871
0.409613 0.657908 1.5259e-05
0.481483 0.675319 4.57771e-05
0.581048 0.703334 0.000244144
0.701885 0.737209 0.000122072
0.846998 0.7664 0.0104219
0.937179 0.759304 0.353765
0.362203 0.707134 0.0298924
0.387457 0.713466 0.0310826
0.429694 0.724071 0.032166
0.481849 0.735973 0.0286564
0.539803 0.750164 0.0263218
0.607187 0.766003 0.00833143
0.690181 0.788235 9.15541e-05
0.800717 0.819684 0.00909438
0.963226 0.857374 0.279225
0.03093 0.0722972 0.117678
0.0749676 0.075639 0.118776
0.171023 0.075761 0.0925154
0.265339 0.0795605 0.0668498
0.362051 0.0707256 0.0530556
0.482048 0.0339818 0.0376745
0.577966 0.0120241 0.0418097
0.65098 0.0109102 0.0505226
0.699443 0.00573739 0.0336461
0.000488289 0.100008 0.121492
0.0509346 0.112978 0.130282
0.208896 0.109102 0.0991836
0.288777 0.113466 0.0826734
0.389502 0.119707 0.078233
0.511315 0.125216 0.068864
0.601984 0.127291 0.076051
0.671595 0.120562 0.0813764
0.717159 0.107881 0.0728771
1.5259e-05 0.186206 0.12491
0.0208133 0.20087 0.127214
0.225849 0.217823 0.119951
0.321813 0.212116 0.106905
0.424613 0.219181 0.110323
0.528222 0.221225 0.114229
0.615381 0.216571 0.114565
0.683986 0.210147 0.112688
0.73434 0.195224 0.105943
1.5259e-05 0.271656 0.116457
0.0145724 0.286564 0.132143
0.175448 0.305013 0.14844
0.358465 0.32517 0.135042
0.474708 0.312093 0.131197
0.564645 0.3252 0.128923
0.640894 0.326131 0.138933
0.707485 0.320134 0.144472
0.766125 0.298802 0.14406
0.00779736 0.375875 0.115755
0.0336614 0.382071 0.122911
0.160708 0.392142 0.134218
0.297414 0.422583 0.144869
0.506722 0.456123 0.155779
0.633341 0.426886 0.157671
0.697108 0.443076 0.161776
0.752911 0.456565 0.173327
0.813016 0.45655 0.201053
0.0402838 0.464149 0.0935836
0.0834821 0.471427 0.0885328
0.192752 0.485435 0.0960403
0.301534 0.504952 0.11429
0.435584 0.543999 0.113054
0.646769 0.583841 0.154162
0.756664 0.555489 0.210544
0.806363 0.567269 0.221057
0.858595 0.58732 0.243397
0.119722 0.544884 0.0633402
0.189395 0.553948 0.0573129
0.272618 0.56701 0.0575113
0.351995 0.58436 0.0615549
0.441428 0.608743 0.0701762
0.579156 0.644465 0.0624399
0.749218 0.680186 0.0951858
0.852659 0.664485 0.285756
0.900679 0.675517 0.306584
0.246708 0.628748 0.0347906
0.292912 0.635538 0.0221256
0.351766 0.648402 0.0209049
0.414908 0.663386 0.00747692
0.485252 0.679637 0.0165713
0.581445 0.704997 0.00381476
0.700328 0.737987 3.0518e-05
0.844175 0.76701 0.0442817
0.936812 0.764035 0.378592
0.364874 0.711467 0.0605173
0.390234 0.718059 0.0636759
0.43093 0.727947 0.0633402
0.486763 0.739834 0.0513924
0.546685 0.753994 0.0400244
0.613108 0.768933 0.0116426
0.691295 0.789349 0
0.799939 0.820157 0.0412909
0.963409 0.862837 0.318044
0.00337224 0.0595865 0.175814
0.0545968 0.0563973 0.19855
0.185397 0.0644846 0.17142
0.292256 0.0763714 0.138125
0.38819 0.0709544 0.134234
0.51194 0.0409094 0.123812
0.611276 0.0317235 0.119509
0.677104 0.045716 0.123857
0.718257 0.0350195 0.119524
0 0.108385 0.207462
0.0573739 0.114961 0.219821
0.215137 0.11812 0.199832
0.316167 0.122438 0.174472
0.404273 0.127977 0.164843
0.507317 0.13106 0.147692
0.608133 0.131685 0.147524
0.680354 0.126696 0.14789
0.726146 0.11606 0.142245
0.000106813 0.184894 0.203082
0.000137331 0.213077 0.214237
0.223835 0.235737 0.219211
0.352651 0.215106 0.187961
0.451575 0.204913 0.174853
0.544564 0.200107 0.162585
0.629145 0.198611 0.160983
0.697597 0.194217 0.159365
0.744106 0.180392 0.153094
0 0.304448 0.223468
0.0100557 0.317937 0.230594
0.18967 0.326848 0.221576
0.348928 0.342443 0.210163
0.467247 0.324514 0.192264
0.579522 0.318791 0.18822
0.655818 0.314824 0.194446
0.72546 0.303883 0.195956
0.778668 0.289631 0.193469
0.00204471 0.402991 0.188388
0.0244602 0.410712 0.189975
0.129274 0.424781 0.204669
0.303517 0.450629 0.243366
0.49192 0.473823 0.222126
0.624292 0.44213 0.213489
0.696269 0.452308 0.217655
0.758816 0.455146 0.237964
0.820981 0.445884 0.25713
0.0258183 0.48278 0.15523
0.0570077 0.490639 0.158587
0.165743 0.506172 0.168399
0.298329 0.528954 0.186084
0.430564 0.563394 0.21117
0.643961 0.601419 0.237522
0.750896 0.567575 0.263737
0.806165 0.576288 0.272969
0.860456 0.593637 0.296422
0.116625 0.558526 0.120836
0.178439 0.567361 0.1178
0.264958 0.581735 0.122591
0.354971 0.601831 0.136339
0.442588 0.623056 0.162905
0.579797 0.658824 0.176928
0.749035 0.693629 0.209705
0.852384 0.67071 0.330678
0.901015 0.683497 0.348455
0.239063 0.637644 0.0768139
0.291463 0.645808 0.0639963
0.35288 0.657282 0.0635691
0.42092 0.674083 0.0674601
0.493172 0.689021 0.0688029
0.581842 0.711345 0.077348
0.698848 0.743954 0.0944991
0.842771 0.775586 0.153582
0.936675 0.771176 0.41236
0.368734 0.71931 0.120287
0.395209 0.72517 0.120592
0.434577 0.733989 0.117205
0.48983 0.745373 0.100252
0.556817 0.760067 0.0690929
0.622736 0.775097 0.0410163
0.697246 0.79527 0.0634775
0.798032 0.8215 0.103151
0.963607 0.87097 0.370016
0.00201419 0.0557565 0.230625
0.0512703 0.0493019 0.259022
0.179461 0.0621805 0.262806
0.287465 0.0620279 0.260639
0.408072 0.0338293 0.242237
0.536309 0.0583047 0.229511
0.625574 0.0749981 0.221805
0.693919 0.0822003 0.207126
0.735119 0.0725414 0.181445
0 0.120439 0.28687
0.0241855 0.1299 0.32781
0.212406 0.123507 0.315618
0.317082 0.120409 0.303258
0.449409 0.121584 0.269886
0.561181 0.135409 0.265965
0.633814 0.138521 0.245579
0.698512 0.137331 0.226658
0.740642 0.127062 0.204837
6.10361e-05 0.198123 0.326879
0.0198825 0.210803 0.335531
0.204471 0.22388 0.347524
0.33135 0.220356 0.339757
0.467979 0.207095 0.30808
0.55787 0.198566 0.290074
0.627924 0.191226 0.259144
0.687419 0.187274 0.233661
0.747234 0.183795 0.221347
0 0.306645 0.343191
0 0.322759 0.35227
0.0370184 0.343969 0.357916
0.340612 0.364584 0.366949
0.515297 0.324422 0.307851
0.599451 0.305837 0.286213
0.665324 0.301076 0.272084
0.729473 0.289387 0.254627
0.782925 0.277607 0.245335
0 0.43267 0.325765
0 0.446525 0.325872
0.0536965 0.461891 0.348821
0.305928 0.481193 0.345907
0.49424 0.498695 0.330648
0.618357 0.461906 0.310399
0.707012 0.45655 0.301091
0.771756 0.448173 0.309071
0.833082 0.427665 0.313893
0.0168612 0.51133 0.244114
0.0564431 0.523125 0.255695
0.163287 0.538964 0.255787
0.31899 0.565576 0.285267
0.458152 0.596933 0.351064
0.638743 0.62443 0.349203
0.746563 0.590677 0.334569
0.804791 0.591104 0.3337
0.865125 0.595315 0.361089
0.105043 0.580743 0.191424
0.152926 0.588571 0.191226
0.250401 0.604562 0.199191
0.357107 0.62707 0.22092
0.464637 0.651621 0.260151
0.590768 0.683604 0.300008
0.747448 0.717021 0.333684
0.846616 0.686824 0.383093
0.901045 0.694392 0.398459
0.233967 0.65359 0.146532
0.29015 0.661662 0.145983
0.349218 0.67364 0.146761
0.420813 0.69041 0.153536
0.504677 0.709728 0.174075
0.588602 0.729412 0.208759
0.696529 0.759838 0.238972
0.841489 0.793652 0.295369
0.935836 0.781384 0.453971
0.376974 0.731731 0.180591
0.402365 0.737423 0.178363
0.440833 0.745632 0.178241
0.498741 0.757946 0.165835
0.566766 0.77203 0.16025
0.636332 0.787793 0.147158
0.705562 0.804532 0.172
0.799985 0.831769 0.211841
0.964355 0.882963 0.439857
0 0.0905928 0.307607
0.0543679 0.0842756 0.336858
0.176974 0.081117 0.351186
0.283619 0.0914778 0.358953
0.411841 0.0687419 0.361776
0.54934 0.00630198 0.33611
0.643549 0.0701457 0.307301
0.704875 0.0954604 0.297734
0.743358 0.0960403 0.265202
6.10361e-05 0.144625 0.358953
0.0128786 0.145403 0.390677
0.186297 0.140581 0.412924
0.305043 0.13608 0.396796
0.436637 0.125994 0.391257
0.55967 0.090074 0.346685
0.653681 0.123659 0.324895
0.713405 0.140734 0.312688
0.752209 0.139925 0.281071
0 0.233906 0.434745
0.00648508 0.24036 0.462165
0.199191 0.228153 0.470451
0.355215 0.236133 0.455756
0.463462 0.201816 0.426459
0.582177 0.191623 0.383459
0.660334 0.183032 0.357992
0.72108 0.192355 0.334401
0.762997 0.197955 0.307683
0 0.318883 0.455726
0.0208896 0.325505 0.454047
0.152941 0.333288 0.459342
0.321752 0.347372 0.471382
0.467445 0.341176 0.455863
0.612345 0.319829 0.423987
0.673823 0.308492 0.403586
0.735668 0.290501 0.372442
0.786252 0.286427 0.340169
3.0518e-05 0.435492 0.459113
0 0.445884 0.462013
0.00648508 0.462791 0.465263
0.154437 0.495476 0.471412
0.481575 0.519997 0.487419
0.658976 0.478264 0.432227
0.727779 0.449119 0.414389
0.779507 0.436545 0.403204
0.834287 0.41059 0.374105
0 0.5364 0.415763
0 0.549599 0.41236
0.0328832 0.571756 0.417197
0.220508 0.599771 0.444236
0.461936 0.628733 0.47039
0.642283 0.648295 0.462654
0.736553 0.610361 0.436667
0.809064 0.602213 0.429374
0.872587 0.585092 0.430716
0.0665904 0.611872 0.317143
0.106126 0.61796 0.310246
0.234134 0.639002 0.33286
0.373205 0.665263 0.355169
0.493355 0.691341 0.390738
0.61912 0.720165 0.463004
0.745403 0.743755 0.483894
0.839567 0.708431 0.465354
0.901488 0.704524 0.456565
0.283665 0.682246 0.247929
0.32285 0.690501 0.252506
0.365164 0.700038 0.249607
0.440131 0.71667 0.258213
0.526772 0.737408 0.285588
0.621469 0.761257 0.330343
0.714534 0.788586 0.383734
0.842115 0.819867 0.436744
0.934768 0.796948 0.505425
0.392401 0.748394 0.241062
0.413275 0.753002 0.241642
0.451667 0.761028 0.239948
0.508324 0.7729 0.238636
0.576501 0.787823 0.240131
0.646265 0.804166 0.248875
0.717815 0.822446 0.26685
0.802686 0.847196 0.320851
0.964553 0.896406 0.497414
4.57771e-05 0.126833 0.393652
0.0244297 0.125628 0.416007
0.150683 0.118486 0.432334
0.277211 0.125887 0.444389
0.399542 0.130709 0.45333
0.532692 0.0862135 0.444511
0.630365 0.00668345 0.404242
0.697429 0.0625315 0.363317
0.748775 0.0946517 0.337636
1.5259e-05 0.1673 0.431525
0.00839246 0.16614 0.451331
0.142565 0.156588 0.474266
0.286412 0.157412 0.474647
0.413489 0.154467 0.475227
0.54583 0.12459 0.463386
0.643763 0.0423743 0.411994
0.71281 0.106203 0.371145
0.760403 0.13521 0.353155
4.57771e-05 0.243717 0.493278
0.00335698 0.243809 0.507652
0.114595 0.247562 0.532952
0.330159 0.246571 0.548623
0.439719 0.204868 0.508415
0.560311 0.187259 0.496635
0.658289 0.146181 0.444312
0.734585 0.171405 0.400244
0.782467 0.201236 0.388571
0 0.348272 0.558038
0.00354009 0.348821 0.563485
0.0671855 0.347845 0.571145
0.310521 0.345144 0.568826
0.533486 0.382071 0.590906
0.606287 0.327443 0.552697
0.697734 0.313237 0.517586
0.759976 0.281605 0.470054
0.807416 0.289403 0.437949
4.57771e-05 0.435142 0.567056
0 0.445686 0.568002
0.0856489 0.462272 0.569024
0.302876 0.482246 0.585138
0.465934 0.498436 0.598215
0.612512 0.491478 0.579965
0.731838 0.455375 0.552529
0.781888 0.44155 0.530495
0.835233 0.410361 0.485283
0 0.551461 0.568414
0 0.563928 0.571374
0.00860609 0.578744 0.574899
0.122759 0.602472 0.582269
0.369955 0.639628 0.595834
0.634333 0.661128 0.609277
0.756268 0.631769 0.563241
0.827955 0.594553 0.534615
0.872969 0.572732 0.521401
0.000198367 0.633097 0.507698
9.15541e-05 0.641291 0.502434
0.0451514 0.658991 0.50013
0.207553 0.688014 0.506065
0.400931 0.717388 0.534478
0.617288 0.746777 0.585824
0.747646 0.760784 0.577966
0.835203 0.722347 0.551888
0.905364 0.705623 0.546624
0.267048 0.712856 0.373724
0.295125 0.716686 0.368582
0.342931 0.723018 0.359197
0.441291 0.745953 0.3906
0.549813 0.770092 0.416602
0.647715 0.793332 0.449622
0.728985 0.81651 0.5019
0.840055 0.845136 0.590066
0.935561 0.814343 0.565881
0.429648 0.769543 0.301411
0.449531 0.773999 0.302785
0.478965 0.780652 0.304646
0.519646 0.790005 0.306584
0.586038 0.80499 0.311635
0.653559 0.821408 0.323308
0.726177 0.841413 0.353063
0.810147 0.864576 0.401572
0.965866 0.909285 0.542077
1.5259e-05 0.165408 0.470771
0.0091249 0.162402 0.481132
0.125109 0.150607 0.493309
0.259998 0.155673 0.505989
0.391745 0.158511 0.51809
0.510689 0.157168 0.522606
0.62031 0.0961471 0.501396
0.692668 0.0201724 0.452384
0.744549 0.0599374 0.400214
3.0518e-05 0.203738 0.498543
0.00791943 0.199481 0.505577
0.0804761 0.189868 0.519585
0.253407 0.184253 0.530007
0.40087 0.182422 0.537942
0.524147 0.17818 0.539376
0.635126 0.120775 0.517372
0.703136 0.0294652 0.46006
0.759228 0.112474 0.4094
0.000381476 0.270771 0.544823
0.000885023 0.268177 0.550454
0.0432441 0.267552 0.563455
0.240665 0.254627 0.586435
0.419074 0.233417 0.578149
0.551202 0.219577 0.57113
0.653101 0.185534 0.554086
0.726085 0.131731 0.492973
0.784268 0.177783 0.428229
1.5259e-05 0.366384 0.60856
3.0518e-05 0.371939 0.618677
0.00846876 0.37937 0.633997
0.206729 0.38674 0.665309
0.494255 0.376394 0.64863
0.604883 0.324697 0.626261
0.681865 0.303899 0.609171
0.759136 0.270253 0.562325
0.815946 0.284215 0.492653
3.0518e-05 0.459358 0.642512
3.0518e-05 0.463844 0.645014
0.014725 0.468299 0.647959
0.270039 0.481056 0.653605
0.454948 0.490578 0.659968
0.648432 0.52726 0.679973
0.717067 0.481376 0.659876
0.795666 0.458137 0.625528
0.847639 0.40235 0.567483
0 0.547356 0.659846
7.62951e-05 0.558648 0.662379
4.57771e-05 0.578271 0.663676
0.255238 0.60943 0.673899
0.44799 0.630442 0.68954
0.618006 0.648753 0.698512
0.726131 0.646876 0.682597
0.828351 0.603372 0.654566
0.872007 0.577157 0.624994
1.5259e-05 0.649897 0.660121
0.00607309 0.661616 0.661494
0.0659953 0.679744 0.663401
0.217121 0.70016 0.670512
0.344961 0.723308 0.677287
0.554498 0.75639 0.687877
0.741833 0.770916 0.699535
0.845258 0.740948 0.653895
0.91223 0.698863 0.628901
0.110094 0.722759 0.498772
0.165347 0.73109 0.497093
0.250828 0.744228 0.494987
0.360525 0.763882 0.500298
0.454643 0.782193 0.503258
0.59263 0.814145 0.562112
0.730053 0.844968 0.639185
0.843275 0.863142 0.679728
0.93637 0.831998 0.642863
0.493935 0.80235 0.395682
0.505547 0.804883 0.395056
0.528984 0.81033 0.396384
0.569986 0.819852 0.400534
0.62031 0.831983 0.40763
0.674357 0.84538 0.413291
0.742275 0.86392 0.436362
0.830045 0.887572 0.489952
0.968307 0.926696 0.606882
0.00306706 0.211704 0.534569
0.00953689 0.207599 0.538994
0.0643626 0.197711 0.5467
0.225422 0.188861 0.559411
0.381064 0.197681 0.577554
0.508583 0.191073 0.584939
0.601877 0.193027 0.591608
0.699962 0.108736 0.556374
0.746242 0.0155337 0.486336
0.000183108 0.248753 0.557794
0.00547799 0.244678 0.561486
0.0589456 0.236713 0.568139
0.210864 0.222873 0.581903
0.379385 0.226627 0.598871
0.523598 0.215488 0.605264
0.617288 0.214862 0.609537
0.713436 0.136172 0.573648
0.756603 0.0489509 0.494224
0 0.302098 0.594064
0.000167849 0.301366 0.599023
0.0265812 0.301671 0.608118
0.159854 0.296971 0.629038
0.36437 0.276646 0.635111
0.542962 0.262516 0.638361
0.638224 0.254887 0.637659
0.73341 0.180087 0.602716
0.774975 0.116533 0.512612
6.10361e-05 0.389349 0.651392
6.10361e-05 0.388968 0.656352
3.0518e-05 0.391012 0.666331
0.0860456 0.399527 0.68658
0.341421 0.388266 0.711955
0.593668 0.363684 0.70071
0.672801 0.334981 0.679881
0.741878 0.318151 0.670542
0.809354 0.253864 0.572488
0 0.496864 0.713161
3.0518e-05 0.506065 0.721736
0.000122072 0.513161 0.729274
0.0312505 0.516732 0.738613
0.33489 0.509377 0.750957
0.643366 0.522759 0.74641
0.738293 0.492226 0.751675
0.784527 0.449424 0.723934
0.851392 0.382208 0.643946
1.5259e-05 0.564553 0.731075
3.0518e-05 0.570535 0.734524
3.0518e-05 0.579675 0.738491
0.134783 0.594217 0.739788
0.428016 0.612558 0.751247
0.60557 0.629633 0.762966
0.742748 0.656382 0.772381
0.811414 0.618189 0.764279
0.881605 0.578485 0.720897
0 0.63328 0.755978
1.5259e-05 0.643214 0.758801
0.000244144 0.662089 0.759335
0.0930343 0.688991 0.761212
0.434623 0.71931 0.776471
0.608789 0.740108 0.790311
0.722667 0.752102 0.79855
0.824445 0.750774 0.785962
0.911299 0.695933 0.747662
0 0.752468 0.755718
0.0162203 0.761257 0.756481
0.123491 0.774701 0.758404
0.276997 0.792294 0.766903
0.426688 0.813413 0.774777
0.520073 0.83238 0.781262
0.635966 0.857832 0.786938
0.839902 0.878996 0.801877
0.946807 0.846143 0.748867
0.54934 0.844114 0.546975
0.566842 0.848463 0.550256
0.590234 0.854475 0.554437
0.620356 0.861601 0.556802
0.650828 0.867582 0.552316
0.690364 0.876371 0.550988
0.769268 0.897124 0.581933
0.850706 0.915663 0.607446
0.970367 0.952224 0.736767
0 0.268452 0.611261
0.00224308 0.264897 0.613153
0.0282597 0.258381 0.615564
0.149767 0.251087 0.62504
0.307622 0.249668 0.645701
0.483513 0.256703 0.666911
0.600061 0.248295 0.676814
0.672343 0.251102 0.684215
0.76875 0.171405 0.650965
0 0.296849 0.629114
6.10361e-05 0.294942 0.632105
0.0222019 0.292149 0.636408
0.113481 0.283192 0.644144
0.286625 0.271626 0.658564
0.47039 0.278431 0.680171
0.606516 0.269459 0.690852
0.682445 0.272572 0.699046
0.778149 0.200427 0.667094
1.5259e-05 0.34461 0.660929
1.5259e-05 0.34255 0.663951
0.00907912 0.341024 0.667964
0.0626535 0.336477 0.674571
0.254017 0.324987 0.686275
0.445121 0.317845 0.704067
0.620142 0.309468 0.716289
0.69868 0.306996 0.721233
0.792844 0.246525 0.692699
1.5259e-05 0.411322 0.702663
1.5259e-05 0.410559 0.705867
1.5259e-05 0.40795 0.709941
0.00515755 0.407309 0.717021
0.142748 0.401892 0.728939
0.384222 0.37995 0.738766
0.6271 0.369955 0.752331
0.720058 0.353491 0.751553
0.811795 0.30837 0.728649
1.5259e-05 0.498039 0.753338
7.62951e-05 0.499214 0.756527
0.000183108 0.500008 0.760937
0.000274662 0.497917 0.766918
0.0376898 0.505653 0.776989
0.329534 0.499901 0.795102
0.586984 0.453513 0.79649
0.746746 0.42562 0.792111
0.832807 0.396063 0.777661
0 0.586099 0.803876
0 0.588739 0.806226
0 0.592554 0.810056
0 0.602319 0.817166
0.0360723 0.615183 0.825101
0.354589 0.626001 0.848386
0.624475 0.6177 0.866712
0.791959 0.5552 0.846571
0.854398 0.499092 0.823987
0 0.67686 0.848753
0 0.680858 0.850965
0 0.693126 0.855619
0.0404059 0.705226 0.860212
0.235615 0.714641 0.867781
0.413321 0.719951 0.882094
0.601404 0.71632 0.892638
0.834379 0.720836 0.891249
0.894408 0.630228 0.872496
0 0.753964 0.87602
0 0.75967 0.877409
0.00460822 0.768078 0.878981
0.0204776 0.778531 0.880171
0.215991 0.7906 0.886213
0.440482 0.804974 0.897185
0.6159 0.822736 0.909758
0.789258 0.835767 0.919158
0.942565 0.839567 0.93196
0.00648508 0.841642 0.897673
0.00915541 0.847791 0.897261
0.140795 0.857664 0.898726
0.328862 0.871412 0.900801
0.467674 0.890776 0.90724
0.588647 0.912413 0.913298
0.69044 0.932845 0.919768
0.793439 0.953353 0.932418
0.976318 0.986923 0.972641
