brand-bible/brands/assets/blkgrlcotoo-luts/709to709_160T_x65_Film_White.cube
TITLE "Generated by Resolve"
LUT_3D_SIZE 9
0.0956436 0.0900587 0.0857557
0.111131 0.0914778 0.0830091
0.18381 0.0905165 0.0725872
0.298451 0.0900893 0.0535744
0.42034 0.0704509 0.0119936
0.492088 0.0511635 3.0518e-05
0.555261 0.0184787 0
0.626444 0.000137331 0
0.673548 0 0
0.0926223 0.110597 0.0857252
0.119371 0.11548 0.0880293
0.201373 0.114443 0.0711681
0.313191 0.119875 0.0566415
0.425696 0.117693 0.0190585
0.528939 0.118944 0.00689708
0.608164 0.11017 0.0043183
0.673075 0.0938888 0.00062562
0.702907 0.0564584 0
0.0425422 0.158541 0.0987106
0.090013 0.167468 0.0974746
0.187304 0.176989 0.0988632
0.318563 0.185245 0.0745556
0.419699 0.191882 0.0606088
0.533974 0.199588 0.0437629
0.647593 0.206287 0.0537423
0.712261 0.190463 0.0404059
0.736324 0.157626 0.00373846
0.00015259 0.2486 0.117525
0.0353246 0.257359 0.110002
0.17293 0.264363 0.105348
0.286793 0.28072 0.101808
0.437278 0.303807 0.0833295
0.575341 0.32665 0.0718242
0.680659 0.330007 0.0816968
0.751324 0.312688 0.0894636
0.777295 0.288045 0.0859693
0.0821393 0.357534 0.0848859
0.144686 0.364263 0.0936446
0.225635 0.369116 0.0989242
0.303014 0.379629 0.0903487
0.408331 0.400107 0.0703136
0.599802 0.434501 0.061326
0.720562 0.46302 0.0670481
0.788983 0.461723 0.088426
0.829816 0.433448 0.106172
0.248875 0.4692 0.0221103
0.281117 0.474754 0.0208591
0.318837 0.482658 0.0110475
0.366079 0.48777 0.0177462
0.451514 0.504494 0.0260471
0.606455 0.540444 0
0.746105 0.567987 0.0159609
0.825971 0.591623 0.0853742
0.868299 0.599161 0.142061
0.359838 0.563516 0
0.386297 0.569986 0
0.428397 0.580682 0
0.484031 0.591684 4.57771e-05
0.561074 0.604852 1.5259e-05
0.648066 0.621454 4.57771e-05
0.761395 0.650721 0
0.833127 0.660029 0.0099031
0.889372 0.684215 0.204532
0.488106 0.654322 4.57771e-05
0.51104 0.659754 0
0.546105 0.668223 0
0.595712 0.677241 0
0.657496 0.684703 0
0.723537 0.698146 0
0.780682 0.709255 0
0.84863 0.722881 0
0.896239 0.728679 0.147494
0.622629 0.726589 0
0.640024 0.730724 0
0.664424 0.736599 0
0.699794 0.743832 0
0.736492 0.748425 0
0.781079 0.757641 0
0.817868 0.763928 0
0.865171 0.772442 0
0.910307 0.77528 0.0211795
0.0963149 0.0894026 0.1075
0.109041 0.0895094 0.101015
0.190555 0.0929122 0.0961471
0.302419 0.0961776 0.0752117
0.426841 0.0813611 0.0489204
0.514672 0.0603952 0.031342
0.592081 0.0242008 0.0261845
0.660014 0.00447089 0.0156405
0.694011 0 0
0.0889906 0.111879 0.110079
0.122026 0.120272 0.113573
0.210941 0.121614 0.099794
0.316426 0.123018 0.0845045
0.434165 0.121996 0.074052
0.549554 0.116182 0.0477607
0.645762 0.100664 0.0397955
0.69189 0.0690013 0.000671397
0.71281 0.0291905 0
0.0383307 0.170901 0.114824
0.107256 0.181842 0.115373
0.206546 0.192554 0.119249
0.323919 0.192721 0.0982528
0.430442 0.201053 0.0958572
0.55819 0.212009 0.0897078
0.670314 0.216907 0.0931258
0.732448 0.19971 0.0796826
0.744976 0.152148 0.0300908
0.00015259 0.265141 0.144442
0.0350958 0.274128 0.136004
0.171435 0.28249 0.13341
0.291752 0.297856 0.131533
0.44712 0.315114 0.124117
0.586572 0.337545 0.112779
0.693095 0.338689 0.118608
0.763638 0.318502 0.120958
0.787488 0.291341 0.115541
0.0708171 0.376425 0.119188
0.147616 0.38201 0.124498
0.226505 0.388418 0.130297
0.304555 0.396796 0.125704
0.412558 0.415503 0.123934
0.605432 0.441016 0.122087
0.726131 0.471809 0.128573
0.796246 0.46772 0.146441
0.838437 0.437842 0.161089
0.255573 0.486091 0.0588388
0.288258 0.490898 0.0577707
0.321218 0.495933 0.058381
0.363119 0.500267 0.0809644
0.450828 0.515526 0.0849622
0.598291 0.542184 0.0411078
0.746166 0.570993 0.140047
0.829404 0.599374 0.185046
0.871427 0.607904 0.213657
0.367697 0.57673 0.00459297
0.395514 0.582513 0.00231937
0.43679 0.59173 0.000137331
0.48658 0.600381 6.10361e-05
0.547967 0.605417 0.000656138
0.637659 0.62153 0.0012665
0.755138 0.649317 6.10361e-05
0.833478 0.666423 0.192615
0.892195 0.693385 0.271153
0.489403 0.658961 9.15541e-05
0.512367 0.664073 4.57771e-05
0.549722 0.672404 0
0.599527 0.682673 0
0.653468 0.688182 3.0518e-05
0.72166 0.70135 6.10361e-05
0.778561 0.711498 0
0.843519 0.722515 0.0327916
0.898711 0.742031 0.295293
0.617884 0.726314 6.10361e-05
0.638163 0.731212 4.57771e-05
0.662913 0.737148 0
0.69865 0.745113 0
0.735256 0.750195 0
0.778073 0.758541 0
0.815274 0.764904 0
0.861784 0.77258 0
0.91014 0.78172 0.151553
0.0871748 0.0833753 0.139559
0.114412 0.0950484 0.132143
0.174365 0.0919356 0.128374
0.306569 0.0972457 0.123598
0.418402 0.0998093 0.111086
0.537362 0.0966812 0.102037
0.638972 0.0637369 0.0916762
0.694606 0.0147555 0.0650187
0.717205 1.5259e-05 0.0100862
0.0887312 0.112306 0.143145
0.12311 0.122423 0.159731
0.20557 0.129809 0.148806
0.323537 0.133562 0.140627
0.434745 0.138384 0.130343
0.558877 0.142306 0.128435
0.672312 0.135576 0.129442
0.724529 0.0929274 0.10042
0.72874 0.000381476 0.00318914
0.0607462 0.174975 0.153689
0.106615 0.193744 0.163577
0.226001 0.208576 0.168887
0.334585 0.196948 0.147326
0.45301 0.198032 0.14023
0.586038 0.214374 0.145113
0.700862 0.219623 0.151202
0.75378 0.19736 0.13666
0.74696 0.0916152 0.0453956
3.0518e-05 0.286824 0.181186
0.0439918 0.298665 0.197314
0.18529 0.311101 0.190967
0.299275 0.331075 0.198596
0.458671 0.327718 0.178317
0.59115 0.336797 0.172625
0.710063 0.338933 0.184451
0.783536 0.32018 0.183093
0.802457 0.285832 0.165728
0.0252689 0.402991 0.205112
0.0598917 0.410895 0.202319
0.197436 0.420172 0.198825
0.289403 0.431159 0.197681
0.41622 0.452583 0.205371
0.617685 0.455192 0.208515
0.727565 0.475486 0.214984
0.807828 0.470283 0.235431
0.847929 0.434272 0.234028
0.222965 0.504997 0.16202
0.259998 0.50959 0.159976
0.305409 0.516991 0.167071
0.360388 0.527489 0.180072
0.448203 0.543236 0.186252
0.603815 0.570672 0.211429
0.752682 0.583825 0.251637
0.829587 0.605676 0.276967
0.874571 0.617594 0.304433
0.353124 0.584604 0.0922866
0.380667 0.58912 0.0769818
0.42623 0.597253 0.0569467
0.474998 0.606088 0.0710002
0.530083 0.616236 0.111864
0.63093 0.639384 0.168353
0.752636 0.665736 0.217792
0.840986 0.679408 0.309682
0.89305 0.701396 0.34229
0.482124 0.659434 1.5259e-05
0.506966 0.665034 1.5259e-05
0.547829 0.67422 0
0.59971 0.685222 0
0.651926 0.693675 3.0518e-05
0.714504 0.70367 3.0518e-05
0.77142 0.714595 0.0249638
0.843442 0.734264 0.210819
0.900923 0.752453 0.369039
0.611627 0.725917 0.000122072
0.632303 0.730831 0.000106813
0.662104 0.737942 0
0.6963 0.745739 1.5259e-05
0.733166 0.752346 1.5259e-05
0.772213 0.758862 0
0.810178 0.76524 0.0105135
0.853742 0.771252 0.0177157
0.911513 0.794766 0.286061
0.0604868 0.0667887 0.235447
0.0971542 0.076112 0.233158
0.186984 0.100755 0.232273
0.276371 0.104326 0.23093
0.378164 0.0984054 0.221317
0.520729 0.105821 0.223987
0.653086 0.11162 0.209354
0.731304 0.0991684 0.172839
0.730556 3.0518e-05 0.0334478
0.0456245 0.110918 0.250233
0.0988174 0.116045 0.253712
0.199329 0.134905 0.246357
0.283772 0.138262 0.250416
0.40531 0.136889 0.247364
0.566506 0.149111 0.250156
0.689219 0.170352 0.238849
0.756527 0.171359 0.205249
0.743587 1.5259e-05 0.0835737
0.0136873 0.173877 0.260822
0.0973373 0.1794 0.271931
0.218067 0.199527 0.301778
0.297963 0.201587 0.282994
0.458228 0.220874 0.296773
0.595728 0.221973 0.287785
0.715862 0.243259 0.269764
0.777295 0.240696 0.247257
0.785199 0.193393 0.192264
0.00123598 0.286946 0.300084
0.0140841 0.300832 0.307591
0.177798 0.326497 0.325597
0.333455 0.346883 0.336767
0.481834 0.345205 0.328984
0.605417 0.32874 0.298146
0.728679 0.310903 0.277317
0.795193 0.303243 0.264286
0.809842 0.270329 0.226688
0.0188449 0.42031 0.33695
0.057847 0.434028 0.343694
0.155932 0.454093 0.347463
0.326818 0.46363 0.351949
0.451286 0.483391 0.358007
0.615869 0.463203 0.322789
0.733043 0.4551 0.305699
0.814313 0.444205 0.311238
0.854093 0.418311 0.301091
0.0720073 0.527001 0.27509
0.103746 0.531075 0.276905
0.191058 0.546151 0.311101
0.317922 0.565042 0.327565
0.443122 0.587777 0.361151
0.618845 0.607797 0.367697
0.758694 0.595529 0.340856
0.823941 0.603525 0.350149
0.87332 0.611246 0.372351
0.32372 0.60351 0.215656
0.360479 0.612161 0.232578
0.398795 0.620493 0.231647
0.458656 0.632319 0.239338
0.533486 0.648157 0.262318
0.635691 0.671153 0.302403
0.757519 0.695949 0.368139
0.84448 0.690761 0.383581
0.889433 0.702754 0.40058
0.47866 0.668559 0.132967
0.500206 0.671931 0.113588
0.536858 0.677638 0.0775006
0.59707 0.68867 0.0327306
0.642939 0.698711 0.0723888
0.698878 0.715724 0.187381
0.763455 0.736278 0.265583
0.845609 0.760296 0.382376
0.902754 0.761654 0.427314
0.604074 0.725063 0.00227359
0.621988 0.729656 0.000381476
0.652491 0.737148 0.000411994
0.693568 0.746548 0
0.727214 0.753948 0.0153964
0.760708 0.760845 0.0692454
0.802563 0.770657 0.13344
0.851225 0.785031 0.225391
0.913008 0.813611 0.401816
0.0434424 0.0677043 0.317372
0.0895094 0.0633249 0.326314
0.194919 0.109834 0.324376
0.294301 0.127062 0.335988
0.387213 0.130983 0.347097
0.500648 0.128466 0.331502
0.652949 0.122194 0.32256
0.741756 0.146578 0.291386
0.757244 0.066804 0.203433
0.00077821 0.112337 0.341527
0.087541 0.126116 0.343664
0.201404 0.147127 0.33962
0.298543 0.163775 0.348043
0.392309 0.169604 0.362066
0.526284 0.162615 0.351537
0.688411 0.172976 0.338857
0.765652 0.196445 0.305074
0.780041 0.161669 0.238758
6.10361e-05 0.198947 0.366735
0.0525216 0.201099 0.367041
0.204349 0.202762 0.376761
0.310597 0.230472 0.374472
0.402823 0.22945 0.383932
0.567102 0.232486 0.389364
0.71667 0.246647 0.364935
0.788418 0.258549 0.33196
0.805554 0.244312 0.284764
0.00383001 0.292699 0.385626
0.0306554 0.299702 0.392203
0.214038 0.321935 0.411994
0.324742 0.333562 0.437324
0.428458 0.339788 0.41944
0.610605 0.357763 0.427543
0.729229 0.331975 0.406302
0.803677 0.336355 0.374548
0.830854 0.318532 0.332845
3.0518e-05 0.422568 0.43267
0.0132296 0.429633 0.431403
0.0985885 0.446738 0.437324
0.286717 0.476249 0.454002
0.467613 0.497887 0.464012
0.64152 0.492302 0.452766
0.736782 0.464714 0.42182
0.826108 0.424033 0.385534
0.855833 0.395468 0.355291
0.0567483 0.544656 0.433722
0.098146 0.552911 0.441367
0.195529 0.567788 0.453758
0.316289 0.592004 0.465705
0.482826 0.606958 0.471656
0.633158 0.626139 0.475013
0.748104 0.605661 0.439872
0.825177 0.596094 0.427985
0.880064 0.587762 0.425711
0.23653 0.625635 0.343038
0.276463 0.633631 0.344457
0.316228 0.641047 0.34638
0.386206 0.662593 0.395605
0.52105 0.690318 0.466606
0.646784 0.711406 0.500069
0.766583 0.715068 0.48687
0.84242 0.69984 0.460334
0.887984 0.70425 0.456245
0.4271 0.680873 0.239414
0.4598 0.689342 0.257481
0.508629 0.704311 0.301854
0.566659 0.720043 0.335561
0.637293 0.737148 0.366491
0.697765 0.754894 0.394476
0.767452 0.777798 0.45655
0.849683 0.779446 0.496056
0.904845 0.76994 0.484337
0.596139 0.744686 0.248585
0.615686 0.749905 0.255711
0.642252 0.754879 0.246632
0.685054 0.763165 0.235676
0.724865 0.773098 0.255985
0.758373 0.784772 0.296635
0.797589 0.799939 0.360464
0.846403 0.814771 0.408865
0.91603 0.833082 0.517784
0.0244755 0.10219 0.393408
0.0874647 0.0951095 0.402701
0.198398 0.131273 0.402762
0.3037 0.157794 0.414664
0.406683 0.173495 0.430396
0.527687 0.181186 0.443412
0.652796 0.157946 0.41294
0.74696 0.170916 0.381979
0.780194 0.164645 0.327214
4.57771e-05 0.13611 0.417121
0.049958 0.15227 0.419821
0.186709 0.159838 0.419089
0.306569 0.198184 0.426215
0.411093 0.215259 0.441077
0.531868 0.222614 0.457527
0.666453 0.196002 0.427665
0.76289 0.209751 0.393668
0.794949 0.209674 0.341558
0.000320439 0.227863 0.444984
0.00920119 0.232441 0.444068
0.182467 0.234607 0.445182
0.310689 0.255879 0.453285
0.414328 0.268238 0.455726
0.535286 0.270939 0.470588
0.681102 0.248478 0.451133
0.782696 0.265675 0.414115
0.813245 0.256458 0.358053
0 0.323369 0.471412
0.0311284 0.322362 0.46865
0.147189 0.321569 0.472572
0.321416 0.331884 0.503014
0.436759 0.355688 0.498375
0.553796 0.355642 0.497932
0.712749 0.36788 0.511131
0.807584 0.346654 0.459144
0.842557 0.340719 0.414908
0 0.42591 0.502968
0 0.431388 0.50631
0.0899062 0.444831 0.511864
0.313054 0.469917 0.53167
0.462623 0.479561 0.549294
0.590387 0.484321 0.532174
0.739376 0.493278 0.535378
0.815686 0.475517 0.52192
0.8663 0.448127 0.483665
0 0.539651 0.534539
0.0012665 0.547295 0.53228
0.0458991 0.563439 0.535027
0.279393 0.591699 0.548363
0.461891 0.62562 0.569589
0.649805 0.642557 0.574548
0.768078 0.627237 0.550835
0.83267 0.605447 0.528267
0.885893 0.5729 0.498207
0.159869 0.641749 0.506752
0.216083 0.650843 0.518242
0.292226 0.664561 0.536522
0.392554 0.68513 0.560601
0.504601 0.709163 0.572442
0.676463 0.720668 0.576989
0.773816 0.724804 0.568704
0.833616 0.707515 0.544289
0.88394 0.696559 0.533959
0.365759 0.705653 0.41973
0.392889 0.712718 0.422354
0.435386 0.724743 0.427604
0.486259 0.737255 0.43537
0.617548 0.770275 0.581384
0.704906 0.78323 0.59762
0.770031 0.7935 0.603372
0.850919 0.786618 0.588235
0.899321 0.774639 0.556374
0.552728 0.757137 0.338827
0.569696 0.760189 0.33669
0.607858 0.772961 0.370626
0.658747 0.793271 0.440116
0.706249 0.804959 0.451514
0.752819 0.816373 0.473777
0.795132 0.82916 0.496117
0.847745 0.845014 0.553414
0.919509 0.843915 0.589929
0 0.144488 0.464836
0.0619516 0.145022 0.469642
0.183047 0.153933 0.472404
0.300969 0.203555 0.4804
0.424659 0.229374 0.500328
0.547951 0.24773 0.520317
0.665522 0.226658 0.507057
0.748455 0.208698 0.46511
0.789166 0.212009 0.416892
0 0.184878 0.486275
0.019913 0.198383 0.48571
0.173953 0.207141 0.486351
0.294499 0.2383 0.492393
0.426612 0.264698 0.50956
0.550195 0.279179 0.527077
0.661219 0.266453 0.521965
0.755261 0.239582 0.478096
0.799603 0.239597 0.426169
0.000518807 0.268345 0.511376
0.0164797 0.272282 0.509972
0.128908 0.276432 0.505638
0.275334 0.282414 0.515221
0.43331 0.311269 0.525567
0.548241 0.317113 0.53402
0.652491 0.313375 0.539742
0.765469 0.283085 0.497841
0.81738 0.286091 0.449104
0.00215152 0.361288 0.540536
0.0149538 0.359152 0.535851
0.0921645 0.355505 0.533913
0.271794 0.353384 0.544076
0.455024 0.378637 0.560998
0.565789 0.379278 0.557748
0.677028 0.379019 0.566613
0.797559 0.361715 0.546868
0.844022 0.358663 0.492027
7.62951e-05 0.441932 0.557931
3.0518e-05 0.435523 0.551598
0.0630655 0.43859 0.553689
0.264652 0.45951 0.579309
0.472862 0.479667 0.608927
0.595865 0.487282 0.597559
0.706691 0.504875 0.598718
0.813581 0.518273 0.61059
0.870604 0.476066 0.567819
1.5259e-05 0.544167 0.59617
1.5259e-05 0.549859 0.598138
0 0.563455 0.598657
0.227512 0.588479 0.60737
0.472221 0.61738 0.627543
0.647089 0.634974 0.640513
0.734417 0.631907 0.624018
0.828153 0.633387 0.627039
0.87245 0.626245 0.621714
0 0.633951 0.612604
0.0274815 0.644053 0.613001
0.144121 0.66186 0.616342
0.376394 0.68986 0.628351
0.530495 0.716548 0.642466
0.668574 0.735988 0.652094
0.772442 0.738689 0.651331
0.84416 0.720272 0.62771
0.890654 0.705165 0.61297
0.338216 0.725109 0.574197
0.37525 0.733074 0.585855
0.429694 0.744945 0.60621
0.503014 0.761822 0.632364
0.588647 0.781155 0.648219
0.690166 0.792599 0.652338
0.782025 0.800809 0.657954
0.854536 0.793133 0.640314
0.897627 0.780285 0.622324
0.529076 0.778668 0.469642
0.549432 0.783932 0.473365
0.579599 0.792172 0.479164
0.613611 0.800015 0.482628
0.666743 0.819425 0.544106
0.741711 0.840894 0.625559
0.795468 0.851423 0.655894
0.845808 0.861173 0.671534
0.922469 0.854337 0.652674
0.00418097 0.208591 0.526909
0.0133822 0.213397 0.528283
0.157656 0.225101 0.528725
0.28275 0.250141 0.534585
0.429633 0.285725 0.552178
0.567773 0.304265 0.571389
0.665766 0.304936 0.585351
0.754192 0.244251 0.536751
0.798306 0.257435 0.495689
0 0.248463 0.544244
0.0170748 0.260349 0.542382
0.126894 0.269306 0.539788
0.268299 0.276188 0.542504
0.42707 0.312169 0.560998
0.568246 0.326818 0.576806
0.661646 0.330419 0.592538
0.756207 0.279789 0.551965
0.806638 0.284138 0.509606
0 0.317021 0.564141
0.0185245 0.320089 0.561868
0.0895552 0.323873 0.557382
0.254505 0.325109 0.560922
0.431113 0.350393 0.576471
0.570275 0.359686 0.587198
0.663737 0.362325 0.599802
0.755245 0.329442 0.575387
0.81912 0.322438 0.530373
0 0.399069 0.588129
0.00590524 0.397269 0.585184
0.0556497 0.392111 0.581506
0.232715 0.389166 0.587015
0.424689 0.398657 0.609033
0.590265 0.417151 0.610544
0.675059 0.411902 0.617243
0.762661 0.407843 0.619471
0.847364 0.393088 0.572671
1.5259e-05 0.473716 0.607294
0 0.471046 0.604181
0.0206455 0.469123 0.601312
0.210788 0.473823 0.611261
0.452796 0.494881 0.650339
0.616205 0.517418 0.649882
0.691264 0.502815 0.637827
0.793713 0.540963 0.657465
0.87219 0.518639 0.644404
7.62951e-05 0.551522 0.630243
0.000122072 0.557153 0.6327
3.0518e-05 0.56849 0.637446
0.175967 0.59144 0.651087
0.470481 0.623087 0.67686
0.648859 0.63418 0.693736
0.726452 0.633433 0.673091
0.808591 0.643977 0.673457
0.874983 0.648478 0.67892
0.00015259 0.630854 0.664286
0.000549325 0.63801 0.665675
0.000198367 0.65333 0.664195
0.243717 0.679561 0.673945
0.506813 0.712734 0.692714
0.671626 0.731334 0.699611
0.769406 0.742855 0.705272
0.831373 0.729931 0.692515
0.891081 0.725231 0.694087
0.12163 0.723552 0.673762
0.246983 0.733639 0.677333
0.365377 0.748089 0.68365
0.503822 0.76907 0.692454
0.608011 0.788357 0.702266
0.691371 0.804654 0.710735
0.778927 0.812406 0.714443
0.850187 0.808408 0.706615
0.903944 0.790402 0.681727
0.488182 0.791318 0.56527
0.512871 0.797513 0.575494
0.556695 0.80798 0.59202
0.609537 0.8224 0.613199
0.661158 0.836515 0.629267
0.719142 0.85034 0.65919
0.800641 0.865034 0.720272
0.850935 0.872709 0.725032
0.928923 0.870344 0.704784
0 0.27982 0.584192
0.0158389 0.289036 0.582544
0.0965438 0.297169 0.578729
0.258946 0.301015 0.581659
0.423163 0.336614 0.600198
0.588205 0.351919 0.620783
0.67631 0.359136 0.633982
0.759701 0.33547 0.620584
0.806683 0.296483 0.566064
0 0.315618 0.596475
0.0164034 0.322393 0.593606
0.0854047 0.328984 0.589471
0.247944 0.329946 0.590387
0.418189 0.357565 0.6094
0.590158 0.372152 0.627741
0.678203 0.37847 0.639216
0.755291 0.3682 0.637201
0.811566 0.320165 0.581033
6.10361e-05 0.371237 0.611536
1.5259e-05 0.371817 0.609537
0.0513771 0.373739 0.605707
0.226764 0.373892 0.606058
0.399252 0.386984 0.62591
0.597543 0.405127 0.639857
0.680674 0.408682 0.646601
0.748455 0.409247 0.656168
0.817746 0.354025 0.604242
0 0.442634 0.633722
0 0.44033 0.631662
0.0303349 0.436835 0.628595
0.166217 0.432731 0.630549
0.385977 0.439994 0.649897
0.618296 0.460319 0.662089
0.692164 0.457771 0.663935
0.757671 0.456077 0.67393
0.833295 0.428214 0.654307
3.0518e-05 0.509865 0.655497
1.5259e-05 0.508339 0.653605
0.00329595 0.507897 0.650996
0.134508 0.508186 0.653513
0.41088 0.519265 0.683558
0.638666 0.549218 0.697963
0.709178 0.540627 0.690227
0.769451 0.546471 0.695232
0.846006 0.572656 0.7084
6.10361e-05 0.56556 0.669261
9.15541e-05 0.564416 0.665553
3.0518e-05 0.572747 0.668986
0.182971 0.596857 0.685557
0.460014 0.624918 0.716014
0.64947 0.636805 0.738277
0.731365 0.639384 0.722469
0.783612 0.636667 0.714321
0.862242 0.661311 0.726955
0.000289921 0.642985 0.702068
0.000350958 0.650156 0.703868
3.0518e-05 0.662547 0.707546
0.299092 0.685466 0.71989
0.509224 0.709407 0.738521
0.679103 0.721035 0.752102
0.762142 0.731014 0.75378
0.809125 0.720821 0.739666
0.879362 0.724239 0.74023
0 0.709911 0.726223
0.00894179 0.718944 0.725933
0.152651 0.731044 0.728359
0.360922 0.752605 0.739651
0.542016 0.777401 0.754025
0.699336 0.801312 0.764996
0.775616 0.804364 0.765743
0.840864 0.812222 0.770123
0.903243 0.801709 0.763394
0.492409 0.818021 0.718685
0.521904 0.824018 0.727703
0.558755 0.832471 0.740475
0.613779 0.844862 0.757351
0.669017 0.857954 0.771221
0.719402 0.869978 0.779507
0.766796 0.881346 0.785458
0.828244 0.892485 0.790936
0.941131 0.900038 0.785458
