brand-bible/brands/assets/blkgrlcotoo-luts/709to709_250D_x65_Clean_White.cube
TITLE "Generated by Resolve"
LUT_3D_SIZE 5
0.0197147 0.0792401 0.0977493
0.144717 0.0752117 0.0669413
0.339986 0.0687572 0.0242008
0.56257 0.00453193 0
0.689769 0.0228885 0.00392157
1.5259e-05 0.169619 0.0889143
0.225528 0.198779 0.082826
0.407004 0.216419 0.064683
0.598306 0.222797 0.0645762
0.721553 0.195834 0.0558938
0.0141451 0.358022 0.066743
0.171359 0.373205 0.0781109
0.509499 0.444114 0.105119
0.697505 0.436454 0.113878
0.805753 0.456764 0.15053
0.128298 0.537133 0.0251621
0.275593 0.558312 0.0178531
0.443732 0.603525 0.0171359
0.750149 0.674449 0.000427253
0.900786 0.67039 0.273915
0.362203 0.707134 0.0298924
0.429694 0.724071 0.032166
0.539803 0.750164 0.0263218
0.690181 0.788235 9.15541e-05
0.963226 0.857374 0.279225
0.00337224 0.0595865 0.175814
0.185397 0.0644846 0.17142
0.38819 0.0709544 0.134234
0.611276 0.0317235 0.119509
0.718257 0.0350195 0.119524
0.000106813 0.184894 0.203082
0.223835 0.235737 0.219211
0.451575 0.204913 0.174853
0.629145 0.198611 0.160983
0.744106 0.180392 0.153094
0.00204471 0.402991 0.188388
0.129274 0.424781 0.204669
0.49192 0.473823 0.222126
0.696269 0.452308 0.217655
0.820981 0.445884 0.25713
0.116625 0.558526 0.120836
0.264958 0.581735 0.122591
0.442588 0.623056 0.162905
0.749035 0.693629 0.209705
0.901015 0.683497 0.348455
0.368734 0.71931 0.120287
0.434577 0.733989 0.117205
0.556817 0.760067 0.0690929
0.697246 0.79527 0.0634775
0.963607 0.87097 0.370016
0 0.0905928 0.307607
0.176974 0.081117 0.351186
0.411841 0.0687419 0.361776
0.643549 0.0701457 0.307301
0.743358 0.0960403 0.265202
0 0.233906 0.434745
0.199191 0.228153 0.470451
0.463462 0.201816 0.426459
0.660334 0.183032 0.357992
0.762997 0.197955 0.307683
3.0518e-05 0.435492 0.459113
0.00648508 0.462791 0.465263
0.481575 0.519997 0.487419
0.727779 0.449119 0.414389
0.834287 0.41059 0.374105
0.0665904 0.611872 0.317143
0.234134 0.639002 0.33286
0.493355 0.691341 0.390738
0.745403 0.743755 0.483894
0.901488 0.704524 0.456565
0.392401 0.748394 0.241062
0.451667 0.761028 0.239948
0.576501 0.787823 0.240131
0.717815 0.822446 0.26685
0.964553 0.896406 0.497414
1.5259e-05 0.165408 0.470771
0.125109 0.150607 0.493309
0.391745 0.158511 0.51809
0.62031 0.0961471 0.501396
0.744549 0.0599374 0.400214
0.000381476 0.270771 0.544823
0.0432441 0.267552 0.563455
0.419074 0.233417 0.578149
0.653101 0.185534 0.554086
0.784268 0.177783 0.428229
3.0518e-05 0.459358 0.642512
0.014725 0.468299 0.647959
0.454948 0.490578 0.659968
0.717067 0.481376 0.659876
0.847639 0.40235 0.567483
1.5259e-05 0.649897 0.660121
0.0659953 0.679744 0.663401
0.344961 0.723308 0.677287
0.741833 0.770916 0.699535
0.91223 0.698863 0.628901
0.493935 0.80235 0.395682
0.528984 0.81033 0.396384
0.62031 0.831983 0.40763
0.742275 0.86392 0.436362
0.968307 0.926696 0.606882
0 0.268452 0.611261
0.0282597 0.258381 0.615564
0.307622 0.249668 0.645701
0.600061 0.248295 0.676814
0.76875 0.171405 0.650965
1.5259e-05 0.34461 0.660929
0.00907912 0.341024 0.667964
0.254017 0.324987 0.686275
0.620142 0.309468 0.716289
0.792844 0.246525 0.692699
1.5259e-05 0.498039 0.753338
0.000183108 0.500008 0.760937
0.0376898 0.505653 0.776989
0.586984 0.453513 0.79649
0.832807 0.396063 0.777661
0 0.67686 0.848753
0 0.693126 0.855619
0.235615 0.714641 0.867781
0.601404 0.71632 0.892638
0.894408 0.630228 0.872496
0.00648508 0.841642 0.897673
0.140795 0.857664 0.898726
0.467674 0.890776 0.90724
0.69044 0.932845 0.919768
0.976318 0.986923 0.972641
