brand-bible/brands/assets/blkgrlcotoo-luts/709to709_160T_x65_Clean_White.cube
TITLE "Generated by Resolve"
LUT_3D_SIZE 65
0.0956436 0.0923629 0.0913252
0.0975052 0.0927596 0.0915694
0.099382 0.0933089 0.0921187
0.101518 0.093843 0.0927138
0.103136 0.094377 0.0927901
0.104631 0.0946212 0.0911116
0.105898 0.0937667 0.0903182
0.107591 0.0937057 0.0893721
0.111131 0.0939193 0.0884413
0.118273 0.0940261 0.0877241
0.126772 0.0950484 0.088365
0.134035 0.0957961 0.0880446
0.14049 0.0955825 0.0864271
0.148791 0.0947738 0.0844587
0.159289 0.0941329 0.0822309
0.171328 0.0937819 0.0798962
0.18381 0.0928817 0.0773632
0.196002 0.0925612 0.0738384
0.20763 0.0923781 0.0701152
0.222553 0.0931563 0.0684062
0.239124 0.0939193 0.0661784
0.253376 0.0940719 0.0641947
0.267277 0.0943465 0.06215
0.282856 0.0935378 0.0595712
0.298451 0.0923934 0.0571603
0.313817 0.0912947 0.0534524
0.331273 0.0885328 0.0485389
0.347753 0.086183 0.0438392
0.363806 0.0839857 0.0377203
0.37911 0.0803388 0.0305028
0.393912 0.076997 0.0237736
0.408225 0.0744793 0.0177005
0.42034 0.0723583 0.0130007
0.430869 0.0699016 0.0103609
0.44155 0.0670939 0.00772107
0.453239 0.0642557 0.00492866
0.463722 0.0626688 0.00437934
0.471824 0.0610513 0.00408942
0.478462 0.0584878 0.00291447
0.485023 0.0556344 0.0015259
0.492088 0.0525978 6.10361e-05
0.498909 0.0513313 0
0.507225 0.0477302 0
0.514992 0.0437934 0
0.522683 0.0391852 0
0.530297 0.0337072 0
0.538338 0.0291142 0
0.546044 0.0242161 0
0.555261 0.0191196 0
0.564553 0.0152438 0
0.573388 0.0123293 0
0.58114 0.0074464 0
0.591409 0.00543221 0
0.601236 0.0056611 0
0.609949 0.00321965 0
0.618418 0.000274662 0
0.626444 0.000289921 0
0.635004 0.000289921 0
0.64184 0.000198367 0
0.648157 7.62951e-05 0
0.653971 0 0
0.660136 0 0
0.665324 0 0
0.669535 0 0
0.673548 0 0
0.0958724 0.0950942 0.0921645
0.0975662 0.0950637 0.091722
0.0992447 0.095201 0.091722
0.101518 0.0957961 0.0923323
0.103655 0.0963607 0.0930495
0.105409 0.0970016 0.0922713
0.106767 0.0962387 0.0910048
0.108705 0.0962844 0.0901503
0.113588 0.0968948 0.0895552
0.120958 0.0971084 0.0892653
0.129305 0.097734 0.0895552
0.135592 0.0979324 0.0887617
0.142321 0.0973983 0.0868696
0.151278 0.0966506 0.0843671
0.161395 0.0959487 0.0818647
0.173602 0.0955825 0.0792248
0.185824 0.0948196 0.0768902
0.19823 0.0945449 0.07364
0.20943 0.094377 0.0702373
0.224659 0.0952163 0.0685893
0.241169 0.0961013 0.0663157
0.255421 0.0964675 0.0645914
0.269291 0.0967422 0.0626688
0.284901 0.0960555 0.06009
0.299428 0.094728 0.0577096
0.314778 0.0939498 0.054551
0.331884 0.0916915 0.049485
0.348028 0.0891585 0.0451209
0.363363 0.0868696 0.0400702
0.37879 0.0840467 0.0335546
0.394003 0.0805676 0.026978
0.408347 0.0770581 0.0200656
0.42208 0.0753643 0.0141451
0.433539 0.0725261 0.0105898
0.444877 0.0697185 0.00747692
0.456504 0.0669413 0.00445563
0.467796 0.0655833 0.0043183
0.47744 0.0641489 0.00411994
0.484398 0.0611429 0.00265507
0.491539 0.0581521 0.00125124
0.498726 0.055436 0
0.506569 0.0543069 0
0.514046 0.0528878 0
0.521233 0.0487678 0
0.529091 0.0432288 0
0.536538 0.0381628 0
0.545068 0.0334783 0
0.553613 0.0285954 0
0.5626 0.0230259 0
0.570962 0.0216526 0
0.580667 0.0163577 0
0.590387 0.00985733 0
0.599405 0.00727855 0
0.609079 0.00721752 0
0.616861 0.00529488 0
0.625223 0.00309758 0
0.633173 0.000976577 0
0.641703 0.00047303 0
0.647639 0.000350958 0
0.653681 0.000228885 0
0.659571 9.15541e-05 0
0.665263 0 0
0.6701 0 0
0.674189 0 0
0.678309 0 0
0.0962997 0.0981918 0.0938888
0.098024 0.0982681 0.0934615
0.099794 0.0983597 0.0930495
0.101549 0.0983597 0.0926223
0.103838 0.0987106 0.0928969
0.10634 0.0995041 0.0936446
0.10779 0.099382 0.0922866
0.109712 0.0992905 0.0914168
0.116304 0.099794 0.0907149
0.123873 0.100435 0.0907607
0.131334 0.100587 0.0904555
0.137148 0.100069 0.0890059
0.143847 0.0996414 0.0864118
0.153384 0.0988785 0.0838788
0.163241 0.0981003 0.0811475
0.175631 0.0978408 0.0787671
0.188479 0.0972305 0.0765087
0.201389 0.0969558 0.0733501
0.212711 0.0968795 0.0703441
0.226627 0.0973983 0.0686961
0.242374 0.0985122 0.0666819
0.256916 0.0991226 0.0648966
0.270344 0.099321 0.0631418
0.285771 0.098909 0.0606241
0.300771 0.098024 0.0584268
0.315602 0.0973068 0.0556497
0.333043 0.0954147 0.0497749
0.350149 0.0929122 0.0449836
0.366491 0.0904707 0.0393225
0.38294 0.0880293 0.0315557
0.397375 0.0841688 0.0245518
0.411292 0.0810864 0.0181582
0.425132 0.0791333 0.0124208
0.437415 0.0765393 0.00927749
0.448661 0.0736095 0.0062562
0.460502 0.0714122 0.00415045
0.472435 0.070161 0.00408942
0.483299 0.0695354 0.00364691
0.490806 0.0661784 0.00227359
0.498085 0.0619516 0.000762951
0.50486 0.0593118 0
0.512688 0.0576333 0
0.520439 0.05626 0
0.527504 0.0534676 0
0.535592 0.0475319 0
0.543542 0.0421607 0
0.551553 0.0378882 0
0.560296 0.0337072 0
0.56968 0.0293431 0
0.578958 0.0283055 0
0.58822 0.0238041 0
0.597864 0.0196994 0
0.606638 0.0148623 0
0.614939 0.0126192 0
0.623804 0.0115969 0
0.631632 0.010193 0
0.639658 0.00834669 0
0.647074 0.00689708 0
0.653147 0.00642405 0
0.658839 0.00683604 0
0.664775 0.00614939 0
0.669932 0.00474556 0
0.674449 0.00306706 0
0.678523 0.000411994 0
0.682109 0 0
0.0963912 0.101244 0.0955673
0.0981765 0.101518 0.0953994
0.10016 0.101625 0.0948653
0.102083 0.101656 0.094316
0.104204 0.101671 0.0937514
0.106523 0.101701 0.0933852
0.108614 0.102281 0.0931563
0.110674 0.102174 0.0923476
0.117952 0.102968 0.0923018
0.125628 0.103334 0.0918593
0.132967 0.103182 0.0905776
0.139467 0.102831 0.0885023
0.146731 0.102464 0.086305
0.156649 0.1019 0.083772
0.166186 0.100908 0.0805829
0.178149 0.10045 0.0780194
0.191959 0.100084 0.0758984
0.204639 0.0996262 0.0728466
0.21622 0.0995956 0.0703136
0.229587 0.0999619 0.0686351
0.245319 0.100999 0.0666209
0.259892 0.101503 0.0646677
0.274357 0.101823 0.0626383
0.290242 0.101549 0.0601358
0.305455 0.100877 0.057847
0.320729 0.0995804 0.0537423
0.338689 0.0979629 0.0478523
0.355367 0.095552 0.0430915
0.370794 0.0931411 0.0369116
0.387015 0.0908522 0.0289464
0.401617 0.0874952 0.0221408
0.415442 0.0851148 0.0162203
0.428656 0.0834669 0.0109712
0.441001 0.0818647 0.00842298
0.453391 0.0791791 0.00537118
0.465293 0.0774853 0.00393683
0.476478 0.0764172 0.0037995
0.486992 0.0757 0.00315862
0.49601 0.0746929 0.00187686
0.504036 0.0709239 0.000335698
0.511376 0.0686656 0
0.518441 0.0675975 0
0.525734 0.0671244 0
0.532982 0.0664378 0
0.540566 0.0660563 0
0.549371 0.0616159 0
0.558083 0.05626 0
0.56788 0.0514382 0
0.57702 0.0466468 0
0.586007 0.0421759 0
0.594812 0.0392309 0
0.604028 0.0352178 0
0.613626 0.0314031 0
0.621118 0.0279545 0
0.629709 0.0248112 0
0.638056 0.0232242 0
0.645594 0.0214847 0
0.652644 0.0201572 0
0.65832 0.0184024 0
0.663966 0.0167849 0
0.669322 0.0165713 0
0.674815 0.0145266 0
0.678645 0.0126497 0
0.682246 0.0107271 0
0.685817 0.00743114 0
0.0949721 0.103487 0.095613
0.0970321 0.103914 0.0955367
0.0991226 0.10428 0.0954299
0.101427 0.104662 0.0953384
0.104021 0.105043 0.0951705
0.106966 0.105364 0.0947738
0.10927 0.105608 0.0944381
0.11284 0.105882 0.0939651
0.119051 0.106065 0.0928511
0.126528 0.106035 0.0912337
0.13373 0.105821 0.0891585
0.141451 0.105241 0.0864118
0.149874 0.104768 0.0840772
0.160281 0.104128 0.0816663
0.170108 0.10309 0.078645
0.182712 0.102571 0.0762798
0.196139 0.102281 0.0737926
0.209827 0.102068 0.0714275
0.221988 0.10219 0.0696422
0.235676 0.102602 0.0677653
0.250751 0.103456 0.0657206
0.265126 0.10428 0.0639048
0.27985 0.104524 0.0616007
0.295796 0.104234 0.0589761
0.31075 0.103395 0.0561685
0.325887 0.102083 0.0516518
0.343099 0.100511 0.0460059
0.35874 0.0983291 0.0408789
0.374258 0.0962997 0.034699
0.390799 0.0941939 0.0267338
0.405371 0.0917525 0.0198215
0.418463 0.0897993 0.0142672
0.431708 0.0886854 0.00953689
0.44416 0.0876478 0.00737011
0.456123 0.0869001 0.00534066
0.467353 0.0851759 0.00383001
0.478614 0.0846723 0.00386053
0.488945 0.0846113 0.00361639
0.497581 0.0845655 0.00259403
0.506889 0.0843061 0.00148013
0.515099 0.0834669 0.000320439
0.521981 0.0827802 0
0.529366 0.0817578 0
0.538216 0.0806592 0
0.546578 0.0790112 0
0.555993 0.0770886 0
0.56466 0.0740368 0
0.574197 0.068574 0
0.583627 0.0640879 0
0.592401 0.0598764 0
0.601343 0.0558022 0
0.610559 0.0521859 0
0.620127 0.0479744 0
0.628031 0.0454871 0
0.635599 0.0416571 0
0.643671 0.0368353 0
0.651102 0.0346075 0
0.657237 0.0325322 0
0.663172 0.03093 0
0.668452 0.0275731 0
0.673884 0.0259098 0
0.678813 0.0248112 0
0.682658 0.0211032 0
0.686061 0.0200046 0
0.689143 0.0169528 0
0.0948806 0.106065 0.0946365
0.0967727 0.106569 0.0946365
0.0987564 0.107027 0.0946517
0.101198 0.107454 0.094667
0.103731 0.107652 0.0945602
0.106447 0.107942 0.0943618
0.109621 0.108202 0.0942702
0.112596 0.108492 0.0939345
0.118654 0.107973 0.0916304
0.125231 0.107683 0.0893873
0.131655 0.10724 0.0867781
0.13959 0.107271 0.0849317
0.148043 0.107149 0.0831769
0.15938 0.106783 0.0810559
0.171328 0.105974 0.0782788
0.185702 0.10576 0.076173
0.199863 0.105608 0.0734569
0.21326 0.105394 0.0713817
0.224948 0.105486 0.0696269
0.238682 0.105867 0.0675975
0.254078 0.106905 0.0657054
0.268101 0.107836 0.0639811
0.2822 0.107759 0.061738
0.297948 0.107576 0.0592203
0.312978 0.107347 0.0564279
0.327459 0.106188 0.052018
0.344305 0.104723 0.0464485
0.360388 0.103532 0.0414435
0.37525 0.10193 0.0357977
0.38999 0.100282 0.0289616
0.404196 0.0990158 0.0225223
0.417456 0.0979171 0.0167391
0.430182 0.0967575 0.0119326
0.442863 0.0957961 0.00894179
0.455344 0.0952163 0.00691234
0.467201 0.0949721 0.00527962
0.477989 0.0946822 0.00436408
0.489143 0.0946365 0.00451667
0.499352 0.0945449 0.00364691
0.509041 0.0944076 0.00259403
0.518273 0.0937362 0.00140383
0.527123 0.0933242 0.000228885
0.535363 0.0931411 0
0.543389 0.0914778 0
0.552514 0.0891127 0
0.561685 0.0870985 0
0.571069 0.0851453 0
0.579934 0.0838026 0
0.589166 0.0792859 0
0.598383 0.0753796 0
0.607645 0.0703593 0
0.617014 0.0667124 0
0.62594 0.0635386 0
0.634119 0.0606241 0
0.641779 0.0573892 0
0.648905 0.0521096 0
0.65655 0.046479 0
0.661921 0.0449073 0
0.66714 0.0427405 0
0.672877 0.0394598 0
0.677638 0.0360571 0
0.68249 0.0337072 0
0.686 0.0296483 0
0.689326 0.0273899 0
0.692485 0.0255283 0
0.0939345 0.108217 0.0933089
0.0959335 0.109087 0.0936751
0.098146 0.109651 0.0940566
0.100938 0.110094 0.0940108
0.103868 0.11046 0.0942702
0.106783 0.110674 0.0944686
0.110323 0.110704 0.0946212
0.113207 0.111223 0.0942245
0.1196 0.111192 0.0921035
0.126131 0.110414 0.0893263
0.132372 0.110109 0.0866255
0.139315 0.110033 0.0850233
0.147417 0.109636 0.0830854
0.15938 0.109453 0.0812238
0.172229 0.109148 0.0787366
0.186603 0.109102 0.0766155
0.200809 0.109224 0.0741741
0.214374 0.109255 0.0721447
0.226398 0.109453 0.0704967
0.239765 0.109865 0.0683604
0.254307 0.110719 0.0665141
0.267857 0.111559 0.0647593
0.282322 0.112154 0.0625162
0.297658 0.1122 0.0601511
0.312108 0.112032 0.0577859
0.326406 0.111788 0.0538033
0.343374 0.110521 0.0485389
0.359182 0.109239 0.043473
0.374273 0.108324 0.0378119
0.388876 0.107118 0.0315709
0.402228 0.105684 0.025391
0.415335 0.104387 0.0195315
0.428443 0.103792 0.0145724
0.442542 0.103426 0.0108186
0.454475 0.102571 0.00892653
0.466789 0.102464 0.00726329
0.47834 0.102708 0.00581369
0.488777 0.103029 0.00489815
0.500633 0.104005 0.00466926
0.512612 0.103929 0.00349432
0.522927 0.103059 0.00218204
0.531991 0.102586 0.0010071
0.540597 0.102159 0
0.54873 0.101946 0
0.557931 0.100908 0
0.567178 0.0977646 0
0.576608 0.0961776 0
0.586648 0.0943465 0
0.595605 0.0929122 0
0.605112 0.0891737 0
0.614801 0.0847639 0
0.623575 0.0797589 0
0.632425 0.0773175 0
0.639963 0.0757153 0
0.647807 0.072221 0
0.654994 0.0683604 0
0.661631 0.0628672 0
0.667369 0.0603342 0
0.672694 0.0584573 0
0.677409 0.0551003 0
0.68217 0.0499123 0
0.686015 0.0445411 0
0.689433 0.0390631 0
0.692348 0.0348058 0
0.695308 0.0323186 0
0.0930953 0.110719 0.0923629
0.0948196 0.111711 0.0926375
0.0969406 0.112566 0.0928969
0.100755 0.113283 0.0935378
0.10399 0.113558 0.0936751
0.108507 0.113283 0.0949111
0.110964 0.113634 0.0945296
0.113848 0.114092 0.0940719
0.118654 0.114794 0.0938735
0.127169 0.114046 0.0899825
0.133562 0.113313 0.087068
0.139971 0.11342 0.0856336
0.147936 0.113283 0.0839246
0.158953 0.112871 0.081651
0.171542 0.112596 0.0788891
0.186709 0.113115 0.0770123
0.201343 0.113436 0.0749828
0.215335 0.113832 0.0730144
0.22742 0.11397 0.0714275
0.240162 0.11426 0.0693828
0.254643 0.115373 0.0674449
0.268345 0.116365 0.0658122
0.28191 0.117021 0.0637827
0.297704 0.117433 0.0613107
0.312612 0.11754 0.0591745
0.326284 0.117342 0.0560464
0.342611 0.117006 0.0505379
0.358511 0.115969 0.0457313
0.372915 0.114748 0.041001
0.387274 0.114183 0.0349279
0.401465 0.113664 0.0284428
0.414282 0.112657 0.0227207
0.426795 0.111788 0.0171359
0.440681 0.111543 0.0124819
0.454917 0.111543 0.0103761
0.466682 0.111711 0.00880446
0.478294 0.112078 0.0075227
0.49015 0.11249 0.00595102
0.502632 0.112642 0.00469978
0.515007 0.113237 0.00392157
0.526513 0.113436 0.00375372
0.536355 0.112673 0.00270085
0.545586 0.111986 0.00177005
0.553979 0.111299 0.0009308
0.563104 0.110887 0.000915541
0.573556 0.109865 0.000869764
0.583261 0.107134 0.000747692
0.5935 0.104982 0.0011902
0.602731 0.103395 0.000946059
0.612055 0.101976 0.0009308
0.621241 0.0995193 0.000823987
0.630701 0.0942855 0.00062562
0.638544 0.0913252 0.000137331
0.646235 0.0895857 0
0.653483 0.0881361 0
0.660548 0.0849012 0
0.667521 0.0801862 0
0.672663 0.0769055 0
0.677821 0.074342 0
0.682628 0.070985 0
0.687144 0.0665599 0
0.691218 0.0607614 0
0.693721 0.054612 0
0.696605 0.0485389 0
0.698787 0.0426337 0
0.0926223 0.113436 0.0912947
0.0944381 0.114275 0.0915694
0.0966354 0.115023 0.0915541
0.100649 0.11577 0.0923323
0.105943 0.116075 0.0938582
0.108751 0.116503 0.0939651
0.11165 0.117052 0.0937362
0.114641 0.117723 0.0937362
0.119371 0.118486 0.0938125
0.126085 0.119005 0.0916609
0.136126 0.117784 0.0888991
0.141939 0.117342 0.0866407
0.148363 0.117403 0.0848402
0.159564 0.117113 0.0825055
0.172625 0.117113 0.0801709
0.187259 0.117342 0.0777752
0.201373 0.117388 0.0758068
0.21619 0.118074 0.0738842
0.229252 0.118669 0.072343
0.241856 0.119051 0.0705577
0.255451 0.119966 0.068574
0.269368 0.121141 0.066865
0.283253 0.122057 0.0650797
0.298375 0.122454 0.0626078
0.313191 0.122911 0.0603952
0.326848 0.123033 0.0581064
0.341329 0.122683 0.0532235
0.356878 0.122454 0.0479744
0.371328 0.121767 0.0435187
0.385122 0.121126 0.0389105
0.398825 0.12076 0.0326238
0.412131 0.120928 0.0265812
0.425696 0.120714 0.0204776
0.438956 0.120089 0.0149844
0.452873 0.120287 0.0114137
0.4654 0.120775 0.0101167
0.478462 0.12105 0.00862135
0.491341 0.121813 0.00805676
0.504097 0.121706 0.00737011
0.516472 0.121553 0.00701915
0.528939 0.121965 0.00756847
0.540291 0.122316 0.00738537
0.549798 0.121981 0.00672923
0.559762 0.120775 0.00588998
0.569085 0.11957 0.00570687
0.579202 0.118502 0.0061799
0.590036 0.117327 0.00646983
0.599542 0.115923 0.00653086
0.608164 0.113008 0.00479133
0.617975 0.111711 0.00491341
0.626902 0.109941 0.004654
0.636103 0.108873 0.00466926
0.64416 0.104158 0.00250248
0.651347 0.102449 0.00192264
0.658946 0.100496 0.00163272
0.666453 0.0990463 0.00138857
0.673075 0.0963607 0.000885023
0.678141 0.093904 0
0.682994 0.0910506 0
0.6878 0.0870985 0
0.692271 0.0825971 0
0.695796 0.0768597 0
0.698299 0.0699931 0
0.700542 0.0637827 0
0.702907 0.0580148 0
0.0918898 0.116487 0.0903792
0.0939651 0.117266 0.0904097
0.0981918 0.118166 0.0916762
0.103273 0.118959 0.0935073
0.107195 0.119799 0.0943313
0.110002 0.12047 0.0938888
0.112657 0.120851 0.0935836
0.115831 0.121279 0.0933547
0.120378 0.121981 0.0935531
0.125719 0.122713 0.0935531
0.135744 0.122469 0.0900435
0.144701 0.121401 0.0878157
0.151202 0.121111 0.0855116
0.161181 0.12137 0.0832685
0.174655 0.121859 0.0813611
0.188891 0.122347 0.0793164
0.203143 0.122835 0.0772412
0.21622 0.123079 0.0753338
0.229877 0.123629 0.073579
0.243198 0.124193 0.0716869
0.256062 0.125048 0.0698558
0.269627 0.126055 0.0680095
0.283192 0.127108 0.0662547
0.298024 0.127764 0.0640726
0.311986 0.128237 0.0618448
0.325872 0.128801 0.0597848
0.339773 0.128923 0.0562142
0.354742 0.128832 0.0512093
0.368811 0.128603 0.0465248
0.382284 0.128542 0.0421759
0.395972 0.128313 0.0371862
0.409018 0.128328 0.031281
0.423148 0.128405 0.0251011
0.437507 0.12871 0.0190738
0.452293 0.128405 0.0134737
0.464897 0.128695 0.0124819
0.477852 0.129396 0.0121309
0.491615 0.129549 0.0119326
0.505425 0.13022 0.0116579
0.518898 0.130129 0.0108949
0.530968 0.130434 0.0110781
0.543496 0.131044 0.0121462
0.55465 0.130922 0.0124208
0.565209 0.130297 0.0122072
0.575525 0.128893 0.0113069
0.585016 0.127749 0.0112154
0.595209 0.127199 0.0114443
0.605722 0.125963 0.0117494
0.614038 0.124346 0.010071
0.622919 0.121798 0.00898756
0.632685 0.120012 0.0091249
0.641245 0.118166 0.00900282
0.649699 0.116304 0.0059968
0.657145 0.11284 0.002533
0.664149 0.110658 0.00239567
0.67155 0.10901 0.00227359
0.678187 0.107591 0.00187686
0.682979 0.105806 0
0.687785 0.104356 0
0.692515 0.102113 0
0.697063 0.0988785 0
0.700603 0.0935683 0
0.702922 0.0879988 0
0.705089 0.0812085 0
0.706996 0.0736858 0
0.0904555 0.119966 0.0894484
0.0955367 0.120745 0.0907607
0.101183 0.121294 0.0926375
0.104692 0.122133 0.0937209
0.107668 0.123064 0.0938582
0.110842 0.123949 0.0940566
0.113909 0.124666 0.0934768
0.117189 0.1252 0.0933547
0.121248 0.125948 0.0936904
0.126772 0.126864 0.0938888
0.133623 0.127413 0.0927138
0.144945 0.127047 0.0890669
0.155123 0.126192 0.0872053
0.16466 0.126085 0.0843671
0.176867 0.12723 0.0824445
0.189548 0.127993 0.0806592
0.203815 0.128649 0.0789502
0.21767 0.129259 0.0771649
0.230518 0.129488 0.0753796
0.242588 0.129915 0.0736095
0.254917 0.130449 0.071397
0.268208 0.131289 0.0694591
0.281895 0.132311 0.0675517
0.296788 0.133379 0.0653086
0.311299 0.134066 0.0632486
0.325414 0.134829 0.0613413
0.33875 0.135225 0.0589151
0.353628 0.135286 0.0540322
0.36762 0.135363 0.0496681
0.380423 0.135149 0.0454566
0.393164 0.135531 0.0415351
0.407294 0.136126 0.0365911
0.420813 0.13611 0.0313115
0.436408 0.136141 0.0258488
0.451621 0.136355 0.020798
0.464698 0.136477 0.0159609
0.477821 0.137285 0.0151369
0.492409 0.137743 0.0155642
0.506844 0.138293 0.0155489
0.520562 0.138689 0.0157931
0.532357 0.138857 0.0154116
0.545144 0.139635 0.0171054
0.558038 0.139788 0.0179141
0.569879 0.139437 0.0180056
0.580301 0.138384 0.0170748
0.590326 0.137057 0.0162661
0.600061 0.136294 0.0168154
0.610529 0.134997 0.01738
0.61976 0.133135 0.0158846
0.628412 0.131273 0.013901
0.638361 0.12929 0.0131228
0.647654 0.127352 0.0131685
0.655283 0.125277 0.0101625
0.662638 0.122698 0.00515755
0.669886 0.120287 0.00241093
0.676799 0.118303 0.00227359
0.683436 0.116655 0.00184634
0.688014 0.115206 0.000640879
0.692744 0.113664 0
0.697307 0.111177 0
0.701366 0.108904 0
0.705287 0.106752 0
0.707988 0.104082 0
0.709682 0.0995346 0
0.711727 0.0922866 0
0.0910201 0.124941 0.0899214
0.0972457 0.125887 0.0909895
0.101091 0.126726 0.0921798
0.103532 0.127672 0.0921187
0.106447 0.128527 0.0919814
0.109453 0.129335 0.0922255
0.112947 0.130083 0.0923171
0.116686 0.130892 0.0924239
0.122118 0.132372 0.0927749
0.128267 0.133486 0.0935988
0.134142 0.134447 0.0944076
0.141009 0.134264 0.0931258
0.153521 0.132464 0.0903792
0.169512 0.13167 0.0869917
0.180163 0.132113 0.0844739
0.192233 0.13312 0.0820935
0.204669 0.134188 0.080705
0.218738 0.134829 0.0788128
0.232212 0.135424 0.0771038
0.243809 0.135698 0.0755016
0.256443 0.136492 0.0734112
0.269978 0.137591 0.0713359
0.282689 0.138323 0.0694743
0.295476 0.139025 0.0673991
0.310292 0.13994 0.0650034
0.325139 0.140856 0.0629282
0.33843 0.141604 0.0611887
0.352071 0.141924 0.0572976
0.366033 0.14229 0.0527504
0.378744 0.142397 0.0491646
0.390539 0.142535 0.0456703
0.403769 0.142901 0.0429541
0.41976 0.143481 0.0380865
0.434455 0.143816 0.0325475
0.449348 0.144137 0.0282139
0.464225 0.144671 0.0237278
0.476631 0.144808 0.0202945
0.491249 0.145586 0.0200961
0.50631 0.146639 0.0198215
0.522087 0.147219 0.0206149
0.533806 0.147448 0.0207675
0.545785 0.14757 0.0206607
0.560006 0.148318 0.0222019
0.573327 0.148135 0.0235294
0.58439 0.14696 0.0233463
0.595575 0.145418 0.0227817
0.604868 0.144396 0.0216983
0.615518 0.143557 0.0224918
0.625605 0.141436 0.0212863
0.634668 0.139483 0.0197147
0.64361 0.13698 0.0179751
0.653346 0.135088 0.0176852
0.661219 0.132967 0.0146181
0.66807 0.130617 0.00993362
0.674952 0.127993 0.00479133
0.681483 0.126543 0.00320439
0.687953 0.124422 0.00291447
0.692943 0.122774 0.00164797
0.697108 0.121035 0.000396735
0.701549 0.120089 0
0.705898 0.117968 0
0.709575 0.115053 0
0.712337 0.113115 0
0.714824 0.111299 0
0.716426 0.106432 0
0.0915389 0.130053 0.0915847
0.0961929 0.131334 0.091722
0.0985428 0.132662 0.0917525
0.101167 0.133883 0.0920119
0.104372 0.134966 0.0922713
0.107897 0.135775 0.0925765
0.111055 0.1364 0.0926986
0.113405 0.136873 0.0928969
0.118517 0.138415 0.0939803
0.124773 0.140108 0.0954299
0.132494 0.142046 0.096437
0.13875 0.143099 0.0978103
0.147951 0.141985 0.0951095
0.165179 0.139986 0.0920272
0.182376 0.138476 0.088426
0.193683 0.138888 0.0859236
0.206043 0.139971 0.084184
0.218494 0.140841 0.082063
0.232776 0.141344 0.0794232
0.245808 0.142016 0.0774243
0.258579 0.142962 0.0755779
0.272007 0.144091 0.0735943
0.285344 0.14522 0.0716259
0.29778 0.146044 0.0698405
0.310796 0.146578 0.0674296
0.32401 0.147356 0.0652171
0.336629 0.147845 0.0630655
0.349523 0.148531 0.061387
0.362463 0.148638 0.0573587
0.375463 0.14905 0.0536812
0.388418 0.149554 0.0501411
0.401556 0.149844 0.046891
0.416266 0.150317 0.045243
0.431907 0.151049 0.0405737
0.446097 0.151705 0.0361486
0.461219 0.152712 0.0323949
0.476402 0.153262 0.0291295
0.490059 0.153002 0.0254673
0.506371 0.153979 0.0251774
0.521096 0.155291 0.0250858
0.534752 0.156497 0.0252995
0.547204 0.157198 0.0254368
0.560876 0.157534 0.0259709
0.576272 0.158145 0.0284276
0.588556 0.158099 0.0281987
0.599878 0.157183 0.0281376
0.610742 0.156024 0.0277256
0.620142 0.154498 0.0271458
0.630457 0.153399 0.0259251
0.640589 0.151369 0.0241093
0.64892 0.149126 0.0224765
0.658244 0.146136 0.0208286
0.666651 0.144625 0.018143
0.673274 0.142458 0.0139162
0.679942 0.139162 0.00915541
0.686305 0.13608 0.0047303
0.692561 0.1337 0.00357061
0.697383 0.131228 0.00268559
0.701686 0.128771 0.00141909
0.705806 0.127214 0.000213626
0.709743 0.12578 0
0.713649 0.123293 0
0.716228 0.121447 0
0.7187 0.119234 0
0.720958 0.117205 0
0.0872663 0.136095 0.094728
0.0898146 0.13753 0.095079
0.0926528 0.138643 0.0950484
0.0955062 0.139956 0.0948501
0.0988785 0.1411 0.0945296
0.103395 0.142138 0.0939345
0.106783 0.142779 0.0939956
0.109926 0.143481 0.0941634
0.112505 0.14464 0.0950942
0.118288 0.146181 0.0963607
0.12546 0.147829 0.0978561
0.133669 0.14963 0.0994583
0.142565 0.151217 0.0994125
0.154635 0.149691 0.09691
0.174365 0.148653 0.0943618
0.194034 0.147372 0.0907149
0.206638 0.14847 0.089189
0.219638 0.149706 0.0872358
0.231983 0.15079 0.0847791
0.244999 0.151522 0.0818494
0.260304 0.1523 0.0784161
0.274006 0.15288 0.0755627
0.287221 0.153704 0.0740063
0.299489 0.154604 0.0725719
0.312901 0.155322 0.0704814
0.325536 0.155764 0.0686961
0.337728 0.156283 0.0670024
0.349828 0.157122 0.0657206
0.362661 0.157046 0.0630961
0.374151 0.156832 0.0595254
0.38558 0.156878 0.0559243
0.398978 0.157855 0.0529488
0.413855 0.15874 0.0500038
0.429313 0.159701 0.048249
0.444511 0.160662 0.0435187
0.459113 0.161822 0.0396429
0.475044 0.163317 0.0357366
0.490578 0.164111 0.0326085
0.505241 0.164645 0.0295872
0.520821 0.16614 0.0302434
0.5355 0.16759 0.0303807
0.548394 0.168765 0.0306401
0.562234 0.169238 0.0315251
0.577249 0.169451 0.0323186
0.591348 0.170138 0.0334936
0.603281 0.169879 0.0332799
0.61442 0.169467 0.0331273
0.625299 0.167636 0.0321355
0.635157 0.166247 0.0319219
0.645502 0.165011 0.0309148
0.654597 0.163516 0.0297704
0.663096 0.160464 0.0279698
0.67155 0.158129 0.0257877
0.678752 0.15668 0.0216068
0.68513 0.154345 0.0165408
