brand-bible/brands/assets/blkgrlcotoo-luts/709to709_160T_x65_Clean_White.cube
TITLE "Generated by Resolve"
LUT_3D_SIZE 5
0.0956436 0.0923629 0.0913252
0.18381 0.0928817 0.0773632
0.42034 0.0723583 0.0130007
0.555261 0.0191196 0
0.673548 0 0
0.0425422 0.162493 0.105119
0.187304 0.181338 0.105272
0.419699 0.196597 0.0646372
0.647593 0.211368 0.0573434
0.736324 0.161593 0.00415045
0.0821393 0.366155 0.090425
0.225635 0.378058 0.105348
0.408331 0.409796 0.0749218
0.720562 0.474189 0.0715038
0.829816 0.443885 0.113054
0.359838 0.577066 0
0.428397 0.594629 0
0.561074 0.619364 1.5259e-05
0.761395 0.666331 0
0.889372 0.700587 0.217578
0.622629 0.743908 0
0.664424 0.754116 0
0.736492 0.766293 0
0.817868 0.782162 0
0.910307 0.793729 0.0227665
0.0871748 0.0856336 0.148486
0.174365 0.094377 0.13666
0.418402 0.102449 0.118318
0.638972 0.0654765 0.0976425
0.717205 3.0518e-05 0.0109102
0.0607462 0.179309 0.163516
0.226001 0.213672 0.179675
0.45301 0.202914 0.149218
0.700862 0.22504 0.160906
0.74696 0.0940566 0.0484779
0.0252689 0.412695 0.218189
0.197436 0.430274 0.211475
0.41622 0.463432 0.218448
0.727565 0.486885 0.228641
0.847929 0.444724 0.248936
0.353124 0.598581 0.0982834
0.42623 0.611582 0.0607767
0.530083 0.630961 0.119127
0.752636 0.68159 0.231708
0.89305 0.718151 0.363943
0.611627 0.743236 0.000244144
0.662104 0.755596 0
0.733166 0.770306 3.0518e-05
0.810178 0.783475 0.0113527
0.911513 0.813733 0.30425
0.0434424 0.0695354 0.337499
0.194919 0.112657 0.344945
0.387213 0.13434 0.369085
0.652949 0.125338 0.342977
0.757244 0.0685588 0.216419
6.10361e-05 0.203845 0.389899
0.204349 0.207813 0.400626
0.402823 0.23508 0.408255
0.71667 0.252659 0.388006
0.805554 0.250309 0.3028
3.0518e-05 0.432792 0.459998
0.0985885 0.457527 0.464988
0.467613 0.509819 0.493278
0.736782 0.475898 0.448508
0.855833 0.405005 0.377783
0.23653 0.640558 0.364721
0.316228 0.656336 0.368353
0.52105 0.706859 0.495995
0.766583 0.732174 0.517571
0.887984 0.721019 0.485023
0.596139 0.762463 0.264408
0.642252 0.772915 0.262242
0.724865 0.791516 0.272267
0.797589 0.818998 0.383276
0.91603 0.852964 0.550408
0 0.148089 0.494148
0.183047 0.157855 0.50219
0.424659 0.235004 0.531899
0.665522 0.232273 0.539055
0.789166 0.217258 0.443229
0.000518807 0.274907 0.543587
0.128908 0.283177 0.537591
0.43331 0.318853 0.558679
0.652491 0.321035 0.573754
0.81738 0.293034 0.47744
7.62951e-05 0.452567 0.593057
0.0630655 0.449195 0.588602
0.472862 0.491218 0.647272
0.706691 0.516991 0.636469
0.870604 0.487465 0.603616
0 0.649058 0.65124
0.144121 0.677684 0.655146
0.530495 0.733669 0.682979
0.772442 0.756359 0.692378
0.890654 0.721965 0.651606
0.529076 0.797253 0.49929
0.579599 0.811017 0.509392
0.666743 0.838956 0.578454
0.795468 0.871687 0.697154
0.922469 0.874632 0.693767
0 0.286671 0.621012
0.0965438 0.304433 0.615167
0.423163 0.344808 0.63801
0.67631 0.367864 0.673961
0.806683 0.303761 0.601801
6.10361e-05 0.380209 0.65005
0.0513771 0.382727 0.643885
0.399252 0.396323 0.665293
0.680674 0.41857 0.687297
0.817746 0.3626 0.642359
3.0518e-05 0.522133 0.696727
0.00329595 0.520043 0.692027
0.41088 0.531746 0.726589
0.709178 0.553628 0.733684
0.846006 0.586419 0.752956
0.000289921 0.658412 0.746197
3.0518e-05 0.67837 0.752056
0.509224 0.726329 0.78497
0.762142 0.748501 0.801175
0.879362 0.741543 0.786786
0.492409 0.837537 0.763943
0.558755 0.852354 0.787106
0.669017 0.878401 0.819791
0.766796 0.902358 0.834882
0.941131 0.921447 0.834882
