brand-bible/brands/assets/blkgrlcotoo-luts/709to709_160T_x65_Clean_White.cube
TITLE "Generated by Resolve"
LUT_3D_SIZE 9
0.0956436 0.0923629 0.0913252
0.111131 0.0939193 0.0884413
0.18381 0.0928817 0.0773632
0.298451 0.0923934 0.0571603
0.42034 0.0723583 0.0130007
0.492088 0.0525978 6.10361e-05
0.555261 0.0191196 0
0.626444 0.000289921 0
0.673548 0 0
0.0926223 0.113436 0.0912947
0.119371 0.118486 0.0938125
0.201373 0.117388 0.0758068
0.313191 0.122911 0.0603952
0.425696 0.120714 0.0204776
0.528939 0.121965 0.00756847
0.608164 0.113008 0.00479133
0.673075 0.0963607 0.000885023
0.702907 0.0580148 0
0.0425422 0.162493 0.105119
0.090013 0.171618 0.103838
0.187304 0.181338 0.105272
0.318563 0.189868 0.0794842
0.419699 0.196597 0.0646372
0.533974 0.204486 0.0467689
0.647593 0.211368 0.0573434
0.712261 0.195163 0.0431373
0.736324 0.161593 0.00415045
0.00015259 0.254749 0.125109
0.0353246 0.263691 0.117113
0.17293 0.270817 0.1122
0.286793 0.287617 0.10837
0.437278 0.311238 0.088777
0.575341 0.334524 0.0764935
0.680659 0.338033 0.0870832
0.751324 0.320333 0.0953231
0.777295 0.295048 0.0915389
0.0821393 0.366155 0.090425
0.144686 0.373053 0.0996872
0.225635 0.378058 0.105348
0.303014 0.388785 0.0962539
0.408331 0.409796 0.0749218
0.599802 0.444938 0.0653849
0.720562 0.474189 0.0715038
0.788983 0.472892 0.0942397
0.829816 0.443885 0.113054
0.248875 0.480537 0.023743
0.281117 0.486152 0.0224308
0.318837 0.494224 0.0119173
0.366079 0.499504 0.0190585
0.451514 0.516609 0.0278477
0.606455 0.553414 0
0.746105 0.581582 0.0171817
0.825971 0.605768 0.0909285
0.868299 0.613504 0.151217
0.359838 0.577066 0
0.386297 0.583597 0
0.428397 0.594629 0
0.484031 0.605829 0.000106813
0.561074 0.619364 1.5259e-05
0.648066 0.636332 7.62951e-05
0.761395 0.666331 0
0.833127 0.675837 0.0107118
0.889372 0.700587 0.217578
0.488106 0.669963 9.15541e-05
0.51104 0.675563 0
0.546105 0.684215 0
0.595712 0.693431 0
0.657496 0.701076 0
0.723537 0.714855 0
0.780682 0.726192 0
0.84863 0.740169 0
0.896239 0.746014 0.156909
0.622629 0.743908 0
0.640024 0.748196 0
0.664424 0.754116 0
0.699794 0.761532 0
0.736492 0.766293 0
0.781079 0.775692 0
0.817868 0.782162 0
0.865171 0.790875 0
0.910307 0.793729 0.0227665
0.0963149 0.0917067 0.114443
0.109041 0.0918288 0.10753
0.190555 0.0953689 0.102434
0.302419 0.0986648 0.0801709
0.426841 0.0834821 0.0521706
0.514672 0.062089 0.0335241
0.592081 0.0249943 0.0280308
0.660014 0.00480659 0.016846
0.694011 0 0
0.0889906 0.114733 0.117189
0.122026 0.123308 0.120928
0.210941 0.124666 0.106264
0.316426 0.126207 0.090013
0.434165 0.125109 0.0789502
0.549554 0.119188 0.0509499
0.645762 0.103304 0.0424964
0.69189 0.0708934 0.0009308
0.71281 0.0301518 0
0.0383307 0.175204 0.122225
0.107256 0.186343 0.122805
0.206546 0.197269 0.126986
0.323919 0.197452 0.104646
0.430442 0.205982 0.102129
0.55819 0.217258 0.0955673
0.670314 0.222309 0.0991684
0.732448 0.204608 0.0849012
0.744976 0.155932 0.0322118
0.00015259 0.271672 0.153719
0.0350958 0.280842 0.144762
0.171435 0.289403 0.142016
0.291752 0.305119 0.139971
0.44712 0.322774 0.132082
0.586572 0.345754 0.120089
0.693095 0.346914 0.126314
0.763638 0.326177 0.128771
0.787488 0.298451 0.122988
0.0708171 0.385565 0.126925
0.147616 0.39118 0.132479
0.226505 0.397757 0.138674
0.304555 0.406332 0.133791
0.412558 0.425559 0.131899
0.605432 0.451652 0.129961
0.726131 0.483162 0.136858
0.796246 0.47892 0.15581
0.838437 0.448447 0.171389
0.255573 0.497826 0.0627756
0.288258 0.502663 0.0616617
0.321218 0.507851 0.0623026
0.363119 0.512291 0.086305
0.450828 0.527855 0.090486
0.598291 0.555215 0.0438544
0.746166 0.584619 0.148989
0.829404 0.613703 0.196826
0.871427 0.622431 0.227253
0.367697 0.590524 0.00512703
0.395514 0.59646 0.00265507
0.43679 0.60589 0.000274662
0.48658 0.614725 0.000106813
0.547967 0.619928 0.000915541
0.637659 0.636408 0.00157168
0.755138 0.66479 0.000106813
0.833478 0.682353 0.204852
0.892195 0.709941 0.288396
0.489403 0.674754 0.000183108
0.512367 0.679911 0.000106813
0.549722 0.688426 0
0.599527 0.699031 0
0.653468 0.704585 6.10361e-05
0.72166 0.718105 0.000122072
0.778561 0.72845 0
0.843519 0.739788 0.03505
0.898711 0.759716 0.314031
0.617884 0.743618 0.000106813
0.638163 0.748684 0.000106813
0.662913 0.754742 0
0.69865 0.762951 0
0.735256 0.768063 1.5259e-05
0.778073 0.776608 0
0.815274 0.783139 0
0.861784 0.790997 0
0.91014 0.800336 0.161288
0.0871748 0.0856336 0.148486
0.114412 0.0975204 0.140612
0.174365 0.094377 0.13666
0.306569 0.0997482 0.131533
0.418402 0.102449 0.118318
0.537362 0.0991684 0.108614
0.638972 0.0654765 0.0976425
0.694606 0.0153658 0.0693065
0.717205 3.0518e-05 0.0109102
0.0887312 0.11516 0.152361
0.12311 0.125597 0.169955
0.20557 0.133059 0.158404
0.323537 0.13695 0.149676
0.434745 0.141909 0.13872
0.558877 0.145892 0.136721
0.672312 0.138994 0.137774
0.724529 0.0953841 0.106905
0.72874 0.00062562 0.00357061
0.0607462 0.179309 0.163516
0.106615 0.19855 0.174044
0.226001 0.213672 0.179675
0.334585 0.201816 0.156741
0.45301 0.202914 0.149218
0.586038 0.219638 0.154421
0.700862 0.22504 0.160906
0.75378 0.202243 0.145449
0.74696 0.0940566 0.0484779
3.0518e-05 0.293767 0.192782
0.0439918 0.305943 0.209903
0.18529 0.318669 0.203143
0.299275 0.339117 0.211246
0.458671 0.335714 0.189731
0.59115 0.345006 0.183688
0.710063 0.347158 0.196201
0.783536 0.328008 0.194781
0.802457 0.292775 0.176364
0.0252689 0.412695 0.218189
0.0598917 0.420798 0.215259
0.197436 0.430274 0.211475
0.289403 0.441596 0.2103
0.41622 0.463432 0.218448
0.617685 0.466163 0.22179
0.727565 0.486885 0.228641
0.807828 0.481636 0.250401
0.847929 0.444724 0.248936
0.222965 0.517113 0.172351
0.259998 0.521874 0.170214
0.305409 0.529442 0.177768
0.360388 0.540154 0.191608
0.448203 0.556268 0.198108
0.603815 0.584298 0.224918
0.752682 0.597803 0.267613
0.829587 0.620188 0.294499
0.874571 0.632334 0.32372
0.353124 0.598581 0.0982834
0.380667 0.603265 0.0820172
0.42623 0.611582 0.0607767
0.474998 0.620615 0.075639
0.530083 0.630961 0.119127
0.63093 0.654658 0.179095
0.752636 0.68159 0.231708
0.840986 0.695613 0.329335
0.89305 0.718151 0.363943
0.482124 0.675227 1.5259e-05
0.506966 0.680873 4.57771e-05
0.547829 0.690349 0
0.59971 0.701595 0
0.651926 0.710231 7.62951e-05
0.714504 0.720439 7.62951e-05
0.77142 0.731685 0.0267185
0.843442 0.751766 0.224277
0.900923 0.770428 0.392416
0.611627 0.743236 0.000244144
0.632303 0.748318 0.000213626
0.662104 0.755596 0
0.6963 0.763577 1.5259e-05
0.733166 0.770306 3.0518e-05
0.772213 0.776928 0
0.810178 0.783475 0.0113527
0.853742 0.78967 0.0190127
0.911513 0.813733 0.30425
0.0604868 0.0685435 0.250416
0.0971542 0.0781872 0.24802
0.186984 0.103395 0.247089
0.276371 0.106996 0.245579
0.378164 0.100908 0.235386
0.520729 0.108507 0.238209
0.653086 0.114473 0.222751
0.731304 0.101732 0.183932
0.730556 7.62951e-05 0.0357214
0.0456245 0.113771 0.266133
0.0988174 0.119066 0.26978
0.199329 0.138308 0.261967
0.283772 0.141756 0.266316
0.40531 0.140307 0.263096
0.566506 0.15288 0.266056
0.689219 0.174655 0.254017
0.756527 0.175662 0.218326
0.743587 1.5259e-05 0.0890364
0.0136873 0.178195 0.277348
0.0973373 0.183886 0.289219
0.218067 0.204425 0.320943
0.297963 0.206622 0.300908
0.458228 0.226307 0.315572
0.595728 0.22742 0.30605
0.715862 0.249241 0.286946
0.777295 0.246647 0.262974
0.785199 0.198138 0.204486
0.00123598 0.293889 0.319173
0.0140841 0.308141 0.327031
0.177798 0.334371 0.346242
0.333455 0.355276 0.358053
0.481834 0.353597 0.349767
0.605417 0.336751 0.317006
0.728679 0.318441 0.294881
0.795193 0.310597 0.281086
0.809842 0.276905 0.241138
0.0188449 0.430411 0.358236
0.057847 0.44448 0.365423
0.155932 0.465064 0.369482
0.326818 0.474815 0.374182
0.451286 0.494972 0.380636
0.615869 0.474372 0.343252
0.733043 0.466072 0.325048
0.814313 0.454856 0.330968
0.854093 0.428397 0.320211
0.0720073 0.539666 0.292515
0.103746 0.54377 0.294423
0.191058 0.559213 0.330816
0.317922 0.578622 0.348287
0.443122 0.601892 0.384054
0.618845 0.622339 0.390906
0.758694 0.609842 0.362448
0.823941 0.617975 0.37229
0.87332 0.625895 0.395895
0.32372 0.61796 0.229343
0.360479 0.626856 0.24741
0.398795 0.63537 0.246387
0.458656 0.64741 0.254597
0.533486 0.66363 0.279026
0.635691 0.687175 0.321584
0.757519 0.712535 0.391363
0.84448 0.707301 0.407858
0.889433 0.719524 0.425925
0.47866 0.68455 0.141497
0.500206 0.687953 0.120928
0.536858 0.693843 0.0825513
0.59707 0.705074 0.0349889
0.642939 0.715434 0.0771344
0.698878 0.732845 0.19939
0.763455 0.753796 0.282445
0.845609 0.778378 0.406516
0.902754 0.779873 0.454276
0.604074 0.742367 0.00260929
0.621988 0.747097 0.000640879
0.652491 0.754757 0.000671397
0.693568 0.764401 0
0.727214 0.771969 0.0165866
0.760708 0.778973 0.0737926
0.802563 0.789059 0.142061
0.851225 0.8038 0.23978
0.913008 0.832975 0.427222
0.0434424 0.0695354 0.337499
0.0895094 0.0650492 0.34699
0.194919 0.112657 0.344945
0.294301 0.130266 0.357229
0.387213 0.13434 0.369085
0.500648 0.131685 0.352529
0.652949 0.125338 0.342977
0.741756 0.150317 0.309819
0.757244 0.0685588 0.216419
0.00077821 0.11519 0.363149
0.087541 0.12932 0.365377
0.201404 0.150866 0.361151
0.298543 0.16791 0.370077
0.392309 0.173816 0.385
0.526284 0.166735 0.373754
0.688411 0.177295 0.360357
0.765652 0.201312 0.324392
0.780041 0.165652 0.25391
6.10361e-05 0.203845 0.389899
0.0525216 0.206043 0.390219
0.204349 0.207813 0.400626
0.310597 0.236118 0.398108
0.402823 0.23508 0.408255
0.567102 0.238163 0.413947
0.71667 0.252659 0.388006
0.788418 0.264897 0.353017
0.805554 0.250309 0.3028
0.00383001 0.299809 0.410025
0.0306554 0.306996 0.417029
0.214038 0.329763 0.437995
0.324742 0.341604 0.464988
0.428458 0.348013 0.445899
0.610605 0.366369 0.454505
0.729229 0.340017 0.431968
0.803677 0.344549 0.398199
0.830854 0.326223 0.353948
3.0518e-05 0.432792 0.459998
0.0132296 0.439994 0.458671
0.0985885 0.457527 0.464988
0.286717 0.487648 0.482689
0.467613 0.509819 0.493278
0.64152 0.504097 0.481392
0.736782 0.475898 0.448508
0.826108 0.434287 0.409934
0.855833 0.405005 0.377783
0.0567483 0.557702 0.461097
0.098146 0.566155 0.469215
0.195529 0.581399 0.482429
0.316289 0.606165 0.495064
0.482826 0.621485 0.501411
0.633158 0.641108 0.505028
0.748104 0.620188 0.467658
0.825177 0.610407 0.454963
0.880064 0.601892 0.452598
0.23653 0.640558 0.364721
0.276463 0.648737 0.366217
0.316228 0.656336 0.368353
0.386206 0.678416 0.4206
0.52105 0.706859 0.495995
0.646784 0.728359 0.531624
0.766583 0.732174 0.517571
0.84242 0.716579 0.489433
0.887984 0.721019 0.485023
0.4271 0.697093 0.254688
0.4598 0.705806 0.273854
0.508629 0.72108 0.321019
0.566659 0.737179 0.356786
0.637293 0.754742 0.389639
0.697765 0.772931 0.419409
0.767452 0.796384 0.485344
0.849683 0.798032 0.527321
0.904845 0.788342 0.514931
0.596139 0.762463 0.264408
0.615686 0.767788 0.271992
0.642252 0.772915 0.262242
0.685054 0.781384 0.25066
0.724865 0.791516 0.272267
0.758373 0.803525 0.315435
0.797589 0.818998 0.383276
0.846403 0.834134 0.43473
0.91603 0.852964 0.550408
0.0244755 0.104845 0.418296
0.0874647 0.0975814 0.428138
0.198398 0.134646 0.428199
0.3037 0.161746 0.440909
0.406683 0.177829 0.457618
0.527687 0.185702 0.471366
0.652796 0.161898 0.438987
0.74696 0.175204 0.406104
0.780194 0.16878 0.347921
4.57771e-05 0.139528 0.443473
0.049958 0.156054 0.446311
0.186709 0.163806 0.445548
0.306569 0.203067 0.453117
0.411093 0.220539 0.46891
0.531868 0.228077 0.486381
0.666453 0.20087 0.454627
0.76289 0.214984 0.41857
0.794949 0.214908 0.36318
0.000320439 0.233478 0.473121
0.00920119 0.238102 0.472099
0.182467 0.240406 0.473335
0.310689 0.262089 0.481941
0.414328 0.274784 0.484504
0.535286 0.277516 0.500282
0.681102 0.254612 0.479576
0.782696 0.272206 0.440314
0.813245 0.262699 0.380682
0 0.331212 0.501152
0.0311284 0.330205 0.498253
0.147189 0.329397 0.502373
0.321416 0.33991 0.534707
0.436759 0.364279 0.529854
0.553796 0.364248 0.529381
0.712749 0.376822 0.543343
0.807584 0.355062 0.48806
0.842557 0.348959 0.441154
0 0.436164 0.534661
0 0.44181 0.538277
0.0899062 0.455497 0.544121
0.313054 0.48127 0.565194
0.462623 0.491112 0.583871
0.590387 0.495903 0.565713
0.739376 0.50518 0.569162
0.815686 0.486915 0.554849
0.8663 0.45893 0.514229
0 0.552529 0.5682
0.0012665 0.560357 0.56582
0.0458991 0.576959 0.568734
0.279393 0.605844 0.58291
0.461891 0.640543 0.605478
0.649805 0.657923 0.610788
0.768078 0.642298 0.585565
0.83267 0.619959 0.561624
0.885893 0.586664 0.529671
0.159869 0.657038 0.538735
0.216083 0.666453 0.550881
0.292226 0.6804 0.570382
0.392554 0.701503 0.595956
0.504601 0.726101 0.608469
0.676463 0.73785 0.613352
0.773816 0.742107 0.604547
0.833616 0.724437 0.578637
0.88394 0.713146 0.56759
0.365759 0.722515 0.446204
0.392889 0.729686 0.449073
0.435386 0.742046 0.454566
0.486259 0.754864 0.462821
0.617548 0.788678 0.618036
0.704906 0.801862 0.635294
0.770031 0.812467 0.641413
0.850919 0.805402 0.625254
0.899321 0.793088 0.591409
0.552728 0.775204 0.360311
0.569696 0.778271 0.357961
0.607858 0.791379 0.39408
0.658747 0.812222 0.467903
0.706249 0.82414 0.480034
0.752819 0.835874 0.503624
0.795132 0.84889 0.527367
0.847745 0.86511 0.588296
0.919509 0.863996 0.627131
0 0.148089 0.494148
0.0619516 0.148638 0.49929
0.183047 0.157855 0.50219
0.300969 0.208606 0.510689
0.424659 0.235004 0.531899
0.547951 0.253773 0.553109
0.665522 0.232273 0.539055
0.748455 0.213825 0.494438
0.789166 0.217258 0.443229
0 0.189456 0.516945
0.019913 0.203281 0.516365
0.173953 0.212222 0.517037
0.294499 0.244129 0.523476
0.426612 0.271214 0.54168
0.550195 0.285954 0.560265
0.661219 0.272984 0.55491
0.755261 0.245426 0.508263
0.799603 0.245426 0.453071
0.000518807 0.274907 0.543587
0.0164797 0.278981 0.542107
0.128908 0.283177 0.537591
0.275334 0.289311 0.547723
0.43331 0.318853 0.558679
0.548241 0.324788 0.567651
0.652491 0.321035 0.573754
0.765469 0.289998 0.529305
0.81738 0.293034 0.47744
0.00215152 0.370047 0.574594
0.0149538 0.36788 0.569696
0.0921645 0.364096 0.567544
0.271794 0.361959 0.578408
0.455024 0.387793 0.596368
0.565789 0.388434 0.592859
0.677028 0.388174 0.602365
0.797559 0.370489 0.581338
0.844022 0.367315 0.523095
7.62951e-05 0.452567 0.593057
3.0518e-05 0.445975 0.586404
0.0630655 0.449195 0.588602
0.264652 0.470542 0.615778
0.472862 0.491218 0.647272
0.595865 0.499001 0.635248
0.706691 0.516991 0.636469
0.813581 0.530739 0.648997
0.870604 0.487465 0.603616
1.5259e-05 0.557214 0.633768
1.5259e-05 0.563073 0.635843
0 0.577005 0.636393
0.227512 0.602609 0.64564
0.472221 0.63212 0.667094
0.647089 0.650172 0.680797
0.734417 0.646998 0.66331
0.828153 0.648493 0.666575
0.87245 0.641215 0.660883
0 0.649058 0.65124
0.0274815 0.659495 0.651637
0.144121 0.677684 0.655146
0.376394 0.706401 0.667964
0.530495 0.733669 0.682979
0.668574 0.753506 0.693156
0.772442 0.756359 0.692378
0.84416 0.737408 0.667277
0.890654 0.721965 0.651606
0.338216 0.742412 0.610437
0.37525 0.750576 0.622751
0.429694 0.762737 0.644419
0.503014 0.780026 0.67216
0.588647 0.799771 0.688991
0.690166 0.811505 0.693431
0.782025 0.819944 0.699428
0.854536 0.812085 0.680613
0.897627 0.798901 0.66154
0.529076 0.797253 0.49929
0.549432 0.80264 0.503197
0.579599 0.811017 0.509392
0.613611 0.819074 0.51313
0.666743 0.838956 0.578454
0.741711 0.86096 0.664912
0.795468 0.871687 0.697154
0.845808 0.881651 0.713756
0.922469 0.874632 0.693767
0.00418097 0.213703 0.560082
0.0133822 0.218647 0.561639
0.157656 0.230625 0.562097
0.28275 0.256306 0.568246
0.429633 0.292668 0.587015
0.567773 0.311727 0.60737
0.665766 0.312383 0.622217
0.754192 0.250248 0.570626
0.798306 0.263783 0.526925
0 0.254612 0.578592
0.0170748 0.266712 0.576562
0.126894 0.275853 0.573816
0.268299 0.282933 0.576699
0.42707 0.319799 0.596368
0.568246 0.334691 0.613153
0.661646 0.338445 0.629862
0.756207 0.286641 0.586786
0.806638 0.291066 0.541741
0 0.324697 0.599664
0.0185245 0.327901 0.597269
0.0895552 0.331731 0.592462
0.254505 0.332967 0.596292
0.431113 0.358816 0.612802
0.570275 0.368444 0.624155
0.663737 0.371084 0.637598
0.755245 0.337453 0.611673
0.81912 0.330282 0.563821
0 0.408743 0.625132
0.00590524 0.406821 0.622049
0.0556497 0.401617 0.618189
0.232715 0.39852 0.623972
0.424689 0.408331 0.647379
0.590265 0.427222 0.648951
0.675059 0.421805 0.656077
0.762661 0.417716 0.658549
0.847364 0.402594 0.608743
1.5259e-05 0.485084 0.645548
0 0.482414 0.642283
0.0206455 0.480461 0.63917
0.210788 0.485191 0.649729
0.452796 0.506798 0.691341
0.616205 0.529885 0.690852
0.691264 0.514916 0.678004
0.793713 0.553979 0.698909
0.87219 0.531106 0.684993
7.62951e-05 0.564752 0.669932
0.000122072 0.57055 0.672511
3.0518e-05 0.582101 0.677592
0.175967 0.6056 0.692103
0.470481 0.637995 0.719463
0.648859 0.649287 0.737362
0.726452 0.648539 0.715496
0.808591 0.659419 0.715892
0.874983 0.663935 0.721614
0.00015259 0.645945 0.706172
0.000549325 0.653269 0.707622
0.000198367 0.668956 0.70605
0.243717 0.695766 0.716396
0.506813 0.729686 0.736294
0.671626 0.748806 0.743633
0.769406 0.76054 0.749676
0.831373 0.747402 0.736095
0.891081 0.742535 0.737758
0.12163 0.740856 0.716213
0.246983 0.751125 0.719951
0.365377 0.765942 0.72668
0.503822 0.787457 0.736019
0.608011 0.807141 0.746426
0.691371 0.823835 0.75552
0.778927 0.831754 0.759411
0.850187 0.827726 0.75108
0.903944 0.809216 0.724681
0.488182 0.810132 0.60087
0.512871 0.816495 0.61178
0.556695 0.827268 0.629313
0.609537 0.841962 0.65185
0.661158 0.856428 0.66891
0.719142 0.870604 0.70071
0.800641 0.885664 0.765621
0.850935 0.893523 0.770718
0.928923 0.89102 0.749172
0 0.286671 0.621012
0.0158389 0.296132 0.619287
0.0965438 0.304433 0.615167
0.258946 0.308309 0.618357
0.423163 0.344808 0.63801
0.588205 0.360479 0.659922
0.67631 0.367864 0.673961
0.759701 0.343664 0.659693
0.806683 0.303761 0.601801
0 0.323278 0.634119
0.0164034 0.330236 0.630976
0.0854047 0.336996 0.626642
0.247944 0.337972 0.627619
0.418189 0.366186 0.647761
0.590158 0.381125 0.667308
0.678203 0.38761 0.679454
0.755291 0.377142 0.677348
0.811566 0.327977 0.617624
6.10361e-05 0.380209 0.65005
1.5259e-05 0.380789 0.647913
0.0513771 0.382727 0.643885
0.226764 0.38291 0.644266
0.399252 0.396323 0.665293
0.597543 0.414862 0.680125
0.680674 0.41857 0.687297
0.748455 0.419135 0.697429
0.817746 0.3626 0.642359
0 0.453269 0.673655
0 0.45095 0.671427
0.0303349 0.447318 0.668208
0.166217 0.443168 0.670253
0.385977 0.450614 0.690867
0.618296 0.471336 0.703761
0.692164 0.468772 0.705745
0.757671 0.467063 0.716381
0.833295 0.438499 0.695476
3.0518e-05 0.522133 0.696727
1.5259e-05 0.520485 0.694743
0.00329595 0.520043 0.692027
0.134508 0.520333 0.694667
0.41088 0.531746 0.726589
0.638666 0.562417 0.741909
0.709178 0.553628 0.733684
0.769451 0.559533 0.73904
0.846006 0.586419 0.752956
6.10361e-05 0.579141 0.711376
9.15541e-05 0.577996 0.7075
3.0518e-05 0.586511 0.711101
0.182971 0.611185 0.728679
0.460014 0.639841 0.761044
0.64947 0.652064 0.78471
0.731365 0.654658 0.767926
0.783612 0.651911 0.759258
0.862242 0.677119 0.772732
0.000289921 0.658412 0.746197
0.000350958 0.665705 0.748196
3.0518e-05 0.67837 0.752056
0.299092 0.701854 0.765209
0.509224 0.726329 0.78497
0.679103 0.738277 0.79942
0.762142 0.748501 0.801175
0.809125 0.738033 0.78616
0.879362 0.741543 0.786786
0 0.726848 0.771969
0.00894179 0.73608 0.771664
0.152651 0.748531 0.774212
0.360922 0.770596 0.786145
0.542016 0.795987 0.801434
0.699336 0.820447 0.813153
0.775616 0.823529 0.813931
0.840864 0.831571 0.818524
0.903243 0.820859 0.811429
0.492409 0.837537 0.763943
0.521904 0.843641 0.773526
0.558755 0.852354 0.787106
0.613779 0.864958 0.805035
0.669017 0.878401 0.819791
0.719402 0.890654 0.82858
0.766796 0.902358 0.834882
0.828244 0.913695 0.840681
0.941131 0.921447 0.834882
