brand-bible/brands/assets/blkgrlcotoo-luts/709to709_500T_x65_Clean_White.cube
TITLE "Generated by Resolve"
LUT_3D_SIZE 9
0.0370947 0.0487526 0.0576486
0.0909438 0.0530861 0.0509194
0.200763 0.0603342 0.0357824
0.360204 0.0508583 6.10361e-05
0.473533 0.0220188 0
0.546136 6.10361e-05 0
0.615915 1.5259e-05 0
0.65771 0 0
0.68307 0 0
0.00233463 0.0948501 0.0688487
0.104372 0.108095 0.0676585
0.193423 0.110369 0.0571908
0.303563 0.115419 0.0335241
0.418448 0.113863 0.000213626
0.509407 0.115679 0
0.5944 0.105623 0
0.654337 0.0766918 0
0.688975 0.046067 0
0.00303655 0.172839 0.0851148
0.0800336 0.179187 0.0817121
0.216846 0.20145 0.0695201
0.336492 0.188663 0.0391852
0.428885 0.198459 0.00189212
0.513893 0.199084 0.00180056
0.596429 0.189593 0
0.662058 0.168078 0.000198367
0.706371 0.147311 0
6.10361e-05 0.269932 0.0897383
0.04065 0.275303 0.0873274
0.176028 0.295079 0.0832074
0.358816 0.327428 0.0320134
0.488304 0.301854 0.0252232
0.563622 0.310597 0.0148928
0.638651 0.314366 0.00546273
0.69572 0.299351 0.00115969
0.747082 0.269139 0.00454719
0.0136416 0.359808 0.0678264
0.0748608 0.366873 0.07364
0.210559 0.383078 0.0693217
0.32459 0.415915 0.0569924
0.475853 0.447883 0.0280613
0.624155 0.400992 0.0505379
0.692592 0.406485 0.0311589
0.744884 0.413062 0.0233921
0.788968 0.405051 0.0120699
0.112627 0.446418 0.0182345
0.186145 0.455207 0.0164797
0.27129 0.470207 0.0255894
0.34963 0.496223 0.014023
0.442817 0.526284 0.0172122
0.629252 0.560494 0
0.7467 0.508721 0.066331
0.793881 0.514366 0.0397803
0.838865 0.524788 0.0273747
0.27866 0.540825 0
0.312245 0.550347 0
0.353735 0.562203 0
0.407965 0.577844 0
0.493919 0.604852 0.000106813
0.61529 0.638849 4.57771e-05
0.767163 0.665003 0.000320439
0.837568 0.625284 0.134463
0.880201 0.623972 0.144854
0.398428 0.637675 0
0.42005 0.643961 0
0.451881 0.653117 0
0.504112 0.667308 0
0.583322 0.688609 0
0.67776 0.716823 0
0.757046 0.741024 0
0.862058 0.757763 0
0.914748 0.721202 0.252354
0.534508 0.72282 0
0.554025 0.727947 0
0.585153 0.735729 0
0.631571 0.747814 0
0.687312 0.762676 0
0.748058 0.780301 0
0.802274 0.796918 0
0.864805 0.813031 0
0.936187 0.809888 0.10045
0.0286564 0.0434119 0.117647
0.0905623 0.0513313 0.112749
0.203983 0.0610056 0.0925765
0.339391 0.0521096 0.0651865
0.469093 0.00202945 0.0271153
0.545541 0 0.0235142
0.618357 0 0.0234226
0.662669 0 0.0223545
0.693553 1.5259e-05 0.00288396
0 0.101823 0.130068
0.0979629 0.118547 0.139406
0.20264 0.112703 0.11136
0.298833 0.109987 0.0891432
0.41529 0.0955215 0.0602884
0.508934 0.0828107 0.0317082
0.595804 0.0482795 0.0193942
0.659846 0.0197299 0.0129854
0.695109 0.0121004 0.00700389
4.57771e-05 0.189319 0.141558
0.0636759 0.193729 0.134676
0.205875 0.209873 0.129763
0.315679 0.194446 0.104021
0.41735 0.182574 0.0893873
0.497688 0.176577 0.071931
0.589609 0.166522 0.0524453
0.665934 0.143862 0.0366064
0.708873 0.117784 0.00885023
0 0.283909 0.133455
0.00831617 0.291341 0.135851
0.169543 0.306584 0.150668
0.343648 0.335485 0.124407
0.464759 0.308232 0.108141
0.543908 0.308843 0.0855421
0.627573 0.302327 0.0781567
0.689403 0.289296 0.0737011
0.745434 0.258381 0.055314
0.00738537 0.372793 0.121263
0.0456703 0.381659 0.126543
0.188998 0.394247 0.135836
0.316472 0.427146 0.143145
0.459648 0.454292 0.117281
0.610208 0.409842 0.115709
0.684001 0.407141 0.0920729
0.738369 0.41323 0.0831922
0.788113 0.403845 0.100404
0.0863508 0.455604 0.0691844
0.163928 0.465812 0.0760967
0.266758 0.480552 0.0901656
0.343252 0.504402 0.108156
0.435233 0.533654 0.107439
0.618585 0.568017 0.0967575
0.739788 0.516564 0.137774
0.789075 0.519371 0.123308
0.835706 0.531319 0.124926
0.274098 0.546426 0.00732433
0.310964 0.555489 0.00735485
0.351095 0.566522 0.0031281
0.402823 0.579385 0.00895705
0.486244 0.604349 0.0251926
0.609033 0.638514 0.030518
0.756344 0.666896 0.0732891
0.834974 0.631327 0.206012
0.878233 0.630243 0.209308
0.400427 0.643824 4.57771e-05
0.422965 0.650309 6.10361e-05
0.45687 0.659419 0.000106813
0.506294 0.671 1.5259e-05
0.580682 0.689647 3.0518e-05
0.673045 0.71606 0.000122072
0.750347 0.738582 7.62951e-05
0.852674 0.756115 0.00581369
0.912871 0.723995 0.292912
0.538125 0.72607 0
0.558862 0.731533 0
0.591714 0.740261 0
0.638788 0.752377 0
0.689143 0.764599 0
0.746334 0.780377 0
0.798718 0.795605 0
0.859663 0.810834 1.5259e-05
0.933623 0.814878 0.229236
0.0034638 0.0478981 0.17911
0.0865949 0.0538796 0.189212
0.18764 0.0573739 0.188907
0.327581 0.0566415 0.161379
0.461036 0.00941482 0.142412
0.543984 0 0.12636
0.624186 1.5259e-05 0.10605
0.67277 3.0518e-05 0.0911574
0.700298 7.62951e-05 0.0697642
0 0.0969558 0.210269
0.0784009 0.100816 0.222004
0.186923 0.117266 0.206882
0.317327 0.120134 0.18088
0.419272 0.10695 0.163668
0.497368 0.0971542 0.140276
0.58352 0.0578164 0.120378
0.653315 0.0238499 0.104387
0.693065 0.00794995 0.0917372
0.000335698 0.194934 0.220935
0.000106813 0.210773 0.225803
0.198383 0.229038 0.235523
0.332418 0.196979 0.185428
0.422446 0.183032 0.162905
0.50959 0.173205 0.146014
0.592187 0.154376 0.12575
0.667384 0.127169 0.106508
0.711727 0.0957504 0.0818341
0 0.307515 0.230274
0.00276188 0.314015 0.229587
0.165743 0.327749 0.223148
0.342824 0.353033 0.216297
0.451179 0.325978 0.191348
0.542397 0.314626 0.166598
0.627298 0.291356 0.151049
0.686488 0.276127 0.145586
0.745998 0.246891 0.131884
0 0.39585 0.211185
0.0117342 0.406912 0.205341
0.154177 0.423529 0.227176
0.316899 0.446632 0.247044
0.4486 0.471641 0.226734
0.597589 0.433051 0.200214
0.677012 0.419379 0.174334
0.733669 0.40444 0.175097
0.785351 0.396796 0.187579
0.0506294 0.476905 0.165469
0.125612 0.487556 0.168856
0.254124 0.506462 0.186755
0.328557 0.526177 0.207935
0.430335 0.556008 0.2439
0.611719 0.585931 0.231434
0.731106 0.538247 0.219089
0.78117 0.530739 0.211276
0.8318 0.539788 0.218357
0.265461 0.55848 0.0812848
0.302556 0.567056 0.0868696
0.346349 0.579416 0.0988327
0.399344 0.594842 0.127062
0.482124 0.619638 0.167269
0.606226 0.653376 0.193072
0.747738 0.683528 0.228153
0.830014 0.644694 0.276692
0.874159 0.640604 0.276768
0.402518 0.649775 0.000167849
0.424125 0.655909 0.000244144
0.46006 0.664973 0.000274662
0.508827 0.675624 9.15541e-05
0.576089 0.69041 0.00488289
0.660197 0.713115 0.0100862
0.738369 0.736812 0.0481117
0.839872 0.757427 0.105089
0.909529 0.731807 0.342596
0.547326 0.732296 0
0.567605 0.737392 0
0.598306 0.744884 0
0.64419 0.755917 0
0.69044 0.76669 0
0.740734 0.778744 0
0.789212 0.791897 0
0.848936 0.806577 0.00205997
0.931334 0.826688 0.313848
0.0119936 0.0479744 0.262669
0.0885328 0.0554513 0.290974
0.167117 0.0566262 0.286793
0.299016 0.049485 0.291295
0.441581 0.000640879 0.266285
0.533227 0.00155642 0.24155
0.622431 0.00108339 0.205386
0.677897 0 0.163912
0.70959 6.10361e-05 0.129259
0 0.106783 0.311116
0.072343 0.109712 0.348928
0.171664 0.10605 0.318044
0.300603 0.102419 0.3066
0.446159 0.0903487 0.278721
0.518898 0.0863355 0.25774
0.606378 0.0548714 0.216571
0.672862 0.03093 0.177783
0.708995 0.0158236 0.153765
9.15541e-05 0.187762 0.32958
0.0117037 0.187167 0.339727
0.156603 0.196841 0.351324
0.307866 0.217487 0.33434
0.450492 0.206546 0.313436
0.522438 0.19382 0.288304
0.594568 0.179904 0.263462
0.66598 0.142596 0.217441
0.71075 0.123079 0.189029
0 0.316716 0.352544
0 0.329885 0.357946
0.0314794 0.351629 0.35819
0.337163 0.378744 0.376364
0.465003 0.34287 0.320912
0.55613 0.315312 0.291859
0.634775 0.2869 0.26183
0.696971 0.26717 0.240558
0.750546 0.231815 0.208453
0 0.423255 0.363668
0 0.439323 0.367071
0.0742046 0.450736 0.360922
0.316487 0.472175 0.361563
0.462638 0.492103 0.361929
0.5888 0.453651 0.326802
0.6766 0.421622 0.292714
0.736721 0.396551 0.274388
0.787717 0.379568 0.267018
1.5259e-05 0.50338 0.290394
0.0365606 0.51986 0.325872
0.179019 0.53904 0.331243
0.318868 0.561715 0.364691
0.43299 0.580941 0.381552
0.612696 0.608026 0.365164
0.723491 0.564813 0.333135
0.779522 0.552468 0.304448
0.832242 0.538491 0.303746
0.188067 0.580789 0.211383
0.258289 0.59173 0.213245
0.329366 0.604807 0.216495
0.39353 0.623987 0.244022
0.474922 0.646464 0.291264
0.605814 0.682979 0.367102
0.740261 0.706218 0.371862
0.824323 0.666957 0.360418
0.871748 0.657984 0.346731
0.390372 0.653422 0.030396
0.419638 0.661219 0.0264897
0.457496 0.67042 0.0348669
0.511086 0.684581 0.0812695
0.580591 0.704692 0.154864
0.660441 0.731685 0.235035
0.735836 0.755077 0.267933
0.835325 0.778866 0.313954
0.904845 0.747768 0.399695
0.556176 0.737499 0
0.575265 0.742382 0
0.605325 0.749554 6.10361e-05
0.648966 0.759289 0.000198367
0.68893 0.767651 0
0.73022 0.776211 0
0.775876 0.789242 0.0855879
0.838529 0.808408 0.151324
0.928161 0.84126 0.398245
0.0213016 0.0711681 0.340108
0.0817426 0.072282 0.374975
0.1673 0.0767681 0.366461
0.270466 0.0653849 0.370169
0.401907 0.0141451 0.36965
0.520256 0 0.342916
0.615106 0 0.30222
0.683528 3.0518e-05 0.264134
0.717159 6.10361e-05 0.220905
0.000244144 0.11931 0.381613
0.0418555 0.127718 0.417136
0.184192 0.129076 0.425101
0.281834 0.114885 0.397696
0.402884 0.0852369 0.382574
0.524025 0.0255436 0.35816
0.612207 0.0486305 0.316594
0.686107 0.0419471 0.281025
0.721508 0.0256199 0.238468
4.57771e-05 0.18851 0.419715
3.0518e-05 0.18967 0.437293
0.147662 0.190646 0.450004
0.285237 0.196078 0.426444
0.41622 0.209598 0.425071
0.559853 0.202655 0.406744
0.624063 0.185885 0.371862
0.689693 0.147082 0.330236
0.733028 0.132891 0.28777
0 0.304982 0.438972
0 0.313863 0.450446
0.0609751 0.332082 0.464363
0.296391 0.347311 0.479438
0.42826 0.365377 0.462577
0.585199 0.344411 0.439872
0.65449 0.316976 0.405173
0.701579 0.298711 0.380453
0.753948 0.27303 0.351339
4.57771e-05 0.431052 0.465064
0 0.444099 0.469612
0.0438087 0.466667 0.47396
0.238087 0.495354 0.479377
0.459464 0.513726 0.496483
0.607019 0.470893 0.441581
0.692439 0.424933 0.406592
0.742473 0.399634 0.384421
0.791943 0.38677 0.372137
1.5259e-05 0.535225 0.465263
0 0.549386 0.471824
0.0436713 0.5664 0.473869
0.251362 0.583978 0.475761
0.440803 0.60708 0.477546
0.629358 0.63006 0.474098
0.721401 0.586969 0.438346
0.775143 0.562203 0.411109
0.831189 0.537331 0.397253
0.0572671 0.599542 0.31635
0.0964523 0.610407 0.332769
0.229526 0.633326 0.383017
0.352514 0.65536 0.401938
0.476982 0.682979 0.45565
0.611032 0.707973 0.495933
0.739666 0.727047 0.477836
0.815549 0.691554 0.455314
0.869429 0.675242 0.425177
0.366918 0.67689 0.234272
0.392981 0.682216 0.225101
0.439887 0.692134 0.223911
0.510079 0.708339 0.234668
0.58674 0.731685 0.296208
0.656367 0.754635 0.361624
0.730983 0.781826 0.429053
0.825925 0.804807 0.476402
0.90071 0.766155 0.467109
0.544579 0.73724 7.62951e-05
0.567956 0.743023 0.000183108
0.607111 0.752148 0.00030518
0.646647 0.761028 6.10361e-05
0.688991 0.773159 0.0788586
0.725063 0.784833 0.175906
0.774716 0.806973 0.280568
0.837995 0.828992 0.34229
0.925383 0.858122 0.487755
0.000961318 0.106035 0.409293
0.0566873 0.110719 0.436973
0.179583 0.116518 0.449439
0.272694 0.102296 0.440543
0.365454 0.0904707 0.443839
0.48513 0.0320287 0.43978
0.612467 0 0.390143
0.682704 3.0518e-05 0.344793
0.725444 1.5259e-05 0.306859
4.57771e-05 0.145953 0.447807
0.00758373 0.15375 0.471977
0.177935 0.157031 0.506676
0.292088 0.148394 0.483619
0.378164 0.134157 0.469429
0.494316 0.0943313 0.45536
0.617273 0.0146639 0.403021
0.687587 0.0393683 0.361669
0.732982 0.0388647 0.327962
1.5259e-05 0.21796 0.494667
0.00421149 0.221088 0.511025
0.138689 0.21471 0.53286
0.285267 0.211353 0.510719
0.384802 0.200229 0.499855
0.518059 0.19971 0.493431
0.645014 0.182574 0.466499
0.70573 0.147631 0.410986
0.751369 0.149874 0.377844
0 0.300694 0.515755
0 0.303593 0.52665
0.0930953 0.314458 0.532158
0.275044 0.3196 0.544366
0.393545 0.344167 0.53431
0.542931 0.348486 0.527489
0.675364 0.327352 0.499596
0.723583 0.309926 0.473899
0.770626 0.280415 0.440635
1.5259e-05 0.413474 0.538827
0 0.42797 0.547723
0.0465705 0.448066 0.557443
0.236713 0.47216 0.574929
0.418921 0.490913 0.58912
0.597406 0.505653 0.569665
0.71577 0.457359 0.535744
0.759686 0.436927 0.507805
0.800687 0.424155 0.487205
0 0.551171 0.554467
0.00633249 0.56228 0.556252
0.0425879 0.577554 0.557305
0.178531 0.598337 0.562554
0.379324 0.625818 0.570672
0.61976 0.649882 0.58761
0.729915 0.607874 0.527764
0.784604 0.572045 0.503944
0.833829 0.537606 0.482689
0.000106813 0.633814 0.493187
0.0075227 0.642283 0.496345
0.0912337 0.657633 0.503258
0.23006 0.67483 0.512566
0.462882 0.707164 0.57348
0.619562 0.727993 0.572488
0.744579 0.743664 0.569558
0.815305 0.711803 0.542153
0.865782 0.688579 0.509819
0.280201 0.688746 0.318914
0.314 0.695094 0.323201
0.373907 0.712978 0.359655
0.45391 0.737392 0.416037
0.56936 0.761791 0.439918
0.652796 0.786999 0.528298
0.72517 0.806943 0.592447
0.826261 0.820798 0.581491
0.894804 0.78468 0.550317
0.52076 0.750408 0.227405
0.547143 0.759548 0.254337
0.584802 0.768902 0.260075
0.635569 0.781201 0.266499
0.686015 0.796017 0.295903
0.726894 0.813352 0.361151
0.768963 0.830411 0.422889
0.832059 0.853559 0.495659
0.920546 0.875731 0.596353
0 0.137881 0.476341
0.0254368 0.146548 0.496269
0.157656 0.149111 0.521218
0.287373 0.150134 0.519097
0.366812 0.137835 0.514961
0.459113 0.124956 0.515007
0.597635 0.0154116 0.494118
0.685267 0 0.433845
0.729641 4.57771e-05 0.386862
0 0.17937 0.508629
0.00920119 0.186465 0.52726
0.124376 0.194491 0.56202
0.30988 0.19292 0.566064
0.38027 0.168872 0.544076
0.474464 0.152392 0.536706
0.602487 0.0625467 0.509239
0.689509 0.00798047 0.445731
0.735378 0.00827039 0.402762
0 0.244862 0.552712
0.000411994 0.252857 0.570962
0.0923476 0.259388 0.594491
0.296086 0.238254 0.601541
0.386435 0.223987 0.576501
0.490013 0.203815 0.563729
0.617884 0.165484 0.544121
0.712413 0.117723 0.499428
0.757229 0.13138 0.448539
0 0.306828 0.583062
0 0.311757 0.595071
0.0467842 0.314214 0.606867
0.267872 0.31458 0.621241
0.37641 0.318425 0.609613
0.506569 0.310277 0.592584
0.661341 0.323232 0.595346
0.745632 0.31458 0.578393
0.785718 0.269505 0.522103
3.0518e-05 0.406577 0.609903
1.5259e-05 0.410208 0.616114
0.076112 0.418753 0.621805
0.262165 0.430152 0.632654
0.388144 0.443229 0.646799
0.546548 0.466011 0.634394
0.68426 0.468528 0.626993
0.770123 0.448341 0.610269
0.813886 0.43508 0.593866
7.62951e-05 0.536614 0.641047
0.000122072 0.549203 0.645975
0 0.566033 0.650187
0.159762 0.586679 0.660807
0.362432 0.611673 0.680491
0.601358 0.637705 0.691997
0.72755 0.641794 0.674266
0.806775 0.602289 0.64918
0.84773 0.57763 0.624262
0.0245365 0.657755 0.652766
0.0493019 0.66508 0.654459
0.0935225 0.676631 0.656626
0.235203 0.695064 0.662074
0.385809 0.7196 0.670237
0.587167 0.746426 0.680201
0.732097 0.761166 0.691844
0.816663 0.729351 0.647089
0.869017 0.691157 0.617975
0.0859693 0.720104 0.560708
0.146319 0.728389 0.566201
0.244831 0.742077 0.575433
0.360342 0.762936 0.594507
0.471778 0.782773 0.612192
0.634012 0.810864 0.683696
0.726329 0.824338 0.68304
0.830747 0.835416 0.680934
0.892485 0.800015 0.647105
0.464332 0.77171 0.390066
0.482048 0.775525 0.392782
0.513909 0.782666 0.396735
0.574792 0.802792 0.445884
0.636378 0.825116 0.508782
0.701518 0.840513 0.524453
0.76228 0.860685 0.596643
0.823468 0.880766 0.68394
0.92018 0.891005 0.685863
4.57771e-05 0.176913 0.542016
0.00665293 0.187167 0.557595
0.0963607 0.196124 0.584436
0.272465 0.194064 0.595789
0.370748 0.1832 0.591592
0.463752 0.161624 0.588861
0.563714 0.142519 0.589624
0.677028 0.0162814 0.561135
0.734325 0 0.491188
0.000915541 0.213107 0.567849
0.00573739 0.222293 0.58265
0.0736858 0.234836 0.607706
0.259342 0.227131 0.626566
0.390631 0.22153 0.626871
0.479286 0.192935 0.611276
0.578439 0.168292 0.606867
0.684565 0.0502327 0.577478
0.740185 0 0.497856
0 0.267704 0.60618
0 0.274876 0.620539
0.0380255 0.286427 0.640986
0.232563 0.293233 0.669383
0.399939 0.274891 0.666056
0.502785 0.238865 0.642771
0.597772 0.210071 0.631357
0.678492 0.159701 0.60885
0.752682 0.0774243 0.532921
1.5259e-05 0.3355 0.650492
1.5259e-05 0.341405 0.66392
0.0178073 0.34876 0.675471
0.179797 0.346532 0.688045
0.373312 0.32549 0.691859
0.518105 0.313924 0.671336
0.617411 0.294362 0.659876
0.710658 0.280858 0.651499
0.787884 0.227771 0.600336
0 0.402747 0.67631
1.5259e-05 0.405798 0.68368
0 0.411185 0.690135
0.0804761 0.412833 0.696574
0.350561 0.41796 0.710094
0.52607 0.431617 0.702052
0.637888 0.424231 0.689876
0.746975 0.445457 0.697185
0.826215 0.442481 0.684718
0 0.517952 0.702708
1.5259e-05 0.524315 0.706889
0 0.53312 0.710231
0.128176 0.549249 0.716121
0.403632 0.571496 0.735882
0.560525 0.58645 0.748089
0.677607 0.60766 0.732647
0.76875 0.609415 0.72578
0.851682 0.589532 0.711757
0 0.631632 0.73167
9.15541e-05 0.64123 0.733898
0.000442512 0.658534 0.737148
0.10045 0.683742 0.74284
0.381735 0.712322 0.760815
0.538537 0.735851 0.778714
0.712673 0.757824 0.784848
0.816617 0.75761 0.77026
0.884382 0.714122 0.735943
0.115526 0.750988 0.737484
0.17879 0.757839 0.739452
0.262959 0.767376 0.742565
0.365194 0.783368 0.747845
0.469856 0.80148 0.754269
0.565759 0.819272 0.757855
0.699718 0.838468 0.766201
0.823285 0.849409 0.776379
0.897215 0.812284 0.722454
0.376043 0.789227 0.540749
0.409735 0.796872 0.54815
0.455894 0.80766 0.559548
0.516579 0.821958 0.574838
0.578149 0.835477 0.5879
0.660548 0.858305 0.645289
0.751064 0.883543 0.730327
0.824094 0.898268 0.767422
0.925292 0.907179 0.757259
0.000869764 0.226963 0.604562
0.00411994 0.234867 0.615442
0.0591135 0.246159 0.634119
0.219074 0.247166 0.649821
0.352972 0.243687 0.66099
0.4804 0.212589 0.654704
0.578683 0.192111 0.6542
0.645274 0.175967 0.656245
0.742443 0.000961318 0.599329
0 0.254368 0.62475
0.000915541 0.263127 0.636622
0.0351873 0.274876 0.653346
0.186007 0.280247 0.669963
0.34963 0.271443 0.681147
0.498192 0.242313 0.673655
0.591333 0.216342 0.669184
0.656489 0.197742 0.669184
0.748226 0.0234684 0.609857
0 0.298146 0.656382
0 0.303105 0.666346
0.0112612 0.31574 0.680064
0.111192 0.329229 0.69987
0.330694 0.318669 0.712963
0.530053 0.293263 0.707332
0.608988 0.258564 0.691966
0.671901 0.234852 0.688914
0.755337 0.0813611 0.631144
1.5259e-05 0.362127 0.697276
1.5259e-05 0.368322 0.707073
0 0.377264 0.718196
0.0631266 0.393088 0.732998
0.29604 0.383124 0.743694
0.546593 0.349325 0.735515
0.629023 0.321324 0.721553
0.691035 0.304997 0.716091
0.767346 0.26537 0.69865
0 0.438926 0.735058
1.5259e-05 0.444205 0.740917
1.5259e-05 0.449088 0.746288
0.0229343 0.452094 0.750561
0.27364 0.445533 0.76463
0.54078 0.432547 0.765759
0.642603 0.421103 0.756176
0.711101 0.409583 0.748287
0.805997 0.4206 0.750866
0 0.514519 0.757778
0 0.517815 0.761761
0.000137331 0.522225 0.765743
0.00015259 0.52932 0.76965
0.264637 0.542306 0.778424
0.516838 0.543389 0.792538
0.653422 0.570565 0.793317
0.734752 0.562814 0.783383
0.834897 0.584466 0.789273
0 0.609033 0.783963
0 0.616663 0.787259
0 0.628138 0.790494
0 0.646342 0.792996
0.382345 0.673884 0.811475
0.575509 0.690349 0.825818
0.671351 0.698054 0.832883
0.769985 0.714656 0.823285
0.856046 0.710063 0.815351
0 0.699825 0.812345
0 0.709575 0.814221
0 0.725032 0.816541
0.100664 0.747219 0.82031
0.362951 0.771237 0.8327
0.555093 0.796368 0.848035
0.672938 0.813855 0.861173
0.798444 0.82472 0.86685
0.893568 0.823697 0.852522
0.30808 0.831647 0.838376
0.37467 0.837842 0.843
0.435233 0.847257 0.846098
0.506203 0.859449 0.851926
0.568231 0.871916 0.856748
0.62948 0.884947 0.860975
0.700343 0.900282 0.867948
0.789258 0.915175 0.872801
0.92079 0.92781 0.8813
