brand-bible/brands/assets/blkgrlcotoo-luts/709to709_500T_x65_Clean_White.cube
TITLE "Generated by Resolve"
LUT_3D_SIZE 5
0.0370947 0.0487526 0.0576486
0.200763 0.0603342 0.0357824
0.473533 0.0220188 0
0.615915 1.5259e-05 0
0.68307 0 0
0.00303655 0.172839 0.0851148
0.216846 0.20145 0.0695201
0.428885 0.198459 0.00189212
0.596429 0.189593 0
0.706371 0.147311 0
0.0136416 0.359808 0.0678264
0.210559 0.383078 0.0693217
0.475853 0.447883 0.0280613
0.692592 0.406485 0.0311589
0.788968 0.405051 0.0120699
0.27866 0.540825 0
0.353735 0.562203 0
0.493919 0.604852 0.000106813
0.767163 0.665003 0.000320439
0.880201 0.623972 0.144854
0.534508 0.72282 0
0.585153 0.735729 0
0.687312 0.762676 0
0.802274 0.796918 0
0.936187 0.809888 0.10045
0.0034638 0.0478981 0.17911
0.18764 0.0573739 0.188907
0.461036 0.00941482 0.142412
0.624186 1.5259e-05 0.10605
0.700298 7.62951e-05 0.0697642
0.000335698 0.194934 0.220935
0.198383 0.229038 0.235523
0.422446 0.183032 0.162905
0.592187 0.154376 0.12575
0.711727 0.0957504 0.0818341
0 0.39585 0.211185
0.154177 0.423529 0.227176
0.4486 0.471641 0.226734
0.677012 0.419379 0.174334
0.785351 0.396796 0.187579
0.265461 0.55848 0.0812848
0.346349 0.579416 0.0988327
0.482124 0.619638 0.167269
0.747738 0.683528 0.228153
0.874159 0.640604 0.276768
0.547326 0.732296 0
0.598306 0.744884 0
0.69044 0.76669 0
0.789212 0.791897 0
0.931334 0.826688 0.313848
0.0213016 0.0711681 0.340108
0.1673 0.0767681 0.366461
0.401907 0.0141451 0.36965
0.615106 0 0.30222
0.717159 6.10361e-05 0.220905
4.57771e-05 0.18851 0.419715
0.147662 0.190646 0.450004
0.41622 0.209598 0.425071
0.624063 0.185885 0.371862
0.733028 0.132891 0.28777
4.57771e-05 0.431052 0.465064
0.0438087 0.466667 0.47396
0.459464 0.513726 0.496483
0.692439 0.424933 0.406592
0.791943 0.38677 0.372137
0.0572671 0.599542 0.31635
0.229526 0.633326 0.383017
0.476982 0.682979 0.45565
0.739666 0.727047 0.477836
0.869429 0.675242 0.425177
0.544579 0.73724 7.62951e-05
0.607111 0.752148 0.00030518
0.688991 0.773159 0.0788586
0.774716 0.806973 0.280568
0.925383 0.858122 0.487755
0 0.137881 0.476341
0.157656 0.149111 0.521218
0.366812 0.137835 0.514961
0.597635 0.0154116 0.494118
0.729641 4.57771e-05 0.386862
0 0.244862 0.552712
0.0923476 0.259388 0.594491
0.386435 0.223987 0.576501
0.617884 0.165484 0.544121
0.757229 0.13138 0.448539
3.0518e-05 0.406577 0.609903
0.076112 0.418753 0.621805
0.388144 0.443229 0.646799
0.68426 0.468528 0.626993
0.813886 0.43508 0.593866
0.0245365 0.657755 0.652766
0.0935225 0.676631 0.656626
0.385809 0.7196 0.670237
0.732097 0.761166 0.691844
0.869017 0.691157 0.617975
0.464332 0.77171 0.390066
0.513909 0.782666 0.396735
0.636378 0.825116 0.508782
0.76228 0.860685 0.596643
0.92018 0.891005 0.685863
0.000869764 0.226963 0.604562
0.0591135 0.246159 0.634119
0.352972 0.243687 0.66099
0.578683 0.192111 0.6542
0.742443 0.000961318 0.599329
0 0.298146 0.656382
0.0112612 0.31574 0.680064
0.330694 0.318669 0.712963
0.608988 0.258564 0.691966
0.755337 0.0813611 0.631144
0 0.438926 0.735058
1.5259e-05 0.449088 0.746288
0.27364 0.445533 0.76463
0.642603 0.421103 0.756176
0.805997 0.4206 0.750866
0 0.609033 0.783963
0 0.628138 0.790494
0.382345 0.673884 0.811475
0.671351 0.698054 0.832883
0.856046 0.710063 0.815351
0.30808 0.831647 0.838376
0.435233 0.847257 0.846098
0.568231 0.871916 0.856748
0.700343 0.900282 0.867948
0.92079 0.92781 0.8813
