brand-bible/brands/assets/luts/blkgrlcotoo/709to709_500T_x65_Film_White.cube
TITLE "Generated by Resolve"
LUT_3D_SIZE 9
0.037171 0.0473945 0.0541085
0.0914168 0.0516213 0.0479286
0.20235 0.0586404 0.0334173
0.362783 0.0484932 3.0518e-05
0.475624 0.0176242 0
0.547768 1.5259e-05 0
0.616999 1.5259e-05 0
0.658442 0 0
0.683543 0 0
0.00311284 0.0925154 0.0649577
0.105409 0.105486 0.0637522
0.195468 0.107347 0.0535439
0.305684 0.11194 0.0310979
0.420661 0.110002 0.000106813
0.511116 0.111864 0
0.595544 0.101747 0
0.655085 0.0722515 0
0.689158 0.0431067 0
0.00370794 0.168719 0.0798962
0.0817731 0.17499 0.0767681
0.21857 0.196735 0.0651255
0.337789 0.183536 0.0367285
0.43006 0.19324 0.00134279
0.514931 0.193713 0.00146487
0.597147 0.184634 0
0.66244 0.163439 0.000213626
0.706508 0.143297 0
6.10361e-05 0.26363 0.0841688
0.0390173 0.26894 0.0818799
0.174685 0.288197 0.0778058
0.357946 0.319905 0.0293889
0.488304 0.295186 0.0234073
0.56318 0.303975 0.0134432
0.63801 0.308095 0.00415045
0.695354 0.293843 0.000122072
0.747112 0.264439 0.0030518
0.00788891 0.351247 0.0624552
0.0630198 0.358007 0.0648508
0.202716 0.373709 0.0626383
0.318944 0.406134 0.0503243
0.470268 0.438102 0.0225681
0.621836 0.394125 0.0443885
0.691646 0.400275 0.0252384
0.744076 0.407706 0.019913
0.788464 0.400519 0.00755322
0.0981003 0.435019 0.0115358
0.168551 0.443717 0.0103456
0.25919 0.458686 0.0200504
0.339101 0.484031 0.00802625
0.43154 0.513878 0.00874342
0.61973 0.54873 0
0.74464 0.502525 0.0559701
0.792615 0.508904 0.0330358
0.838193 0.520302 0.0209354
0.249348 0.525109 0
0.294133 0.534661 0
0.336507 0.547112 0
0.391714 0.562982 0
0.476036 0.589792 4.57771e-05
0.598505 0.624002 0
0.757687 0.651911 0
0.834272 0.616953 0.108614
0.878538 0.616495 0.117586
0.373205 0.618418 0
0.394827 0.62472 0
0.426657 0.633585 0
0.478325 0.648005 0
0.559457 0.670604 0
0.656275 0.698466 0
0.741299 0.723903 0
0.851102 0.74258 0
0.91104 0.710765 0.22417
0.502342 0.69926 0
0.522286 0.704509 0
0.55314 0.7122 0
0.599985 0.724178 0
0.660044 0.739651 0
0.725994 0.759472 0
0.782849 0.776791 0
0.85037 0.795132 0
0.931197 0.794827 0.0590066
0.02916 0.0420081 0.111192
0.0910964 0.0499886 0.106508
0.205768 0.059205 0.0876173
0.341726 0.0488441 0.0620279
0.471092 0.00163272 0.0266575
0.547341 0 0.0233463
0.619593 0 0.0230564
0.663462 0 0.0218051
0.693828 0 0.00341802
9.15541e-05 0.099382 0.123384
0.0988937 0.115358 0.131731
0.204334 0.109545 0.105333
0.301183 0.10663 0.0842756
0.41767 0.0914778 0.0573739
0.510033 0.0790265 0.0310521
0.596902 0.0431067 0.0189212
0.660258 0.017258 0.0125582
0.695445 0.0100252 0.00682078
6.10361e-05 0.184924 0.133669
0.0654002 0.189288 0.127337
0.208316 0.205035 0.122774
0.317327 0.189227 0.098497
0.41886 0.17763 0.0845502
0.498894 0.171801 0.0682994
0.590188 0.161975 0.0499733
0.666362 0.139879 0.0347448
0.709041 0.114549 0.00859083
0 0.277211 0.124849
0.0068513 0.284443 0.127047
0.167803 0.299413 0.141115
0.342412 0.327642 0.11606
0.464607 0.301503 0.10135
0.543557 0.302205 0.0799878
0.627329 0.296117 0.0723125
0.688945 0.283726 0.0675212
0.745403 0.25359 0.0506905
0.0065156 0.363653 0.111711
0.0347448 0.372274 0.116274
0.178561 0.384558 0.1252
0.310933 0.416861 0.131106
0.453407 0.443671 0.104967
0.607431 0.402258 0.106767
0.682445 0.400565 0.0836805
0.736584 0.406638 0.07364
0.787167 0.398535 0.0878157
0.0716716 0.4439 0.0601511
0.139178 0.453269 0.0623178
0.254475 0.468391 0.0782483
0.330449 0.491203 0.0945754
0.423484 0.519844 0.0928054
0.608347 0.554955 0.0760052
0.736782 0.509407 0.12282
0.786603 0.512627 0.10837
0.833875 0.524956 0.103807
0.248035 0.531304 0.00144961
0.292836 0.540398 0.004654
0.333898 0.551293 0.00201419
0.386297 0.564462 0.00384527
0.469001 0.589319 0.0185245
0.591699 0.623056 0.0146639
0.745998 0.652476 0.0412146
0.831434 0.6224 0.182055
0.876036 0.621576 0.184298
0.375311 0.624811 0
0.39765 0.631388 0
0.432349 0.64094 1.5259e-05
0.482063 0.652842 1.5259e-05
0.556985 0.671794 0
0.652186 0.698085 1.5259e-05
0.734295 0.721492 4.57771e-05
0.841947 0.741283 0
0.909224 0.713771 0.264088
0.506767 0.702785 0
0.526268 0.707729 0
0.559747 0.716426 0
0.607034 0.728801 0
0.662745 0.742855 0
0.725017 0.759701 0
0.779904 0.776272 0
0.845228 0.79292 0
0.928588 0.799924 0.183474
0.00430304 0.0461738 0.16965
0.0873121 0.0519417 0.179248
0.189166 0.0552071 0.178988
0.330114 0.0529793 0.152636
0.463508 0.00708019 0.134966
0.545769 0 0.119554
0.625513 0 0.100664
0.673625 1.5259e-05 0.0872511
0.700725 3.0518e-05 0.0672465
0.000167849 0.0940414 0.198901
0.0801251 0.0979171 0.209857
0.1888 0.113893 0.195895
0.319158 0.116335 0.171374
0.421408 0.103212 0.154788
0.498833 0.0927749 0.132616
0.584649 0.0532998 0.113756
0.654246 0.0212558 0.0988785
0.693477 0.00639353 0.0875563
0.00030518 0.190341 0.208988
0.000991836 0.205936 0.213611
0.200702 0.223865 0.222705
0.333913 0.191638 0.175143
0.424231 0.177981 0.153903
0.510933 0.168261 0.137713
0.592981 0.149783 0.118669
0.667842 0.123476 0.100557
0.711894 0.0932174 0.0773632
0 0.300328 0.215717
0.00236515 0.3066 0.215213
0.163409 0.320058 0.209171
0.341192 0.344854 0.202625
0.450752 0.318837 0.17969
0.542016 0.307774 0.156435
0.627039 0.285313 0.141649
0.686259 0.270665 0.136324
0.745983 0.242298 0.12285
0 0.386023 0.195453
0.0065156 0.396948 0.189639
0.138231 0.413138 0.210651
0.309911 0.435859 0.228153
0.441825 0.460548 0.208515
0.594919 0.425376 0.186404
0.674769 0.412741 0.161913
0.73225 0.398215 0.161288
0.784009 0.39057 0.173159
0.0403449 0.463981 0.15082
0.0991684 0.474159 0.153323
0.235157 0.492348 0.169284
0.314015 0.511772 0.189242
0.416205 0.541634 0.221637
0.59971 0.571756 0.208789
0.727855 0.530434 0.201129
0.778317 0.523888 0.192813
0.829389 0.532448 0.197787
0.241779 0.542031 0.0628824
0.278813 0.550454 0.0690776
0.326436 0.562524 0.0800031
0.379889 0.577783 0.10573
0.461616 0.60235 0.144488
0.587137 0.636179 0.167269
0.735088 0.667155 0.19646
0.825956 0.635233 0.251728
0.872145 0.632044 0.250797
0.376684 0.630488 1.5259e-05
0.398383 0.6365 6.10361e-05
0.435187 0.646281 0.000122072
0.484398 0.657343 9.15541e-05
0.552422 0.672099 0
0.640024 0.69543 0.0101472
0.72134 0.718456 0.0103761
0.828199 0.740764 0.0653239
0.906035 0.721508 0.311879
0.515099 0.70898 0
0.535637 0.71429 0
0.567056 0.722194 0
0.613779 0.733486 0
0.663661 0.744823 0
0.720592 0.758877 0
0.771252 0.7729 0
0.834882 0.789029 0
0.925872 0.810559 0.28069
0.0135805 0.0464637 0.248249
0.0896315 0.0529641 0.274876
0.168933 0.0544137 0.271031
0.301366 0.0461433 0.275334
0.444511 0.000335698 0.252033
0.535409 0.000503548 0.228901
0.623697 0 0.194705
0.678782 0 0.155444
0.710002 3.0518e-05 0.122606
0.000793469 0.103899 0.293462
0.0741741 0.106172 0.329397
0.173907 0.102632 0.300069
0.303059 0.0987106 0.289647
0.448066 0.0862898 0.263264
0.5205 0.0811933 0.243412
0.607462 0.0510719 0.204395
0.673365 0.0284276 0.168154
0.709346 0.0149233 0.145525
9.15541e-05 0.182864 0.310628
0.0119783 0.182284 0.320073
0.15819 0.191684 0.331334
0.309438 0.211704 0.315389
0.45211 0.201114 0.295628
0.523827 0.188571 0.271717
0.595285 0.17496 0.248386
0.666362 0.138674 0.204898
0.710964 0.119966 0.178119
0 0.309316 0.330739
0 0.32221 0.335958
0.0297704 0.343359 0.33579
0.3355 0.370001 0.352895
0.46453 0.335378 0.301518
0.555856 0.308583 0.274296
0.634745 0.280735 0.246128
0.696849 0.261814 0.225559
0.750454 0.227543 0.195071
0 0.412787 0.337896
0 0.428519 0.341085
0.0624552 0.439704 0.335897
0.30811 0.460853 0.336004
0.455512 0.480812 0.336187
0.585824 0.445579 0.305943
0.674464 0.414176 0.272862
0.735286 0.390249 0.255833
0.786969 0.374014 0.248844
3.0518e-05 0.489494 0.266682
0.0205081 0.505409 0.299153
0.155566 0.52398 0.303716
0.301015 0.546441 0.334829
0.418616 0.566155 0.351568
0.60029 0.593225 0.334997
0.719326 0.555718 0.308507
0.776364 0.544869 0.281682
0.830182 0.532219 0.279835
0.155367 0.563012 0.188479
0.224659 0.573404 0.189548
0.303822 0.586664 0.192035
0.370657 0.605783 0.217487
0.452888 0.628305 0.261494
0.586664 0.665049 0.332799
0.726635 0.689235 0.336568
0.819303 0.657313 0.332601
0.869627 0.649119 0.318685
0.363836 0.633967 0.0198978
0.392309 0.641077 0.0137026
0.430732 0.650935 0.0145876
0.484138 0.664393 0.0496376
0.553246 0.683345 0.124895
0.637476 0.710719 0.201785
0.717067 0.734554 0.23006
0.821454 0.759731 0.27454
0.900893 0.736339 0.365484
0.524849 0.714916 0
0.542855 0.7196 0
0.574746 0.727306 0
0.620691 0.737667 6.10361e-05
0.662623 0.746227 0.000106813
0.710552 0.756603 0
0.758587 0.770123 0.0514839
0.821469 0.78645 0.0965591
0.922194 0.824216 0.360601
0.0239109 0.0684062 0.32079
0.0832074 0.0678111 0.353765
0.169665 0.073518 0.346014
0.272282 0.061265 0.349554
0.404913 0.010132 0.349004
0.522454 0 0.324102
0.616693 0 0.285603
0.684306 1.5259e-05 0.249348
0.71754 3.0518e-05 0.208637
0.000320439 0.11632 0.359777
0.047364 0.124147 0.393317
0.186343 0.125124 0.400702
0.283665 0.110948 0.375113
0.405234 0.0796674 0.360784
0.525872 0.0228122 0.338094
0.613413 0.0442969 0.298924
0.686595 0.0394293 0.264897
0.721736 0.0240482 0.224948
4.57771e-05 0.183871 0.395224
0.000167849 0.184863 0.41181
0.150179 0.185733 0.423835
0.286503 0.191028 0.401938
0.417929 0.203998 0.400504
0.560601 0.197269 0.383215
0.624689 0.180957 0.350332
0.689967 0.14313 0.310994
0.733166 0.129885 0.270756
0 0.298421 0.412787
0 0.307042 0.423667
0.0596323 0.324987 0.436591
0.294972 0.339803 0.45069
0.427436 0.357702 0.434958
0.584314 0.337301 0.413489
0.654154 0.310536 0.380804
0.701137 0.293111 0.357626
0.753872 0.268193 0.330022
3.0518e-05 0.420813 0.434409
1.5259e-05 0.43357 0.438941
0.032166 0.455406 0.442603
0.221241 0.483299 0.446708
0.45095 0.502251 0.46334
0.60322 0.46273 0.413764
0.690608 0.417975 0.381048
0.740963 0.393301 0.360128
0.791028 0.381308 0.348287
1.5259e-05 0.521065 0.431464
0 0.534905 0.437842
0.0338293 0.551354 0.439368
0.224781 0.568368 0.44004
0.424552 0.591867 0.441352
0.616556 0.615106 0.438224
0.716457 0.577752 0.408103
0.771847 0.555062 0.383032
0.829313 0.531197 0.369833
0.0366674 0.581064 0.285725
0.0679789 0.591959 0.301976
0.188098 0.613733 0.348547
0.324819 0.635828 0.366217
0.451072 0.663783 0.417075
0.591241 0.689845 0.455497
0.726162 0.709789 0.4374
0.809766 0.681346 0.422126
0.866743 0.666392 0.393179
0.33434 0.654459 0.20441
0.362295 0.659831 0.19556
0.409461 0.670008 0.192538
0.481621 0.686702 0.203143
0.558724 0.709895 0.26128
0.631815 0.733104 0.323217
0.711681 0.760784 0.387106
0.811261 0.785138 0.4327
0.896864 0.755276 0.431373
0.512566 0.714748 0
0.536553 0.720745 0
0.57499 0.729671 0.000122072
0.619577 0.739712 0.000137331
0.660273 0.748928 0.0246433
0.702708 0.761837 0.133303
0.755199 0.784146 0.237201
0.820951 0.806073 0.297276
0.917967 0.838849 0.443854
0.00378424 0.10309 0.385779
0.060029 0.107073 0.411841
0.181735 0.112749 0.423529
0.27422 0.0984817 0.415274
0.367727 0.0854505 0.418509
0.487633 0.0276188 0.414832
0.614359 0 0.368307
0.683619 1.5259e-05 0.325368
0.725795 1.5259e-05 0.289372
4.57771e-05 0.14197 0.421759
0.0090486 0.149813 0.444419
0.179294 0.15285 0.477195
0.293614 0.144198 0.455665
0.379919 0.129915 0.442557
0.496223 0.0887617 0.429068
0.61854 0.0126192 0.379904
0.688151 0.0367895 0.341054
0.73312 0.0370184 0.308644
1.5259e-05 0.21297 0.465583
0.00422675 0.215991 0.480873
0.139376 0.209644 0.501457
0.28629 0.20621 0.480812
0.385931 0.194903 0.470756
0.519051 0.194415 0.464652
0.645563 0.177707 0.439155
0.705974 0.143816 0.386847
0.751492 0.146807 0.355383
0 0.294331 0.484871
0 0.297139 0.495232
0.0909285 0.307759 0.500389
0.273686 0.312825 0.511955
0.392645 0.336721 0.502251
0.542428 0.341146 0.495979
0.674571 0.320836 0.469413
0.72311 0.304356 0.445563
0.770626 0.275608 0.413687
0 0.405661 0.506004
0 0.419989 0.514351
0.0372473 0.439796 0.523339
0.225284 0.463661 0.538857
0.412894 0.482353 0.552117
0.59321 0.497444 0.534585
0.713787 0.45034 0.502419
0.758144 0.430121 0.476097
0.799619 0.418204 0.456641
0 0.536767 0.516106
0.00148013 0.547921 0.517617
0.0251011 0.562524 0.518212
0.148333 0.58265 0.522225
0.359808 0.610025 0.529168
0.606607 0.634791 0.545556
0.72546 0.599115 0.493477
0.781247 0.564965 0.470924
0.832578 0.531807 0.45069
0.000198367 0.61529 0.454551
9.15541e-05 0.623392 0.457359
0.044358 0.637919 0.462959
0.184878 0.654597 0.470649
0.434394 0.687785 0.528328
0.59826 0.709422 0.527657
0.731106 0.726635 0.524681
0.80943 0.701457 0.504784
0.861997 0.678981 0.473243
0.232837 0.665324 0.283467
0.274815 0.671855 0.286778
0.333852 0.689067 0.320851
0.41883 0.713924 0.375082
0.53695 0.73872 0.398703
0.626169 0.764889 0.482658
0.704906 0.786023 0.543359
0.811643 0.801251 0.532403
0.890547 0.773587 0.509911
0.484352 0.723842 0.192081
0.511421 0.733104 0.217502
0.549218 0.742382 0.223682
0.605173 0.75523 0.227436
0.656748 0.76997 0.25597
0.703563 0.788449 0.317815
0.748608 0.806363 0.376837
0.814298 0.830396 0.447639
0.912093 0.854719 0.545296
0 0.134325 0.448554
0.0284581 0.142687 0.467323
0.159655 0.145129 0.490806
0.288533 0.145937 0.48896
0.368597 0.133501 0.484947
0.46096 0.120638 0.48513
0.599069 0.0120394 0.465721
0.686152 0 0.409003
0.729992 3.0518e-05 0.364721
0 0.175082 0.478767
0.00929274 0.182025 0.496269
0.124849 0.190021 0.528878
0.310475 0.18819 0.532815
0.381353 0.164187 0.512322
0.475731 0.147753 0.50544
0.60383 0.0582742 0.479606
0.690211 0.00552377 0.420294
0.735546 0.0069276 0.379294
0 0.239567 0.519905
4.57771e-05 0.247593 0.537133
0.0900893 0.25391 0.559274
0.295659 0.233112 0.565866
0.386679 0.218753 0.542489
0.490776 0.19881 0.530541
0.618418 0.160861 0.512291
0.712657 0.114504 0.470237
0.757397 0.128954 0.421973
0 0.30074 0.548226
0 0.305577 0.559457
0.0440528 0.308049 0.570901
0.26566 0.308507 0.584054
0.374914 0.312047 0.573175
0.505806 0.30396 0.557336
0.660777 0.316716 0.559701
0.745205 0.309239 0.543938
0.785809 0.265431 0.490852
3.0518e-05 0.39913 0.572702
1.5259e-05 0.403174 0.57911
0.0642863 0.411002 0.58352
0.253635 0.422599 0.593957
0.381186 0.435401 0.606989
0.541543 0.45832 0.595483
0.681941 0.461234 0.588754
0.768521 0.442084 0.573098
0.813214 0.429526 0.557183
6.10361e-05 0.527001 0.601328
0.000122072 0.539651 0.605997
1.5259e-05 0.555642 0.610101
0.134051 0.575631 0.619303
0.346868 0.600793 0.637079
0.590463 0.626871 0.647776
0.721798 0.632334 0.631205
0.803754 0.594781 0.608301
0.846189 0.571466 0.584375
0.00410468 0.639612 0.607004
0.021912 0.64651 0.608331
0.0654917 0.65771 0.610224
0.184009 0.675425 0.61294
0.350988 0.700038 0.620584
0.563851 0.727825 0.630411
0.717632 0.744121 0.641352
0.810056 0.719097 0.604105
0.866331 0.682322 0.576349
0.0669261 0.69749 0.515709
0.0886854 0.705028 0.518959
0.176776 0.717586 0.526497
0.316884 0.73846 0.544259
0.434073 0.758816 0.562203
0.604669 0.788998 0.631312
0.706477 0.804089 0.630503
0.815686 0.81622 0.628702
0.888136 0.788769 0.601953
0.421744 0.743923 0.347112
0.440558 0.748012 0.350149
0.474266 0.755016 0.352972
0.53492 0.775097 0.400259
0.602777 0.798352 0.460746
0.675822 0.815122 0.475746
0.74023 0.836591 0.54406
0.804471 0.857633 0.628397
0.913146 0.870451 0.632425
4.57771e-05 0.172854 0.510155
0.00665293 0.182834 0.524712
0.0957961 0.191867 0.549981
0.272801 0.189517 0.560693
0.37142 0.178607 0.556893
0.464622 0.157382 0.554299
0.56434 0.138384 0.555032
0.677806 0.0137636 0.528466
0.734798 0 0.462882
0.000839246 0.208469 0.53434
0.00569161 0.21738 0.548333
0.0722667 0.229831 0.571771
0.258381 0.222492 0.589395
0.390341 0.216617 0.58967
0.479759 0.188342 0.575189
0.578927 0.163943 0.571221
0.685161 0.046479 0.543648
0.740505 0 0.468879
0 0.262501 0.570214
0 0.269459 0.583658
0.0363775 0.280476 0.603006
0.229068 0.28806 0.62945
0.39791 0.269688 0.626398
0.50219 0.233753 0.604547
0.597757 0.205417 0.594064
0.678752 0.155627 0.573037
0.752804 0.0757458 0.501457
1.5259e-05 0.329671 0.611536
1.5259e-05 0.335409 0.62446
0.0154116 0.34255 0.635462
0.169802 0.340505 0.646815
0.369665 0.319921 0.650599
0.516564 0.3084 0.631403
0.61677 0.288869 0.620584
0.710246 0.275929 0.612757
0.787991 0.224704 0.564736
0 0.395407 0.635111
3.0518e-05 0.399542 0.642695
1.5259e-05 0.404044 0.648692
0.0674907 0.406256 0.654749
0.343236 0.41117 0.666972
0.521172 0.424857 0.659632
0.635218 0.417563 0.648264
0.744732 0.439109 0.655177
0.825559 0.43711 0.643183
0 0.509087 0.659525
1.5259e-05 0.515694 0.663752
1.5259e-05 0.524361 0.667063
0.102235 0.540261 0.671778
0.390494 0.562921 0.690059
0.551019 0.578119 0.701961
0.670649 0.59852 0.686534
0.764309 0.601175 0.680262
0.849577 0.582849 0.666911
0 0.619074 0.685145
4.57771e-05 0.628534 0.687465
0.000656138 0.644968 0.690272
0.0368658 0.670542 0.694636
0.355077 0.69897 0.711086
0.517098 0.72224 0.727855
0.702373 0.746273 0.734417
0.810056 0.747204 0.720821
0.881605 0.705638 0.688594
0.0446479 0.728634 0.683742
0.102388 0.735271 0.685557
0.188388 0.7449 0.687465
0.309255 0.76083 0.692226
0.429969 0.778561 0.698039
0.534203 0.796201 0.701396
0.67628 0.816938 0.709743
0.807828 0.830289 0.719936
0.892302 0.801541 0.674357
0.325612 0.761379 0.491112
0.358755 0.768704 0.497993
0.406683 0.778988 0.508858
0.471366 0.793454 0.523262
0.537499 0.807355 0.535256
0.627497 0.83122 0.590005
0.727642 0.859236 0.672419
0.803952 0.874968 0.708309
0.917815 0.88661 0.700374
0.000671397 0.222293 0.568841
0.00386053 0.230106 0.579126
0.0559701 0.241093 0.596445
0.215747 0.242466 0.611231
0.352117 0.239139 0.62179
0.480079 0.208316 0.615976
0.578668 0.187991 0.615549
0.645411 0.172213 0.617533
0.742687 0.000350958 0.564095
0 0.249363 0.587839
0.000564584 0.257969 0.598947
0.0335088 0.269642 0.614801
0.180652 0.275349 0.630121
0.346929 0.266377 0.640589
0.496971 0.237903 0.633768
0.590845 0.212085 0.629435
0.656321 0.193912 0.629618
0.748455 0.0226444 0.574014
0 0.292973 0.617441
0 0.297368 0.626871
0.00743114 0.310079 0.640024
0.0988785 0.323766 0.658228
0.326589 0.313558 0.670481
0.528054 0.288457 0.665309
0.60798 0.2542 0.650874
0.671366 0.23093 0.648219
0.755459 0.0801099 0.593942
1.5259e-05 0.356542 0.65594
1.5259e-05 0.362219 0.665415
0 0.370977 0.676036
0.0541543 0.386847 0.690059
0.2869 0.377325 0.698909
0.542885 0.344259 0.691707
0.626993 0.316411 0.678553
0.690227 0.300237 0.673564
0.767147 0.261265 0.657206
0 0.4318 0.690593
0 0.437736 0.696757
4.57771e-05 0.442908 0.702174
0.0195315 0.445182 0.706874
0.257145 0.439338 0.718334
0.53434 0.426062 0.719692
0.638788 0.415625 0.710872
0.708751 0.404242 0.703593
0.805219 0.415473 0.706127
0 0.506416 0.711757
0 0.509575 0.716152
4.57771e-05 0.513726 0.719738
0.000213626 0.521309 0.724071
0.239948 0.5346 0.730999
0.505638 0.537087 0.744579
0.646067 0.563897 0.745159
0.730098 0.556756 0.736065
0.832868 0.578668 0.741466
0 0.59794 0.735561
0 0.604532 0.738582
0 0.616587 0.742397
0 0.634775 0.745144
0.356374 0.662577 0.760433
0.559213 0.679957 0.774578
0.659861 0.688151 0.781521
0.761898 0.704799 0.772183
0.852766 0.701488 0.76492
0 0.684443 0.761883
0 0.693599 0.763195
0 0.709346 0.765896
0.0439155 0.731579 0.76878
0.322362 0.755444 0.779034
0.531838 0.780606 0.793423
0.65687 0.799558 0.806836
0.78732 0.811948 0.812787
0.889036 0.812696 0.798718
0.166857 0.804761 0.778195
0.253468 0.810941 0.782589
0.382132 0.820691 0.785595
0.454826 0.8327 0.79118
0.526604 0.845548 0.795834
0.593713 0.858747 0.799695
0.67097 0.874891 0.806561
0.766888 0.891356 0.811597
0.911498 0.906035 0.82002
