brand-bible/brands/assets/luts/blkgrlcotoo/709to709_500T_x65_Film_White.cube
TITLE "Generated by Resolve"
LUT_3D_SIZE 5
0.037171 0.0473945 0.0541085
0.20235 0.0586404 0.0334173
0.475624 0.0176242 0
0.616999 1.5259e-05 0
0.683543 0 0
0.00370794 0.168719 0.0798962
0.21857 0.196735 0.0651255
0.43006 0.19324 0.00134279
0.597147 0.184634 0
0.706508 0.143297 0
0.00788891 0.351247 0.0624552
0.202716 0.373709 0.0626383
0.470268 0.438102 0.0225681
0.691646 0.400275 0.0252384
0.788464 0.400519 0.00755322
0.249348 0.525109 0
0.336507 0.547112 0
0.476036 0.589792 4.57771e-05
0.757687 0.651911 0
0.878538 0.616495 0.117586
0.502342 0.69926 0
0.55314 0.7122 0
0.660044 0.739651 0
0.782849 0.776791 0
0.931197 0.794827 0.0590066
0.00430304 0.0461738 0.16965
0.189166 0.0552071 0.178988
0.463508 0.00708019 0.134966
0.625513 0 0.100664
0.700725 3.0518e-05 0.0672465
0.00030518 0.190341 0.208988
0.200702 0.223865 0.222705
0.424231 0.177981 0.153903
0.592981 0.149783 0.118669
0.711894 0.0932174 0.0773632
0 0.386023 0.195453
0.138231 0.413138 0.210651
0.441825 0.460548 0.208515
0.674769 0.412741 0.161913
0.784009 0.39057 0.173159
0.241779 0.542031 0.0628824
0.326436 0.562524 0.0800031
0.461616 0.60235 0.144488
0.735088 0.667155 0.19646
0.872145 0.632044 0.250797
0.515099 0.70898 0
0.567056 0.722194 0
0.663661 0.744823 0
0.771252 0.7729 0
0.925872 0.810559 0.28069
0.0239109 0.0684062 0.32079
0.169665 0.073518 0.346014
0.404913 0.010132 0.349004
0.616693 0 0.285603
0.71754 3.0518e-05 0.208637
4.57771e-05 0.183871 0.395224
0.150179 0.185733 0.423835
0.417929 0.203998 0.400504
0.624689 0.180957 0.350332
0.733166 0.129885 0.270756
3.0518e-05 0.420813 0.434409
0.032166 0.455406 0.442603
0.45095 0.502251 0.46334
0.690608 0.417975 0.381048
0.791028 0.381308 0.348287
0.0366674 0.581064 0.285725
0.188098 0.613733 0.348547
0.451072 0.663783 0.417075
0.726162 0.709789 0.4374
0.866743 0.666392 0.393179
0.512566 0.714748 0
0.57499 0.729671 0.000122072
0.660273 0.748928 0.0246433
0.755199 0.784146 0.237201
0.917967 0.838849 0.443854
0 0.134325 0.448554
0.159655 0.145129 0.490806
0.368597 0.133501 0.484947
0.599069 0.0120394 0.465721
0.729992 3.0518e-05 0.364721
0 0.239567 0.519905
0.0900893 0.25391 0.559274
0.386679 0.218753 0.542489
0.618418 0.160861 0.512291
0.757397 0.128954 0.421973
3.0518e-05 0.39913 0.572702
0.0642863 0.411002 0.58352
0.381186 0.435401 0.606989
0.681941 0.461234 0.588754
0.813214 0.429526 0.557183
0.00410468 0.639612 0.607004
0.0654917 0.65771 0.610224
0.350988 0.700038 0.620584
0.717632 0.744121 0.641352
0.866331 0.682322 0.576349
0.421744 0.743923 0.347112
0.474266 0.755016 0.352972
0.602777 0.798352 0.460746
0.74023 0.836591 0.54406
0.913146 0.870451 0.632425
0.000671397 0.222293 0.568841
0.0559701 0.241093 0.596445
0.352117 0.239139 0.62179
0.578668 0.187991 0.615549
0.742687 0.000350958 0.564095
0 0.292973 0.617441
0.00743114 0.310079 0.640024
0.326589 0.313558 0.670481
0.60798 0.2542 0.650874
0.755459 0.0801099 0.593942
0 0.4318 0.690593
4.57771e-05 0.442908 0.702174
0.257145 0.439338 0.718334
0.638788 0.415625 0.710872
0.805219 0.415473 0.706127
0 0.59794 0.735561
0 0.616587 0.742397
0.356374 0.662577 0.760433
0.659861 0.688151 0.781521
0.852766 0.701488 0.76492
0.166857 0.804761 0.778195
0.382132 0.820691 0.785595
0.526604 0.845548 0.795834
0.67097 0.874891 0.806561
0.911498 0.906035 0.82002
