brand-bible/brands/assets/luts/blkgrlcotoo/709to709_500T_x65_Film_White.cube
TITLE "Generated by Resolve"
LUT_3D_SIZE 65
0.037171 0.0473945 0.0541085
0.0415656 0.0478676 0.0534981
0.0506752 0.048249 0.0532082
0.0613413 0.0479591 0.0521248
0.0689403 0.048127 0.0511025
0.0748608 0.0487831 0.0501411
0.0800946 0.0494698 0.0493782
0.0856641 0.0504463 0.0487221
0.0914168 0.0516213 0.0479286
0.0971237 0.0530098 0.0470436
0.107637 0.0540627 0.0457008
0.118547 0.0548714 0.0443885
0.133822 0.055848 0.0428473
0.152392 0.0567636 0.0409857
0.169848 0.057557 0.0386206
0.185824 0.0581674 0.0360723
0.20235 0.0586404 0.0334173
0.218524 0.058732 0.0301366
0.234348 0.0586709 0.0252689
0.254124 0.0572671 0.0168002
0.273136 0.0560464 0.00595102
0.297795 0.0535897 0
0.319524 0.0528725 3.0518e-05
0.343053 0.050782 4.57771e-05
0.362783 0.0484932 3.0518e-05
0.381384 0.0463111 1.5259e-05
0.398306 0.0414282 1.5259e-05
0.415732 0.0366522 0
0.43061 0.0334173 0
0.443153 0.0281376 0
0.455543 0.0224002 0
0.465827 0.0199435 0
0.475624 0.0176242 0
0.485222 0.0150759 0
0.493965 0.0137789 0
0.50193 0.0125734 0
0.51162 0.0108949 0
0.519524 0.00946059 0
0.530343 0.0062562 0
0.538582 0.000808728 0
0.547768 1.5259e-05 0
0.556664 0 0
0.566018 0 0
0.574929 1.5259e-05 0
0.585061 1.5259e-05 0
0.592737 3.0518e-05 0
0.601633 1.5259e-05 0
0.60882 1.5259e-05 0
0.616999 1.5259e-05 0
0.624826 0 0
0.630426 0 0
0.635523 0 0
0.640314 0 0
0.64509 0 0
0.649332 0 0
0.654185 0 0
0.658442 0 0
0.661616 0 0
0.665019 0 0
0.668482 0 0
0.671839 0 0
0.674968 0 0
0.677623 0 0
0.68098 0 0
0.683543 0 0
0.0385443 0.0504158 0.0552071
0.0437018 0.0513466 0.055436
0.0497139 0.0514534 0.0541848
0.0607614 0.0515755 0.0521248
0.0701152 0.0520943 0.0510567
0.076997 0.0526589 0.0501259
0.0834058 0.053254 0.0493172
0.089601 0.0544594 0.0487831
0.0953384 0.0556802 0.0479744
0.102678 0.0568856 0.0469825
0.112963 0.0575113 0.0457008
0.122652 0.0580301 0.0446326
0.137697 0.0588998 0.043061
0.154543 0.0597238 0.0414282
0.170443 0.0603189 0.0390326
0.185534 0.0612039 0.0369421
0.200122 0.0620279 0.0346532
0.215763 0.0623178 0.0319219
0.230671 0.0627146 0.0283513
0.246616 0.0622721 0.022385
0.265766 0.0613107 0.0147097
0.284474 0.0608682 0.00660716
0.306447 0.0592203 0.00122072
0.326329 0.0585336 1.5259e-05
0.347082 0.0575113 3.0518e-05
0.366598 0.0560159 3.0518e-05
0.385107 0.0551766 3.0518e-05
0.402213 0.054139 1.5259e-05
0.418708 0.0527657 1.5259e-05
0.43386 0.0514839 0
0.447486 0.0497139 0
0.459281 0.0464942 0
0.467872 0.0449531 0
0.477394 0.0429999 0
0.485756 0.0408179 0
0.495399 0.0384527 0
0.50338 0.0351415 0
0.513436 0.0288243 0
0.522866 0.0225223 0
0.532219 0.0163882 0
0.542626 0.0087892 0
0.550774 0.00415045 0
0.560037 0.00415045 0
0.56936 0.00427253 0
0.579232 0.00419623 0
0.588464 0.0037995 0
0.598138 0.00135805 0
0.606287 0.000335698 0
0.613626 0.000427253 0
0.621759 0.000411994 0
0.628794 0.000427253 0
0.634211 0.000427253 0
0.639124 0.000289921 0
0.643977 0.000106813 0
0.6486 0 0
0.653101 0 0
0.657633 0 0
0.662165 0 0
0.665431 0 0
0.66836 0 0
0.671931 0 0
0.675044 0 0
0.678431 0 0
0.681712 0 0
0.684855 0 0
0.0378271 0.0541085 0.0560006
0.0429694 0.0552377 0.0564279
0.0488136 0.0558785 0.0560159
0.0621042 0.055375 0.054612
0.0704814 0.0553597 0.0532387
0.0780499 0.0562295 0.0521248
0.0848249 0.057145 0.0511635
0.090898 0.0581521 0.050248
0.0968795 0.0593118 0.0493782
0.103487 0.0607614 0.048661
0.113527 0.0617838 0.0476081
0.123445 0.0627146 0.0465553
0.135409 0.0634928 0.0451514
0.151049 0.064332 0.043595
0.166354 0.0654002 0.0422217
0.180926 0.0663615 0.0398718
0.196124 0.0674144 0.0373999
0.210697 0.0681621 0.0349279
0.225956 0.0690013 0.0324254
0.240558 0.0697337 0.0289616
0.25742 0.0691539 0.0223087
0.275257 0.0684977 0.0149996
0.293797 0.0682078 0.0081178
0.314 0.0673838 0.00373846
0.332525 0.0665904 3.0518e-05
0.3523 0.0660258 1.5259e-05
0.371374 0.0650187 1.5259e-05
0.389593 0.06392 3.0518e-05
0.408026 0.0626841 3.0518e-05
0.423041 0.0610513 1.5259e-05
0.437934 0.0596017 1.5259e-05
0.448737 0.058732 0
0.461204 0.0569314 0
0.470085 0.0540322 0
0.479057 0.0514229 0
0.488792 0.0493477 0
0.497673 0.0475166 0
0.507958 0.0465248 0
0.516594 0.0444343 0
0.526711 0.0383764 0
0.536782 0.0331884 0
0.545052 0.028397 0
0.555459 0.0217746 0
0.56408 0.0167239 0
0.573953 0.0109255 0
0.584817 0.00669871 0
0.593683 0.00694286 0
0.60325 0.00674449 0
0.611322 0.00476081 0
0.618372 0.00300603 0
0.625513 0.00120546 0
0.632074 0.000991836 0
0.638178 0.000946059 0
0.642847 0.000854505 0
0.647623 0.00077821 0
0.652522 0.000564584 0
0.656703 0.000213626 0
0.661051 3.0518e-05 0
0.665324 0 0
0.669047 0 0
0.672251 0 0
0.675486 0 0
0.678401 0 0
0.681834 0 0
0.685176 0 0
0.0363012 0.0588388 0.0572824
0.0417639 0.0594797 0.0572518
0.0470283 0.0604562 0.0577096
0.0611429 0.0614328 0.0570382
0.0734722 0.0609445 0.0557412
0.0803388 0.0611276 0.0542611
0.0868086 0.0618143 0.0532235
0.0930953 0.0625467 0.052369
0.0986648 0.0633402 0.051667
0.104005 0.0639963 0.0508431
0.113725 0.0650645 0.049958
0.124315 0.0662852 0.0490578
0.134997 0.0670787 0.0477607
0.147997 0.067628 0.0462654
0.162753 0.0684977 0.0448615
0.177569 0.0696727 0.0430304
0.192081 0.0710155 0.0407721
0.206546 0.0723125 0.0385901
0.220691 0.0732128 0.0359503
0.235538 0.0740673 0.0331884
0.250019 0.0748913 0.0300298
0.267445 0.0746319 0.0232242
0.285374 0.0743572 0.016556
0.302068 0.0739147 0.0106661
0.321752 0.0732891 0.00643931
0.339773 0.0726635 0.002533
0.358709 0.0715953 0
0.37847 0.070222 1.5259e-05
0.396521 0.0692607 3.0518e-05
0.412985 0.0683757 3.0518e-05
0.428153 0.0672465 3.0518e-05
0.440482 0.0661479 1.5259e-05
0.453193 0.0653849 1.5259e-05
0.463951 0.0649119 0
0.473213 0.0642863 0
0.483345 0.063386 0
0.491615 0.0626383 0
0.502037 0.0601968 0
0.512322 0.0586099 0
0.52108 0.056611 0
0.531334 0.0527962 0
0.53994 0.0487984 0
0.550912 0.0439155 0
0.560967 0.0388647 0
0.570016 0.0329442 0
0.580575 0.0267491 0
0.589654 0.0213474 0
0.598718 0.0146181 0
0.60824 0.0107576 0
0.615564 0.0090486 0
0.622477 0.0071107 0
0.629252 0.00563058 0
0.63621 0.00509651 0
0.641886 0.00480659 0
0.646693 0.00387579 0
0.651743 0.00427253 0
0.656291 0.00447089 0
0.66096 0.00482185 0
0.664973 0.00408942 0
0.668971 0.00331121 0
0.672496 0.00311284 0
0.675608 0.00344854 0
0.679194 0.00251774 0
0.68249 0.00201419 0
0.685664 0.00108339 0
0.0278782 0.0667735 0.0583658
0.0357977 0.0675059 0.0584726
0.0433204 0.0677348 0.0587167
0.055314 0.0696727 0.0591592
0.0712596 0.0713817 0.0581979
0.0827039 0.0685435 0.0567941
0.0901045 0.0674907 0.0555276
0.0960098 0.0680705 0.054612
0.101045 0.0691997 0.0537728
0.106081 0.0701305 0.0531014
0.114931 0.0710002 0.0523079
0.125063 0.0719615 0.0513619
0.134722 0.072694 0.0504463
0.148348 0.0733654 0.0492103
0.161776 0.0737163 0.0476081
0.175814 0.074403 0.0462959
0.18996 0.0753033 0.0440375
0.202731 0.0762798 0.0418708
0.215946 0.0774395 0.039704
0.231144 0.0783246 0.0365606
0.245594 0.0790112 0.0338293
0.261982 0.0798199 0.0297246
0.278584 0.079881 0.0235294
0.295003 0.0795911 0.0172885
0.312078 0.0793622 0.0118257
0.330861 0.0788739 0.00755322
0.34992 0.0782483 0.00325017
0.368277 0.0775311 0.000167849
0.386419 0.077348 0
0.404456 0.0763104 1.5259e-05
0.421012 0.0756085 3.0518e-05
0.432959 0.0748455 1.5259e-05
0.44509 0.0740978 1.5259e-05
0.456687 0.0738384 1.5259e-05
0.466499 0.073106 0
0.477195 0.0723125 0
0.486259 0.0713359 0
0.496101 0.0698711 0
0.506935 0.068452 0
0.516609 0.0674296 0
0.527199 0.0666819 0
0.537377 0.06392 0
0.547021 0.0605173 0
0.556939 0.0577707 0
0.567071 0.0540322 0
0.576272 0.0508278 0
0.585992 0.04654 0
0.595499 0.040589 0
0.604562 0.0334936 0
0.613382 0.0277409 0
0.620722 0.0241245 0
0.627832 0.022034 0
0.634012 0.0203098 0
0.640436 0.0196078 0
0.646784 0.0184176 0
0.651377 0.0165866 0
0.655741 0.0141909 0
0.659998 0.0140993 0
0.664591 0.0142367 0
0.669169 0.0135958 0
0.673228 0.0132296 0
0.676234 0.0123598 0
0.679347 0.0111086 0
0.682795 0.0106966 0
0.686275 0.0096437 0
0.0199741 0.0741741 0.0597086
0.0292821 0.0744182 0.0596323
0.0380407 0.074876 0.0600443
0.051957 0.0764782 0.0607462
0.065568 0.0783551 0.0605936
0.0795148 0.0804303 0.0592508
0.0907301 0.0784009 0.0581369
0.0985428 0.0770275 0.0567941
0.103548 0.0772869 0.0558328
0.108553 0.0779736 0.0551003
0.117647 0.079057 0.0542153
0.125566 0.0795453 0.0532387
0.135698 0.0797131 0.05243
0.149203 0.0802319 0.0513619
0.162951 0.0803388 0.0500191
0.176791 0.0807202 0.0487831
0.190356 0.0811322 0.0470283
0.203113 0.0817426 0.0450904
0.216632 0.0827039 0.0431983
0.230213 0.0833906 0.04065
0.244068 0.0840467 0.0374609
0.258396 0.0848249 0.0346685
0.273289 0.0847181 0.029984
0.290135 0.0847791 0.0236057
0.306081 0.0848859 0.0181277
0.322484 0.0839246 0.0116426
0.341619 0.0837568 0.00747692
0.359716 0.0833753 0.00349432
0.378378 0.0825818 0.000915541
0.39617 0.0820783 0
0.411826 0.0819562 1.5259e-05
0.425788 0.0823529 1.5259e-05
0.437201 0.0821698 1.5259e-05
0.449165 0.0819867 1.5259e-05
0.460639 0.0816052 1.5259e-05
0.47071 0.0816052 0
0.48217 0.0820783 0
0.492576 0.0818036 0
0.5028 0.0810864 0
0.513588 0.0805524 0
0.523934 0.0797589 0
0.533852 0.0787671 0
0.543954 0.0783398 0
0.553338 0.0773632 0
0.563043 0.0732128 0
0.573297 0.0687877 0
0.583062 0.0661631 0
0.592355 0.0631876 0
0.601358 0.0585184 0
0.61178 0.050782 0
0.619043 0.0447089 0
0.626551 0.0398871 0
0.632837 0.0360418 0
0.639139 0.0331273 0
0.645014 0.0311131 0
0.650752 0.0298314 0
0.655451 0.027924 0
0.660151 0.025452 0
0.66453 0.0234989 0
0.66833 0.0228885 0
0.672694 0.022446 0
0.677104 0.0220645 0
0.680308 0.0209506 0
0.683513 0.0195621 0
0.687053 0.0176699 0
0.010544 0.080415 0.0610819
0.0205997 0.0808576 0.0613107
0.0293736 0.0813611 0.0617685
0.0476387 0.0827649 0.0623026
0.0638895 0.0843977 0.0623941
0.0748455 0.0868391 0.0623941
0.0883955 0.0886549 0.060441
0.0986496 0.0868544 0.0594339
0.106188 0.0852064 0.0578622
0.112581 0.0856184 0.0568856
0.121172 0.0859083 0.0558328
0.129763 0.0868086 0.0548562
0.138705 0.0882429 0.0541085
0.150011 0.0895705 0.053254
0.16379 0.0896773 0.0519112
0.177417 0.0898909 0.0506447
0.191272 0.090486 0.049424
0.204593 0.0911574 0.047425
0.217258 0.0915084 0.0454108
0.230732 0.0921645 0.0433661
0.244846 0.0929885 0.0404212
0.259007 0.0934005 0.0374762
0.273899 0.0932784 0.0338445
0.289448 0.0933394 0.0281987
0.304051 0.0932631 0.0229191
0.319081 0.0929732 0.016556
0.335851 0.0917067 0.00860609
0.354223 0.0915389 0.00456245
0.371633 0.0914931 0.00120546
0.38941 0.0917983 0.00134279
0.404456 0.0912337 4.57771e-05
0.419028 0.0916304 0
0.432013 0.0920272 1.5259e-05
0.443565 0.0917678 1.5259e-05
0.454994 0.0923323 0
0.465965 0.0926833 0
0.476509 0.0920577 0
0.488655 0.091371 0
0.499245 0.0918441 0
0.509194 0.0918135 0
0.519417 0.0921035 0
0.530297 0.0908522 0
0.53994 0.0896925 0
0.549493 0.088777 0
0.560159 0.0877546 0
0.569635 0.0860761 0
0.580667 0.0809949 0
0.590295 0.0783398 0
0.599039 0.0748302 0
0.60853 0.0713512 0
0.617838 0.0654612 0
0.625498 0.0594797 0
0.63151 0.0542306 0
0.637934 0.0496681 0
0.643778 0.04448 0
0.649851 0.0424659 0
0.655497 0.0406348 0
0.659617 0.037995 0
0.664302 0.0361944 0
0.668544 0.0343175 0
0.672862 0.0317845 0
0.677302 0.0310826 0
0.680766 0.0294652 0
0.684062 0.0280003 0
0.687404 0.0260624 0
0.00355535 0.0865339 0.0628061
0.0119478 0.087068 0.0629892
0.024094 0.0875105 0.0633555
0.0426642 0.0883192 0.0635843
0.0612345 0.0903029 0.0642252
0.073228 0.0925154 0.0641794
0.082002 0.0946365 0.0638895
0.0967269 0.0969406 0.0617685
0.106584 0.0957504 0.0610361
0.116777 0.09337 0.0591287
0.125963 0.0934615 0.057847
0.134524 0.0940566 0.0568399
0.143236 0.0952621 0.0561074
0.155215 0.0966201 0.0550698
0.166293 0.0976883 0.0539406
0.178271 0.0990768 0.0529183
0.192493 0.0995804 0.0513619
0.204822 0.0998398 0.0496834
0.217945 0.100511 0.0477607
0.232181 0.10135 0.045594
0.246433 0.102007 0.0433356
0.260288 0.102358 0.0400549
0.274891 0.102998 0.0367285
0.290272 0.102937 0.0324865
0.304555 0.103029 0.0265049
0.319066 0.102968 0.0206149
0.33579 0.101854 0.012192
0.351843 0.100908 0.00442512
0.367071 0.100649 0.00199893
0.382544 0.100114 0.00015259
0.398093 0.100404 0.000106813
0.411643 0.10074 4.57771e-05
0.42594 0.10071 0
0.437781 0.101152 0
0.448447 0.101442 0
0.459632 0.101686 0
0.471168 0.102266 0
0.482994 0.101991 0
0.494026 0.102235 0
0.504875 0.102327 0
0.514565 0.101823 0
0.525582 0.101076 0
0.536461 0.100938 0
0.546044 0.100206 0
0.556451 0.0985428 0
0.566796 0.0971847 0
0.57821 0.0948348 0
0.587457 0.0929274 0
0.597406 0.0897383 0
0.606836 0.0865187 0
0.615228 0.0826429 0
0.623957 0.0789654 0
0.630304 0.0747692 0
0.636851 0.0700694 0
0.64303 0.0650187 0
0.648463 0.0599832 0
0.654627 0.0552071 0
0.6598 0.0513924 0
0.664469 0.0487373 0
0.668711 0.0457008 0
0.672663 0.0432441 0
0.677089 0.0406653 0
0.681346 0.0376287 0
0.684886 0.0348058 0
0.688411 0.0327459 0
0.00311284 0.0925154 0.0649577
0.00856031 0.09308 0.0650339
0.0212558 0.0932174 0.0651102
0.0425574 0.0941482 0.0652018
0.0605478 0.0959945 0.0660563
0.0723735 0.0982681 0.0661326
0.0810559 0.100023 0.0657816
0.0915389 0.102678 0.0654154
0.105409 0.105486 0.0637522
0.115526 0.104326 0.0627604
0.129747 0.101671 0.0605783
0.139406 0.101747 0.059266
0.149126 0.102342 0.0580758
0.160891 0.103166 0.0568551
0.172808 0.104494 0.055787
0.18468 0.106004 0.0547494
0.195468 0.107347 0.0535439
0.207324 0.108858 0.0521553
0.220905 0.10959 0.0502327
0.234745 0.110231 0.0481422
0.248936 0.110979 0.0458991
0.262638 0.111437 0.0432136
0.276295 0.112276 0.0403143
0.291142 0.112322 0.0353552
0.305684 0.11194 0.0310979
0.320348 0.112154 0.0251469
0.336065 0.112016 0.017731
0.351217 0.11078 0.0103151
0.366064 0.110002 0.00315862
0.380972 0.109895 0.000198367
0.395865 0.110414 0.000198367
0.408682 0.110201 0.00015259
0.420661 0.110002 0.000106813
0.432288 0.11043 4.57771e-05
0.4439 0.110948 0
0.454017 0.111498 0
0.465431 0.111574 0
0.478126 0.11165 0
0.48867 0.11162 0
0.500343 0.11162 0
0.511116 0.111864 0
0.52253 0.110994 0
0.532647 0.110094 0
0.543816 0.109667 0
0.554406 0.109041 0
0.563592 0.107652 0
0.575402 0.105226 0
0.585763 0.103532 0
0.595544 0.101747 0
0.60415 0.0996719 0
0.613352 0.0961318 0
0.622477 0.0924544 0
0.629953 0.0896773 0
0.636225 0.0874037 0
0.642466 0.0832837 0
0.649027 0.0776837 0
0.655085 0.0722515 0
0.660212 0.0670939 0
0.665278 0.0641947 0
0.669398 0.0607004 0
0.673884 0.057557 0
0.67808 0.0543221 0
0.681956 0.0512703 0
0.685863 0.0476844 0
0.689158 0.0431067 0
0.00236515 0.098497 0.0671397
0.00784314 0.0986648 0.0669413
0.0195468 0.0990768 0.0670787
0.041413 0.0999313 0.0672007
0.0601358 0.101564 0.0678111
0.0704814 0.103319 0.0680552
0.0797131 0.105409 0.0677806
0.0892805 0.107668 0.0677043
0.0998093 0.110521 0.0669261
0.113359 0.112917 0.0652171
0.128817 0.112001 0.0641184
0.143114 0.10988 0.0621042
0.155795 0.109529 0.0602579
0.166995 0.109834 0.058854
0.179141 0.111101 0.0577859
0.191241 0.112459 0.0566567
0.202365 0.114 0.0552834
0.212985 0.115389 0.0538643
0.224186 0.117372 0.0524758
0.236698 0.118944 0.0506752
0.25008 0.119142 0.0483864
0.264622 0.119783 0.0460822
0.27863 0.120623 0.0431373
0.29221 0.120882 0.039353
0.30695 0.120851 0.0345617
0.321843 0.121218 0.0300908
0.336797 0.12108 0.0235752
0.35201 0.120562 0.0163577
0.367285 0.120623 0.00973526
0.381353 0.119921 0.00326543
0.395712 0.119844 0.000106813
0.407568 0.11986 0.000122072
0.420233 0.1205 0.000122072
0.430335 0.120943 0.000106813
0.441932 0.121157 4.57771e-05
0.451972 0.12105 1.5259e-05
0.462654 0.120516 1.5259e-05
0.473655 0.120592 0
0.484764 0.12079 0
0.49601 0.120592 0
0.506981 0.120439 0
0.519219 0.120134 0
0.529564 0.119783 0
0.540154 0.118914 0
0.550988 0.118486 0
0.561624 0.117525 0
0.572702 0.115984 0
0.582269 0.114305 0
0.593088 0.11191 0
0.602869 0.110033 0
0.612116 0.108019 0
0.620615 0.104936 0
0.628977 0.101595 0
0.636667 0.098909 0
0.642557 0.0969558 0
0.648585 0.094377 0
0.655009 0.0892042 0
0.660716 0.0836194 0
0.666545 0.0785534 0
0.670695 0.0758679 0
0.674632 0.0726024 0
0.678843 0.0694591 0
0.682841 0.0656748 0
0.687282 0.0620737 0
0.691157 0.0582895 0
0.000259403 0.10663 0.0692454
0.00616464 0.10631 0.0690776
0.0176699 0.106508 0.0690166
0.0370642 0.106889 0.0691234
0.0552224 0.108034 0.0695811
0.0698863 0.109514 0.0698863
0.078233 0.111849 0.06981
0.0875715 0.114321 0.0697185
0.0962234 0.117052 0.0695354
0.107836 0.119997 0.0683757
0.125872 0.121721 0.0668498
0.142931 0.119936 0.0656901
0.15848 0.117494 0.0632334
0.173739 0.116976 0.0610056
0.185794 0.1178 0.0597848
0.197498 0.11902 0.0585489
0.20911 0.120577 0.0570382
0.219257 0.121904 0.0557259
0.230259 0.12372 0.0544594
0.241337 0.125505 0.0528878
0.252964 0.127016 0.0508736
0.267369 0.127993 0.0486763
0.281331 0.128801 0.0465553
0.29424 0.129244 0.0423285
0.309285 0.129549 0.0374456
0.323949 0.129625 0.0331426
0.337896 0.129824 0.0285344
0.353979 0.129534 0.0205081
0.368734 0.129213 0.0133211
0.383246 0.128985 0.0065919
0.3953 0.128832 0.00209049
0.407782 0.12871 7.62951e-05
0.418692 0.129137 0
0.428946 0.12958 1.5259e-05
0.440024 0.130175 1.5259e-05
0.45069 0.130617 1.5259e-05
0.461112 0.130098 1.5259e-05
0.471778 0.130175 1.5259e-05
0.483253 0.130236 1.5259e-05
0.494148 0.130358 1.5259e-05
0.504845 0.129976 0
0.515724 0.129229 0
0.526085 0.128832 0
0.537102 0.128145 0
0.547997 0.127947 0
0.558541 0.12694 0
0.568963 0.125521 0
0.580255 0.123995 0
0.590906 0.121981 0
0.600793 0.119677 0
0.610773 0.117159 0
0.619928 0.115206 0
0.628214 0.112779 0
0.636027 0.109606 0
0.642878 0.107134 0
0.64921 0.105013 0
0.65536 0.103136 0
0.660807 0.100099 0
0.666667 0.0933547 0
0.671855 0.08925 0
0.676249 0.0868696 0
0.680446 0.0838941 0
0.684733 0.0815137 0
0.688777 0.0769513 0
0.692744 0.0723278 0
0 0.114626 0.0714427
0.00485237 0.114504 0.0714122
0.0194858 0.114885 0.0710765
0.035172 0.115267 0.0709544
0.0519265 0.115999 0.0712291
0.0664836 0.117845 0.0713664
0.0781872 0.120027 0.0714122
0.0868391 0.122332 0.0713207
0.0949111 0.124758 0.0711528
0.102403 0.127306 0.0708171
0.11577 0.130983 0.0698405
0.139437 0.132906 0.0681315
0.156435 0.129442 0.0668498
0.176257 0.125643 0.0641337
0.192447 0.124834 0.0619059
0.203845 0.12578 0.0606546
0.214893 0.12697 0.0590829
0.225834 0.128176 0.0574807
0.237034 0.130007 0.0563211
0.248463 0.13167 0.0547494
0.259617 0.133181 0.0527047
0.272343 0.135225 0.050782
0.284428 0.136965 0.0491951
0.297032 0.137209 0.046128
0.31165 0.137346 0.040589
0.326329 0.137819 0.0353094
0.340185 0.137972 0.0311131
0.355612 0.137652 0.0231022
0.370214 0.137819 0.0163272
0.384329 0.137514 0.00929274
0.396048 0.137026 0.00331121
0.408591 0.137484 0.00120546
0.419135 0.137881 0.000869764
0.429389 0.138491 0.000198367
0.440146 0.138842 0
0.45095 0.139452 0
0.461173 0.139635 1.5259e-05
0.470893 0.139574 1.5259e-05
0.482933 0.139757 1.5259e-05
0.49398 0.139849 0
0.505425 0.139574 0
0.517006 0.138903 0
0.526375 0.13814 0
0.536782 0.137377 0
0.545998 0.136294 0
0.556848 0.135271 0
0.567529 0.134112 0
0.578241 0.132174 0
0.58938 0.130495 0
0.600107 0.12874 0
0.609461 0.126345 0
0.618601 0.124056 0
0.627878 0.121614 0
0.635691 0.119417 0
0.642908 0.117739 0
0.64918 0.114977 0
0.655039 0.112734 0
0.66154 0.110338 0
0.66775 0.108217 0
0.673289 0.105211 0
0.677699 0.100954 0
0.681773 0.0975814 0
0.685878 0.0945449 0
0.690379 0.0915541 0
0.694713 0.0882582 0
0 0.123369 0.0736553
0.00802625 0.123095 0.0735027
0.0210727 0.123507 0.0733196
0.033341 0.123644 0.0728466
0.0476234 0.124407 0.072755
0.0616922 0.126116 0.0727855
0.0747539 0.128115 0.0729229
0.0865339 0.130434 0.0728771
0.0941634 0.132586 0.072694
0.101518 0.135073 0.0724193
0.109071 0.138018 0.072221
0.129122 0.141924 0.0705425
0.152163 0.142901 0.0688945
0.174533 0.139879 0.0668193
0.194354 0.13518 0.0644236
0.210712 0.132692 0.0619821
0.221393 0.13341 0.0604562
0.231769 0.134386 0.0589761
0.243732 0.136217 0.0575418
0.254917 0.137881 0.0560922
0.266484 0.139559 0.0541085
0.277943 0.141299 0.0521401
0.289158 0.143191 0.050309
0.300038 0.145022 0.0479591
0.313161 0.145144 0.0436561
0.327367 0.145205 0.0387579
0.341619 0.145678 0.0336461
0.355932 0.145586 0.0269169
0.369802 0.145388 0.01944
0.384817 0.145708 0.0124819
0.397559 0.145815 0.00656138
0.40943 0.145861 0.00257877
0.420218 0.146075 0.00178531
0.431373 0.146715 0.00115969
0.441703 0.147234 0.000595102
0.452079 0.148028 0.000122072
0.462898 0.148669 0
0.472343 0.148699 0
0.482277 0.14844 0
0.493172 0.148653 0
0.505409 0.14847 0
0.51667 0.147784 0
0.527565 0.146914 0
0.537469 0.145815 0
0.547158 0.144884 0
0.557641 0.143557 0
0.567864 0.142016 0
0.577798 0.140154 0
0.587823 0.138415 0
0.598505 0.13666 0
0.609415 0.13463 0
0.618158 0.132845 0
0.626551 0.130312 0
0.634897 0.128359 0
0.642344 0.126329 0
0.650111 0.124147 0
0.656336 0.122286 0
0.662013 0.120012 0
0.668055 0.117311 0
0.674098 0.115297 0
0.679576 0.11339 0
0.683848 0.11162 0
0.688182 0.10959 0
0.692164 0.106081 0
0.696468 0.10367 0
0.000167849 0.134676 0.076051
0.00582895 0.134676 0.0750591
0.0190127 0.134508 0.0747387
0.0310826 0.134051 0.0743572
0.0446021 0.134264 0.0738994
0.057847 0.135821 0.0739605
0.0706493 0.137636 0.0740978
0.0821393 0.139437 0.0741131
0.0931716 0.14226 0.0737774
0.100313 0.144671 0.0734874
0.107485 0.147646 0.0732128
0.119005 0.150988 0.0725719
0.142336 0.154086 0.0705577
0.168292 0.154665 0.068925
0.191073 0.150561 0.0670176
0.21088 0.146517 0.0644999
0.228275 0.143847 0.0613718
0.238911 0.144167 0.0597848
0.250111 0.145342 0.0582895
0.262242 0.147189 0.0561685
0.273457 0.148943 0.054139
0.283635 0.15024 0.052369
0.295003 0.151934 0.0504921
0.306096 0.153597 0.0476234
0.318029 0.154879 0.0431525
0.329915 0.156725 0.0389258
0.344015 0.156741 0.0339818
0.358343 0.156542 0.0283818
0.372671 0.156313 0.0212406
0.387259 0.156115 0.0135653
0.400122 0.155962 0.00772107
0.411734 0.155871 0.00270085
0.42385 0.156619 0.00303655
0.433631 0.156664 0.00238041
0.444221 0.157214 0.00172427
0.453834 0.157488 0.00117494
0.464836 0.1579 0.000518807
0.475303 0.158267 0.000122072
0.484092 0.157733 0
0.494072 0.157336 0
0.504768 0.15697 1.5259e-05
0.516426 0.156161 1.5259e-05
0.528054 0.155184 3.0518e-05
0.538766 0.153994 1.5259e-05
0.548196 0.152987 0
0.558343 0.151827 0
0.569009 0.15053 0
0.579583 0.148699 0
0.589532 0.146777 0
0.597848 0.144762 0
0.60795 0.142611 0
0.617655 0.14078 0
0.626535 0.138827 0
0.635264 0.137057 0
0.642924 0.135012 0
