brand-bible/brands/assets/luts/blkgrlco/The Everyday LUT.cube
TITLE "Generated by Resolve"
LUT_3D_SIZE 5
# The Everyday LUT
# Created by Nicholas Di Giugno aka ToldbyNick
0.00288396 0.00352483 0.00364691
0.155108 0.0151827 0.0136568
0.355215 0.0291752 0.0239414
0.566125 0.025452 0.0275578
0.748318 0.0345769 0.038529
0.0470588 0.146715 0.0453651
0.16611 0.154955 0.0533761
0.402518 0.136172 0.0314183
0.661143 0.118837 0.0480812
0.799084 0.0637217 0.0454261
0.129412 0.3393 0.10782
0.161349 0.338628 0.114504
0.410803 0.363699 0.127337
0.640543 0.336812 0.0887312
0.900984 0.332937 0.106264
0.209705 0.563561 0.196246
0.224155 0.561791 0.198215
0.354833 0.576608 0.230472
0.66389 0.640452 0.258701
0.903166 0.585473 0.182803
0.376562 0.841245 0.450614
0.392355 0.840604 0.454719
0.478004 0.822354 0.462837
0.672221 0.855375 0.555642
0.978607 0.959442 0.771939
0.060914 0.113893 0.339788
0.139986 0.0219883 0.135943
0.326848 0.0211185 0.108782
0.550118 0.0207218 0.10428
0.760281 0.0315862 0.113237
0.0485084 0.14847 0.141497
0.153002 0.15169 0.146777
0.398947 0.140764 0.130282
0.631235 0.0968185 0.123018
0.766201 0.0379187 0.10985
0.121447 0.343648 0.166781
0.150668 0.342641 0.170779
0.395178 0.367315 0.200259
0.631373 0.336904 0.157046
0.91165 0.339055 0.177523
0.207477 0.562493 0.225299
0.220676 0.560265 0.224491
0.346502 0.571252 0.250385
0.656245 0.638071 0.279454
0.897795 0.58143 0.209644
0.362005 0.838285 0.438453
0.385931 0.840208 0.450248
0.468467 0.82327 0.458305
0.657404 0.851057 0.53431
0.977462 0.955718 0.758694
0.238285 0.176226 0.601617
0.145785 0.0927749 0.34995
0.326802 0.0345006 0.315679
0.553521 0.0194095 0.29601
0.782025 0.00486763 0.267765
0.0682078 0.191135 0.344137
0.137835 0.195956 0.360159
0.389639 0.138888 0.364782
0.633158 0.0823224 0.3205
0.77734 0.00714122 0.250767
0.0972152 0.378241 0.36733
0.130434 0.378958 0.36939
0.381155 0.374212 0.366964
0.680369 0.363043 0.329351
0.960983 0.353613 0.341497
0.212833 0.590829 0.358099
0.230289 0.588006 0.357412
0.345739 0.578973 0.358648
0.642054 0.641047 0.427649
0.877623 0.568582 0.321416
0.336736 0.849592 0.4795
0.338476 0.850706 0.482353
0.370459 0.85388 0.488396
0.606943 0.832639 0.50573
0.973327 0.94435 0.722591
0.987778 0.398642 0.926421
0.191073 0.159411 0.538674
0.322438 0.121996 0.526055
0.57348 0.0580911 0.561257
0.819242 0.036347 0.580423
0.115816 0.271382 0.582361
0.145922 0.276005 0.594675
0.369482 0.252003 0.640513
0.634043 0.131991 0.616632
0.813413 0.0356451 0.560357
0.0804303 0.42739 0.609262
0.107652 0.427741 0.613153
0.326345 0.419303 0.634974
0.680949 0.364965 0.643519
0.980072 0.337865 0.637263
0.195315 0.652964 0.634104
0.206378 0.651011 0.633021
0.323247 0.66276 0.646571
0.652247 0.649821 0.631662
0.958679 0.609445 0.540871
0.350973 0.914092 0.651362
0.35111 0.914488 0.652567
0.380423 0.918181 0.65388
0.605982 0.834928 0.604669
0.979187 0.943709 0.753979
0.99086 0.625513 0.921492
0.350942 0.20119 0.700847
0.390204 0.222644 0.741253
0.60412 0.184604 0.749035
0.844846 0.10312 0.811627
0.178256 0.356237 0.770443
0.191745 0.357397 0.776745
0.389746 0.349554 0.821439
0.649226 0.285008 0.831785
0.876753 0.135515 0.840665
0.128954 0.48893 0.806592
0.132464 0.487068 0.807355
0.326802 0.491142 0.846738
0.625849 0.441215 0.876966
0.974105 0.344915 0.918074
0.0975357 0.67454 0.847547
0.0984054 0.672312 0.846998
0.180835 0.686961 0.877134
0.558572 0.67216 0.912047
0.991272 0.600137 0.923568
0.302739 0.971481 0.940032
0.302419 0.971038 0.93959
0.311101 0.971054 0.943221
0.615045 0.970733 0.944503
0.987945 0.975601 0.950637
