brand-bible/brands/assets/luts/blkgrlco/The Everyday LUT.cube
TITLE "Generated by Resolve"
LUT_3D_SIZE 9
# The Everyday LUT
# Created by Nicholas Di Giugno aka ToldbyNick
0.00288396 0.00352483 0.00364691
0.0734264 0.00898756 0.00793469
0.155108 0.0151827 0.0136568
0.252934 0.0243381 0.0195315
0.355215 0.0291752 0.0239414
0.457847 0.0278172 0.0263066
0.566125 0.025452 0.0275578
0.713619 0.0371252 0.0356603
0.748318 0.0345769 0.038529
0.0280461 0.0711528 0.0255436
0.0766918 0.0754711 0.0320287
0.160952 0.0745251 0.0296941
0.259556 0.0597238 0.0274357
0.360403 0.0493324 0.0277104
0.463218 0.0416571 0.0282444
0.548012 0.0252537 0.0271
0.710872 0.0435187 0.0368811
0.746838 0.0344549 0.0381323
0.0470588 0.146715 0.0453651
0.0721904 0.149645 0.0500191
0.16611 0.154955 0.0533761
0.275502 0.144869 0.0370031
0.402518 0.136172 0.0314183
0.534279 0.132708 0.0393683
0.661143 0.118837 0.0480812
0.772061 0.095201 0.0532387
0.799084 0.0637217 0.0454261
0.0817578 0.235004 0.0683604
0.0906386 0.235462 0.0702525
0.150637 0.241184 0.0846418
0.287633 0.250507 0.0786297
0.397559 0.231998 0.0547646
0.523812 0.223438 0.0468452
0.67248 0.227527 0.0648051
0.816022 0.23122 0.0880446
0.928145 0.225269 0.0991836
0.129412 0.3393 0.10782
0.133471 0.338293 0.108217
0.161349 0.338628 0.114504
0.266072 0.359243 0.148013
0.410803 0.363699 0.127337
0.519951 0.343893 0.0961929
0.640543 0.336812 0.0887312
0.776776 0.335378 0.0953689
0.900984 0.332937 0.106264
0.171481 0.441886 0.148318
0.174502 0.441184 0.14873
0.19675 0.44065 0.152911
0.248707 0.441718 0.164706
0.382101 0.478416 0.201984
0.526955 0.485328 0.181979
0.641337 0.464469 0.149325
0.757183 0.450309 0.133745
0.884337 0.436316 0.127367
0.209705 0.563561 0.196246
0.208652 0.561471 0.195315
0.224155 0.561791 0.198215
0.267887 0.565911 0.20679
0.354833 0.576608 0.230472
0.519722 0.631281 0.274342
0.66389 0.640452 0.258701
0.800214 0.615854 0.216403
0.903166 0.585473 0.182803
0.280247 0.709957 0.262211
0.279667 0.708721 0.261677
0.278752 0.706813 0.260838
0.297978 0.707698 0.264164
0.371511 0.709117 0.274479
0.51516 0.738705 0.318059
0.671748 0.792874 0.349218
0.84889 0.798688 0.329519
0.980926 0.760632 0.272694
0.376562 0.841245 0.450614
0.379431 0.841321 0.451774
0.392355 0.840604 0.454719
0.422477 0.834928 0.457725
0.478004 0.822354 0.462837
0.558556 0.823255 0.49044
0.672221 0.855375 0.555642
0.830259 0.917006 0.679118
0.978607 0.959442 0.771939
0.0207828 0.0380102 0.124941
0.0711376 0.0119478 0.0703746
0.143191 0.0132753 0.0557107
0.233295 0.0204623 0.0540017
0.332967 0.0253758 0.0550546
0.431449 0.0227359 0.0546273
0.549615 0.0257877 0.0563363
0.696162 0.0355077 0.0628061
0.751003 0.0357977 0.0654612
0.0300603 0.0702373 0.0677958
0.072694 0.0733196 0.0714275
0.152682 0.0710155 0.066392
0.245365 0.0567636 0.0609598
0.344564 0.0483558 0.0581521
0.438972 0.0375067 0.0555581
0.532815 0.0254215 0.0526284
0.693614 0.0415045 0.0606851
0.749172 0.0355993 0.0618296
0.0462196 0.144045 0.0753185
0.0695659 0.145937 0.0788891
0.157351 0.151614 0.0874189
0.26453 0.145037 0.0707256
0.39234 0.13756 0.0641184
0.523201 0.132342 0.0675822
0.643885 0.109712 0.0692607
0.765225 0.094667 0.074815
0.773785 0.0486458 0.0639048
0.0801404 0.23418 0.0848707
0.0888838 0.234592 0.0864729
0.146212 0.23949 0.100374
0.279545 0.249851 0.101488
0.390234 0.231891 0.0756695
0.519448 0.223239 0.0666972
0.671031 0.229129 0.0843519
0.815915 0.231846 0.105653
0.930282 0.223667 0.115068
0.128176 0.338277 0.117891
0.13228 0.337224 0.118227
0.159884 0.337621 0.124147
0.26099 0.355718 0.155886
0.406165 0.362951 0.139178
0.515053 0.342321 0.107393
0.636881 0.335073 0.0992142
0.774807 0.333669 0.104005
0.901396 0.330587 0.110231
0.170428 0.440192 0.150347
0.173465 0.43946 0.150195
0.195743 0.438727 0.153262
0.247623 0.440131 0.16466
0.379355 0.476326 0.201984
0.524788 0.48304 0.18172
0.638727 0.462165 0.148974
0.755505 0.448508 0.1337
0.884092 0.434455 0.127886
0.208774 0.561944 0.195499
0.207584 0.559747 0.194491
0.222889 0.560143 0.197406
0.266606 0.564263 0.205997
0.353246 0.575158 0.229648
0.518685 0.63006 0.273838
0.662364 0.639338 0.25832
0.798856 0.614572 0.216648
0.902754 0.584115 0.182223
0.279713 0.708827 0.261723
0.279225 0.707759 0.261265
0.27837 0.705959 0.260487
0.2972 0.706905 0.263752
0.370565 0.708186 0.274022
0.514229 0.737697 0.317586
0.670558 0.791806 0.34876
0.847425 0.797711 0.329137
0.980606 0.759426 0.272129
0.375525 0.841108 0.449851
0.378347 0.841184 0.451011
0.391409 0.840574 0.454185
0.421592 0.835096 0.457404
0.476509 0.822568 0.462242
0.556985 0.822995 0.48864
0.66894 0.854475 0.549325
0.830121 0.917266 0.675227
0.977981 0.958129 0.766613
0.060914 0.113893 0.339788
0.0621805 0.0407568 0.173571
0.139986 0.0219883 0.135943
0.22562 0.0191043 0.118791
0.326848 0.0211185 0.108782
0.429526 0.0191806 0.104555
0.550118 0.0207218 0.10428
0.689342 0.0269017 0.108858
0.760281 0.0315862 0.113237
0.0296483 0.0770275 0.136889
0.0641794 0.0793317 0.141955
0.148836 0.0693675 0.140978
0.240421 0.0520638 0.121218
0.342168 0.0427863 0.109895
0.43238 0.0297704 0.103426
0.534905 0.0211185 0.0998093
0.685405 0.0331731 0.107179
0.758221 0.0320745 0.109575
0.0485084 0.14847 0.141497
0.073228 0.150256 0.143877
0.153002 0.15169 0.146777
0.269215 0.148211 0.133974
0.398947 0.140764 0.130282
0.525963 0.130236 0.128939
0.631235 0.0968185 0.123018
0.761837 0.0918593 0.129549
0.766201 0.0379187 0.10985
0.0747845 0.240528 0.143832
0.0813001 0.24007 0.144259
0.140352 0.243946 0.153994
0.265385 0.25272 0.168002
0.384649 0.239475 0.145632
0.521798 0.234363 0.14023
0.678004 0.239338 0.153719
0.823453 0.23357 0.166918
0.939437 0.21416 0.170336
0.121447 0.343648 0.166781
0.125109 0.342611 0.166552
0.150668 0.342641 0.170779
0.245136 0.351293 0.195438
0.395178 0.367315 0.200259
0.504921 0.34551 0.167727
0.631373 0.336904 0.157046
0.777111 0.338766 0.165209
0.91165 0.339055 0.177523
0.168978 0.44329 0.193957
0.171786 0.442496 0.193835
0.19324 0.441718 0.196872
0.243381 0.441413 0.205936
0.370077 0.470832 0.243244
0.515633 0.48629 0.235843
0.628 0.462608 0.199542
0.750256 0.447349 0.180514
0.886397 0.434546 0.175601
0.207477 0.562493 0.225299
0.206439 0.560449 0.223377
0.220676 0.560265 0.224491
0.26482 0.564034 0.231846
0.346502 0.571252 0.250385
0.512444 0.626032 0.295308
0.656245 0.638071 0.279454
0.793561 0.612467 0.23447
0.897795 0.58143 0.209644
0.279652 0.709133 0.282826
0.27924 0.708232 0.282414
0.278416 0.706462 0.281285
0.295308 0.707103 0.283116
0.366766 0.707469 0.29041
0.505043 0.732158 0.328038
0.666423 0.789334 0.360372
0.843458 0.796139 0.335073
0.978515 0.758129 0.289464
0.362005 0.838285 0.438453
0.366155 0.839002 0.441215
0.385931 0.840208 0.450248
0.414694 0.83595 0.454139
0.468467 0.82327 0.458305
0.548898 0.821683 0.479332
0.657404 0.851057 0.53431
0.816785 0.914595 0.649897
0.977462 0.955718 0.758694
0.0966201 0.170077 0.504829
0.0766155 0.0870985 0.312428
0.136141 0.0505074 0.240085
0.227237 0.0295109 0.218662
0.324681 0.0239414 0.204822
0.426093 0.0159609 0.186938
0.549157 0.0132143 0.175601
0.690822 0.0171969 0.173159
0.769711 0.0209354 0.173861
0.0429847 0.0988327 0.231266
0.0572366 0.100114 0.234043
0.138048 0.0909438 0.238987
0.231815 0.0526741 0.219196
0.332647 0.0428016 0.206378
0.433753 0.0280461 0.185809
0.536904 0.014786 0.16788
0.682872 0.0210117 0.167697
0.767712 0.0218814 0.167437
0.0363165 0.158923 0.227604
0.046128 0.15903 0.228397
0.138781 0.163714 0.24683
0.264759 0.141924 0.244892
0.39379 0.132387 0.223346
0.527077 0.114382 0.204608
0.624735 0.0737011 0.185153
0.760067 0.0724498 0.188144
0.76614 0.0222934 0.164202
0.0652476 0.251835 0.242969
0.070634 0.251286 0.242496
0.133684 0.256672 0.249714
0.258534 0.255436 0.250935
0.411124 0.249577 0.226154
0.54873 0.246311 0.22652
0.695125 0.241871 0.230671
0.832868 0.22208 0.231983
0.942199 0.190707 0.226047
0.115007 0.358862 0.240345
0.11722 0.357214 0.239109
0.137881 0.356069 0.240635
0.24033 0.358831 0.253483
0.3841 0.368933 0.270191
0.504265 0.351064 0.234668
0.636988 0.345464 0.2271
0.791379 0.352346 0.240345
0.933593 0.351186 0.251209
0.168231 0.453162 0.250355
0.170718 0.452155 0.249866
0.191058 0.450507 0.251255
0.24007 0.448493 0.256275
0.357321 0.461784 0.286702
0.508629 0.486275 0.297719
0.616526 0.458686 0.255344
0.745159 0.444266 0.234928
0.893553 0.438453 0.237598
0.206851 0.56936 0.27953
0.205524 0.566949 0.277699
0.222171 0.566979 0.279622
0.266377 0.568612 0.285573
0.34255 0.568429 0.297444
0.499763 0.615869 0.348318
0.645518 0.640208 0.352956
0.779904 0.609796 0.303044
0.888395 0.577371 0.263981
0.280507 0.7149 0.335622
0.280064 0.714015 0.335241
0.279332 0.712398 0.333989
0.295888 0.712306 0.335027
0.363073 0.708858 0.338018
0.481086 0.716609 0.36228
0.657359 0.783703 0.41767
0.831571 0.799924 0.413077
0.968093 0.755703 0.352102
0.336782 0.835996 0.435431
0.338033 0.8365 0.436805
0.344015 0.837964 0.440192
0.360159 0.840284 0.44567
0.404639 0.836942 0.449683
0.520302 0.819028 0.462333
0.648829 0.847791 0.526925
0.808103 0.912047 0.636133
0.974548 0.949615 0.736309
0.238285 0.176226 0.601617
0.0944381 0.136446 0.440101
0.145785 0.0927749 0.34995
0.222675 0.0654612 0.318502
0.326802 0.0345006 0.315679
0.434791 0.0236057 0.308782
0.553521 0.0194095 0.29601
0.694621 0.00675975 0.276173
0.782025 0.00486763 0.267765
0.0679637 0.13463 0.342199
0.0824598 0.136034 0.346471
0.141543 0.131365 0.345022
0.230411 0.100221 0.33254
0.336187 0.0549477 0.322484
0.439017 0.0361944 0.309407
0.547982 0.0235142 0.28835
0.685924 0.00978103 0.267689
0.778897 0.00630198 0.25658
0.0682078 0.191135 0.344137
0.0775006 0.191348 0.345647
0.137835 0.195956 0.360159
0.24715 0.176455 0.367483
0.389639 0.138888 0.364782
0.51548 0.120363 0.355352
0.633158 0.0823224 0.3205
0.768139 0.0569162 0.297536
0.77734 0.00714122 0.250767
0.03299 0.263767 0.346502
0.0438697 0.265049 0.348882
0.105241 0.27686 0.365866
0.230396 0.27335 0.381201
0.405554 0.243748 0.375357
0.548409 0.2383 0.356481
0.703792 0.226734 0.335119
0.840879 0.196155 0.321569
0.945144 0.15169 0.303304
0.0972152 0.378241 0.36733
0.0995804 0.376654 0.365713
0.130434 0.378958 0.36939
0.233112 0.382712 0.374624
0.381155 0.374212 0.366964
0.539269 0.366979 0.33666
0.680369 0.363043 0.329351
0.825849 0.365225 0.337636
0.960983 0.353613 0.341497
0.172732 0.480766 0.352407
0.174334 0.479637 0.351614
0.188418 0.47808 0.351995
0.230961 0.475502 0.353201
0.359747 0.464576 0.363348
0.505226 0.487358 0.386603
0.62121 0.463874 0.331716
0.759045 0.453346 0.314168
0.923339 0.46099 0.332494
0.212833 0.590829 0.358099
0.21297 0.588479 0.356085
0.230289 0.588006 0.357412
0.27277 0.587289 0.359564
0.345739 0.578973 0.358648
0.485939 0.603281 0.397559
0.642054 0.641047 0.427649
0.766354 0.598825 0.359731
0.877623 0.568582 0.321416
0.281575 0.731685 0.405066
0.281086 0.730663 0.404547
0.280354 0.728954 0.402991
0.300145 0.728634 0.404593
0.361959 0.718227 0.399313
0.459083 0.703716 0.400259
0.642954 0.76878 0.471077
0.824414 0.798733 0.487877
0.948592 0.745403 0.409766
0.336736 0.849592 0.4795
0.337072 0.85005 0.480735
0.338476 0.850706 0.482353
0.343008 0.851804 0.484321
0.370459 0.85388 0.488396
0.478386 0.822309 0.473854
0.606943 0.832639 0.50573
0.805646 0.910384 0.634852
0.973327 0.94435 0.722591
0.766979 0.169589 0.811109
0.170199 0.155825 0.533455
0.147814 0.140719 0.460487
0.225513 0.107622 0.435203
0.32459 0.0888228 0.421164
0.439155 0.0445258 0.430365
0.564263 0.0239261 0.433646
0.699458 0.0246738 0.429435
0.800702 0.0196841 0.422736
0.0888533 0.173114 0.452811
0.0971389 0.1729 0.454856
0.142077 0.174533 0.460243
0.230228 0.147921 0.456092
0.336095 0.117159 0.439445
0.442466 0.0577707 0.433509
0.56022 0.0299077 0.428183
0.69369 0.028809 0.421408
0.797482 0.0171054 0.407263
0.0917983 0.231052 0.466758
0.102022 0.23212 0.470283
0.154986 0.241718 0.491371
0.244434 0.233783 0.500847
0.379599 0.20209 0.500343
0.516152 0.144411 0.499763
0.634684 0.0968643 0.481544
0.770169 0.0889143 0.472175
0.795911 0.0157015 0.398749
0.0756237 0.305745 0.481102
0.0803235 0.305058 0.481041
0.109026 0.308675 0.488777
0.222385 0.312001 0.509239
0.379843 0.28159 0.516167
0.541253 0.246891 0.512535
0.686458 0.227924 0.510735
0.826932 0.209186 0.49514
0.944625 0.150591 0.460029
0.0444953 0.391867 0.485374
0.0506294 0.391089 0.4851
0.0902266 0.396689 0.492805
0.18439 0.404044 0.50396
0.343954 0.389349 0.509544
0.533288 0.368627 0.499611
0.689998 0.360449 0.484581
0.849729 0.354025 0.463645
0.98352 0.33579 0.448814
0.130846 0.50016 0.488167
0.131868 0.498939 0.486946
0.139986 0.497108 0.485832
0.186053 0.500664 0.491386
0.348516 0.498054 0.493217
0.506996 0.497856 0.488624
0.662943 0.487709 0.45452
0.820005 0.478447 0.43299
0.972366 0.480125 0.442588
0.236194 0.628351 0.484703
0.236622 0.626352 0.482856
0.252964 0.62707 0.485008
0.295766 0.629999 0.490196
0.371817 0.619852 0.484215
0.501808 0.605524 0.493843
0.645899 0.640497 0.53286
0.767865 0.596674 0.441123
0.888472 0.571771 0.406317
0.291554 0.766476 0.515038
0.291096 0.765499 0.514534
0.290272 0.763668 0.512718
0.317449 0.765042 0.517159
0.375494 0.751736 0.506096
0.458885 0.713878 0.475563
0.628382 0.751919 0.532815
0.826032 0.800458 0.580102
0.927184 0.732525 0.472297
0.339757 0.875547 0.548409
0.339849 0.876036 0.549599
0.339895 0.876356 0.550561
0.339849 0.876188 0.55024
0.358251 0.877775 0.550835
0.472847 0.83801 0.527352
0.594232 0.826963 0.53373
0.789334 0.900282 0.638895
0.976532 0.94255 0.728557
0.987778 0.398642 0.926421
0.313161 0.173388 0.651179
0.191073 0.159411 0.538674
0.248829 0.163745 0.550942
0.322438 0.121996 0.526055
0.444511 0.113725 0.540017
0.57348 0.0580911 0.561257
0.711818 0.0246738 0.568795
0.819242 0.036347 0.580423
0.108507 0.206928 0.548348
0.11107 0.205493 0.547402
0.158663 0.207492 0.558663
0.245716 0.198688 0.568521
0.327596 0.149355 0.550637
0.441749 0.124224 0.541955
0.567773 0.0647593 0.556542
0.700496 0.0266117 0.558862
0.816541 0.035996 0.568307
0.115816 0.271382 0.582361
0.115465 0.269215 0.579309
0.145922 0.276005 0.594675
0.254307 0.286687 0.626215
0.369482 0.252003 0.640513
0.515297 0.221042 0.626902
0.634043 0.131991 0.616632
0.763958 0.0820783 0.611688
0.813413 0.0356451 0.560357
0.0995651 0.343603 0.603006
0.100618 0.342245 0.601556
0.139116 0.349355 0.616068
0.233707 0.355108 0.635309
0.361089 0.328878 0.644556
0.521874 0.300465 0.639933
0.67863 0.249332 0.649195
0.819852 0.201907 0.650874
0.938155 0.175402 0.636378
0.0804303 0.42739 0.609262
0.0840772 0.426184 0.608682
0.107652 0.427741 0.613153
0.166522 0.431754 0.623468
0.326345 0.419303 0.634974
0.504082 0.392432 0.645045
0.680949 0.364965 0.643519
0.838041 0.345922 0.648493
0.980072 0.337865 0.637263
0.0763256 0.51635 0.614252
0.077409 0.51519 0.613214
0.0839399 0.512932 0.611414
0.145312 0.521324 0.623072
0.28629 0.524376 0.632334
0.472496 0.512703 0.638819
0.661433 0.496712 0.627176
0.843107 0.480629 0.611551
0.996628 0.469245 0.579721
0.195315 0.652964 0.634104
0.195712 0.650736 0.632166
0.206378 0.651011 0.633021
0.23444 0.655711 0.639063
0.323247 0.66276 0.646571
0.517281 0.651484 0.636484
0.652247 0.649821 0.631662
0.811276 0.631601 0.580636
0.958679 0.609445 0.540871
0.295216 0.801862 0.654047
0.294926 0.800992 0.653346
0.298207 0.799741 0.652308
0.331151 0.805158 0.661112
0.396826 0.803906 0.662135
0.507851 0.771832 0.636912
0.656626 0.761288 0.64863
0.831571 0.808698 0.69659
0.928405 0.732357 0.559976
0.350973 0.914092 0.651362
0.351095 0.914473 0.652461
0.35111 0.914488 0.652567
0.350958 0.913619 0.650736
0.380423 0.918181 0.65388
0.491798 0.878233 0.62707
0.605982 0.834928 0.604669
0.785946 0.890562 0.684245
0.979187 0.943709 0.753979
0.993118 0.525307 0.932311
0.886 0.31603 0.892088
0.247944 0.207263 0.644923
0.27042 0.195789 0.636973
0.355398 0.188251 0.673869
0.454719 0.163821 0.65893
0.590494 0.144228 0.683787
0.735515 0.0857404 0.714961
0.830747 0.0469673 0.72108
0.166949 0.257053 0.670604
0.175341 0.257618 0.673228
0.203723 0.260853 0.681941
0.260197 0.242115 0.672328
0.355322 0.217472 0.696071
0.437949 0.164248 0.650584
0.57911 0.148638 0.678035
0.721706 0.0836042 0.703212
0.827893 0.0432441 0.71104
0.162402 0.328023 0.718318
0.167468 0.327718 0.719203
0.194995 0.33283 0.730816
0.255741 0.334981 0.742489
0.374899 0.310292 0.757809
0.505943 0.274861 0.759548
0.626703 0.207462 0.732464
0.77882 0.14519 0.755978
0.826535 0.0411994 0.703624
0.148852 0.393469 0.735515
0.151461 0.392569 0.735042
0.166506 0.393362 0.73901
0.21384 0.397543 0.751446
0.354818 0.382528 0.760983
0.495613 0.345663 0.774838
0.660426 0.314534 0.76791
0.81561 0.241352 0.78436
0.932174 0.167315 0.7776
0.104326 0.460166 0.728435
0.105074 0.458289 0.726665
0.108064 0.455131 0.724361
0.162387 0.462058 0.740871
0.321889 0.45684 0.757839
0.472755 0.429236 0.773892
0.65655 0.407797 0.771359
0.830945 0.361868 0.787869
0.973022 0.323491 0.79675
0.0699779 0.540459 0.727764
0.0699168 0.538781 0.726238
0.0890516 0.539849 0.730297
0.14313 0.54815 0.745312
0.251011 0.552316 0.759319
0.434256 0.538979 0.772564
0.628809 0.514321 0.780331
0.833982 0.481544 0.77847
0.995895 0.455192 0.784573
0.113466 0.664439 0.763165
0.113527 0.662272 0.761166
0.115694 0.659983 0.759411
0.122927 0.658808 0.758801
0.219638 0.680613 0.783978
0.407034 0.67837 0.786328
0.611658 0.667674 0.774517
0.816587 0.648936 0.758129
0.996872 0.628946 0.743542
0.241306 0.823484 0.802029
0.242115 0.822599 0.801343
0.246586 0.820706 0.800687
0.265629 0.824811 0.806577
0.300237 0.830564 0.813458
0.437919 0.828473 0.812345
0.676646 0.819547 0.801694
0.838239 0.824613 0.801053
0.984207 0.796658 0.737163
0.347601 0.951217 0.786038
0.347601 0.951217 0.786038
0.347784 0.950973 0.784955
0.347646 0.949523 0.782574
0.384131 0.958144 0.791745
0.503105 0.948577 0.786816
0.659785 0.889281 0.752132
0.798764 0.901167 0.771267
0.982589 0.955917 0.84036
0.99086 0.625513 0.921492
0.990784 0.627008 0.921386
0.350942 0.20119 0.700847
0.31957 0.218799 0.695232
0.390204 0.222644 0.741253
0.482704 0.201999 0.736202
0.60412 0.184604 0.749035
0.748028 0.147539 0.790341
0.844846 0.10312 0.811627
0.210986 0.290669 0.724849
0.220142 0.290578 0.727245
0.240253 0.285725 0.727596
0.301076 0.285252 0.744259
0.383993 0.255482 0.765713
0.488685 0.231128 0.770367
0.609888 0.205982 0.768795
0.736904 0.153429 0.788159
0.843336 0.104402 0.811612
0.178256 0.356237 0.770443
0.18085 0.355627 0.77113
0.191745 0.357397 0.776745
0.248554 0.364996 0.797955
0.389746 0.349554 0.821439
0.507027 0.31487 0.84097
0.649226 0.285008 0.831785
0.782177 0.212268 0.837705
0.876753 0.135515 0.840665
0.154376 0.41857 0.793683
0.154543 0.417899 0.793484
0.155077 0.415885 0.79292
0.205219 0.425971 0.816403
0.362173 0.419532 0.835752
0.485985 0.384222 0.858366
0.641505 0.359884 0.857282
0.808606 0.309331 0.870375
0.930495 0.211398 0.887404
0.128954 0.48893 0.806592
0.129122 0.488487 0.8065
0.132464 0.487068 0.807355
0.19585 0.496147 0.830625
0.326802 0.491142 0.846738
0.464408 0.468177 0.860365
0.625849 0.441215 0.876966
0.815824 0.409033 0.87895
0.974105 0.344915 0.918074
0.102846 0.570184 0.81854
0.105684 0.570871 0.81976
0.121263 0.573053 0.826047
0.154345 0.578378 0.839017
0.228107 0.583108 0.857588
0.424659 0.570474 0.876112
0.595789 0.543435 0.904311
0.814649 0.516503 0.892363
0.986389 0.460792 0.930159
0.0975357 0.67454 0.847547
0.097673 0.674174 0.847471
0.0984054 0.672312 0.846998
0.100587 0.669841 0.84683
0.180835 0.686961 0.877134
0.354208 0.689448 0.896895
0.558572 0.67216 0.912047
0.795758 0.645396 0.897353
0.991272 0.600137 0.923568
0.163287 0.825696 0.920348
0.162692 0.824826 0.920027
0.163485 0.822995 0.920638
0.171344 0.823407 0.92578
0.18706 0.825666 0.934203
0.280079 0.836866 0.951965
0.545327 0.83595 0.954528
0.808362 0.831647 0.943908
0.991257 0.813321 0.927779
0.302739 0.971481 0.940032
0.302739 0.971481 0.940032
0.302419 0.971038 0.93959
0.301396 0.969299 0.937713
0.311101 0.971054 0.943221
0.38143 0.978836 0.959091
0.615045 0.970733 0.944503
0.834974 0.963546 0.935271
0.987945 0.975601 0.950637
