brand-bible/brands/assets/luts/blkgrlco/The Everyday LUT.cube
TITLE "Generated by Resolve"
LUT_3D_SIZE 65
# The Everyday LUT
# Created by Nicholas Di Giugno aka ToldbyNick
0.00288396 0.00352483 0.00364691
0.00561532 0.0033875 0.00341802
0.010132 0.00363165 0.0034638
0.0200351 0.00488289 0.00425727
0.0309148 0.00596628 0.00508125
0.0419471 0.00636301 0.00569161
0.0529335 0.00723278 0.00648508
0.0630045 0.00814832 0.00717174
0.0734264 0.00898756 0.00793469
0.0835279 0.00979629 0.0087129
0.093431 0.0104677 0.0093843
0.103502 0.0111849 0.0100099
0.113558 0.0117647 0.0105592
0.123674 0.0124514 0.0113375
0.133959 0.013138 0.0120699
0.144457 0.013901 0.0128328
0.155108 0.0151827 0.0136568
0.166079 0.0165713 0.0144045
0.178042 0.0180362 0.0151522
0.190982 0.0195468 0.0159457
0.201266 0.0192111 0.0162356
0.21117 0.0185092 0.0165408
0.225147 0.020737 0.0176852
0.239628 0.0231022 0.0187686
0.252934 0.0243381 0.0195315
0.266163 0.02533 0.0202029
0.276417 0.0243534 0.0203403
0.286717 0.0234684 0.0205234
0.297215 0.0228885 0.0207523
0.309194 0.023209 0.0211948
0.326009 0.0262608 0.0224002
0.341787 0.0284886 0.0234226
0.355215 0.0291752 0.0239414
0.367163 0.0290074 0.0242618
0.377096 0.0277256 0.0243381
0.386313 0.0260319 0.0243381
0.394873 0.0238804 0.0242771
0.407111 0.0234684 0.024567
0.422065 0.0241093 0.0250095
0.439323 0.0257267 0.0256352
0.457847 0.0278172 0.0263066
0.472541 0.0281682 0.0265812
0.486275 0.0281071 0.0267338
0.496162 0.0261387 0.0265507
0.505425 0.0239261 0.0263828
0.520317 0.0241855 0.0265812
0.535256 0.0245365 0.0267948
0.550546 0.024979 0.0271153
0.566125 0.025452 0.0275578
0.582254 0.0260319 0.0280003
0.599283 0.0267338 0.0284886
0.616815 0.0278935 0.0291447
0.636332 0.029984 0.0301061
0.658259 0.033814 0.031754
0.678737 0.0366217 0.0333715
0.696925 0.0377966 0.034699
0.713619 0.0371252 0.0356603
0.728389 0.035111 0.0362402
0.735927 0.034287 0.0368353
0.740017 0.0340734 0.0374609
0.743847 0.034226 0.0379644
0.747784 0.0345312 0.0384527
0.748318 0.0345769 0.038529
0.748318 0.0345769 0.038529
0.748318 0.0345769 0.038529
0.0052491 0.0102541 0.00526436
0.00875868 0.010132 0.0053254
0.0133516 0.0100404 0.00547799
0.0226139 0.0102541 0.00598154
0.0325628 0.0102388 0.00636301
0.042359 0.00946059 0.00648508
0.0523995 0.009308 0.0069276
0.0621805 0.0099031 0.0075227
0.0722972 0.0103914 0.00819409
0.0823072 0.010956 0.00895705
0.092195 0.0112306 0.00953689
0.1019 0.0113527 0.00999466
0.111803 0.0116579 0.0104372
0.121859 0.012314 0.0111849
0.132097 0.0129854 0.0119173
0.142763 0.0137942 0.012726
0.153506 0.0152438 0.0136263
0.164691 0.0169528 0.0144656
0.17673 0.0183871 0.0152132
0.189654 0.0197757 0.0159762
0.200137 0.0194705 0.0162509
0.210086 0.0187076 0.0165255
0.223896 0.0209201 0.0176547
0.238468 0.0234379 0.0188144
0.251865 0.0246128 0.0195468
0.265293 0.0256352 0.0202335
0.275563 0.0246586 0.0203861
0.285817 0.0237278 0.0205386
0.296315 0.0230869 0.0207523
0.308034 0.0232853 0.0211795
0.324849 0.0263371 0.0223697
0.340795 0.0286564 0.0234073
0.354269 0.0293278 0.0239414
0.366262 0.0292058 0.0242771
0.376333 0.0279393 0.0243534
0.38555 0.0262303 0.0243381
0.39408 0.0240024 0.0242771
0.405905 0.0234379 0.0245365
0.420935 0.0240787 0.024979
0.438209 0.0256809 0.0256046
0.45687 0.0278019 0.0262913
0.471794 0.0282444 0.0265812
0.485557 0.0281987 0.0267491
0.495521 0.0262303 0.0265507
0.504738 0.0240024 0.0263676
0.519356 0.024155 0.026566
0.534463 0.0245212 0.0267948
0.549706 0.0249485 0.0271
0.565332 0.0254368 0.0275273
0.581537 0.0260014 0.027985
0.598581 0.0267033 0.0284581
0.616037 0.027863 0.0291142
0.635462 0.0298466 0.0300603
0.657176 0.0336461 0.0316625
0.67805 0.0365759 0.0333104
0.69633 0.0377661 0.0346532
0.713207 0.037232 0.0356451
0.727901 0.0351873 0.0362249
0.735729 0.034287 0.0368048
0.739818 0.0340734 0.0374304
0.743709 0.0342107 0.0379492
0.747707 0.0345312 0.0384375
0.748318 0.0345769 0.038529
0.748318 0.0345769 0.038529
0.748318 0.0345769 0.038529
0.00770581 0.0176242 0.00720226
0.0115206 0.0173953 0.00746166
0.0161135 0.0170596 0.00776684
0.0250095 0.0163577 0.00799573
0.0344701 0.0155032 0.00798047
0.0430304 0.0136568 0.00764477
0.0521706 0.0123903 0.00773632
0.0615549 0.0123903 0.00814832
0.0712291 0.0123445 0.00865187
0.0811322 0.0125124 0.00932326
0.0908217 0.0122072 0.00976577
0.100267 0.0115816 0.0100099
0.110033 0.0115663 0.0103456
0.120027 0.0122072 0.0110475
0.13022 0.0128634 0.0117952
0.140948 0.0136568 0.0125734
0.151858 0.0153506 0.013611
0.163195 0.0173648 0.0145418
0.175235 0.0187991 0.0152895
0.188098 0.0200351 0.0159915
0.198825 0.019791 0.0162966
0.208942 0.0189975 0.016556
0.222477 0.021149 0.0176547
0.237079 0.0238346 0.0188602
0.250462 0.0249943 0.0195926
0.264149 0.0260166 0.0202792
0.274388 0.0250248 0.0204166
0.284642 0.024094 0.0205844
0.295125 0.0234226 0.0207828
0.306645 0.0234531 0.0211643
0.323522 0.0265507 0.0223697
0.339574 0.0289464 0.0234226
0.352895 0.0295872 0.0239567
0.365087 0.0295567 0.0243076
0.375296 0.0282597 0.0243687
0.384497 0.0265202 0.0243534
0.39263 0.0241398 0.0242466
0.404242 0.0234226 0.0244907
0.419303 0.0240635 0.0249485
0.436515 0.0256657 0.0255589
0.455207 0.0278172 0.0262608
0.470512 0.0284123 0.0265812
0.484321 0.028397 0.0267491
0.49424 0.0264439 0.026566
0.503365 0.0240787 0.0263676
0.517723 0.0241245 0.0265507
0.532692 0.0244755 0.0267643
0.548089 0.024918 0.0270542
0.563714 0.025391 0.0274815
0.579873 0.0259403 0.027924
0.596689 0.0266117 0.028397
0.614404 0.0277714 0.0290532
0.633875 0.0296941 0.0299535
0.655543 0.033463 0.0315557
0.676493 0.0364538 0.0332036
0.694759 0.0377356 0.0345464
0.71194 0.0373693 0.0355535
0.726757 0.0353399 0.0361334
0.735256 0.0343938 0.0367437
0.739498 0.0341192 0.0373541
0.74345 0.0341955 0.0378729
0.747433 0.0345006 0.0383764
0.74818 0.0345617 0.0384833
0.74818 0.0345617 0.0384833
0.74818 0.0345617 0.0384833
0.0106355 0.0268711 0.00999466
0.012604 0.026688 0.0101778
0.0153811 0.0266117 0.0104829
0.02533 0.0265049 0.0115206
0.0363775 0.0266728 0.0119173
0.0453498 0.0259251 0.0117037
0.0547951 0.0250858 0.0118105
0.0639506 0.0246586 0.0120089
0.0727245 0.0238346 0.0121462
0.0818647 0.0229953 0.0124819
0.0914778 0.0221714 0.0128023
0.100908 0.02121 0.0130465
0.110292 0.0196689 0.0129549
0.119203 0.0175174 0.0126192
0.129046 0.0170901 0.0129854
0.140291 0.0183566 0.013901
0.151232 0.0196689 0.0148318
0.16231 0.020737 0.0154726
0.173709 0.0212406 0.0159304
0.185992 0.021622 0.0163729
0.197589 0.022034 0.0168154
0.209064 0.0223087 0.0173342
0.222278 0.0239109 0.0182956
0.236271 0.0259709 0.0193179
0.249454 0.0267948 0.0199435
0.262837 0.0274357 0.0205234
0.27303 0.0262303 0.0206149
0.283177 0.0250095 0.0207065
0.294499 0.0248417 0.0210422
0.306386 0.0250095 0.0214694
0.322896 0.0277867 0.0225986
0.338857 0.0300298 0.023621
0.352132 0.0305028 0.0241093
0.364416 0.030396 0.0244297
0.374334 0.0289769 0.0244602
0.383352 0.0270848 0.0244144
0.390936 0.0243839 0.0242161
0.40235 0.0235752 0.024445
0.418067 0.024567 0.024979
0.435431 0.0261997 0.0256199
0.454185 0.028275 0.0262913
0.469566 0.0289006 0.026627
0.483192 0.0287785 0.0267948
0.493324 0.0268254 0.0266117
0.502052 0.0243381 0.0263828
0.515938 0.024155 0.0265354
0.530877 0.0244297 0.0267338
0.54612 0.0248417 0.0270085
0.562066 0.0253452 0.0274357
0.578027 0.0258793 0.0278782
0.594965 0.0265507 0.0283513
0.612757 0.0278019 0.0290074
0.632441 0.0296635 0.0298924
0.654017 0.0334173 0.0314794
0.674998 0.0364385 0.0330968
0.69337 0.0377661 0.0344549
0.710689 0.0375525 0.0355077
0.725734 0.0355993 0.0361028
0.734722 0.0345464 0.0366979
0.739223 0.034165 0.0372931
0.743145 0.034165 0.0377966
0.747112 0.0344854 0.0383154
0.748165 0.0345617 0.0384527
0.748165 0.0345617 0.0384527
0.748165 0.0345617 0.0384527
0.0141604 0.0364691 0.0132296
0.0144961 0.0362097 0.0131838
0.0152438 0.0359503 0.0131991
0.0259098 0.0366827 0.0149538
0.0375525 0.0373541 0.0161288
0.0469978 0.0375067 0.0163119
0.0569467 0.0376287 0.016495
0.0662547 0.0372931 0.016556
0.0754711 0.0365759 0.0166018
0.0840314 0.0346838 0.0163272
0.0928206 0.0328679 0.0162509
0.101961 0.0312657 0.0163424
0.110552 0.0283055 0.0157321
0.11841 0.0233463 0.0144045
0.127779 0.0215305 0.0142672
0.139483 0.0234226 0.0153353
0.150637 0.0245212 0.0162051
0.161395 0.0246128 0.0165713
0.172366 0.024155 0.0167239
0.183734 0.0234989 0.0168154
0.196216 0.024506 0.0174105
0.2094 0.0261692 0.0182956
0.222446 0.0274662 0.0191348
0.235462 0.0286717 0.019913
0.248478 0.0290837 0.0204166
0.261524 0.0292668 0.0208743
0.271702 0.0277562 0.0208743
0.281621 0.026154 0.0208896
0.293935 0.0267185 0.0213931
0.306691 0.0273747 0.0219577
0.322683 0.0296788 0.0229801
0.338491 0.0316472 0.0239261
0.351568 0.0318761 0.0243534
0.363912 0.0316472 0.0246281
0.373602 0.0300298 0.0246128
0.382315 0.0278935 0.0245212
0.38912 0.0247959 0.0242313
0.400275 0.0238499 0.0244297
0.417304 0.0255589 0.0251011
0.435203 0.0273594 0.0257572
0.453681 0.0292668 0.0264134
0.469017 0.0298009 0.0267185
0.48249 0.0295415 0.0268864
0.492561 0.027512 0.0267033
0.500923 0.0248264 0.0264286
0.51426 0.0243229 0.0265354
0.528618 0.0243992 0.0267033
0.543877 0.0247807 0.0269627
0.55967 0.0252537 0.0273747
0.57586 0.0257877 0.0278172
0.592874 0.0265202 0.0283055
0.612131 0.0283513 0.0290837
0.632456 0.0304875 0.0300145
0.653605 0.0340581 0.0315862
0.674678 0.0370794 0.0332036
0.692485 0.0382239 0.0345159
0.709834 0.038056 0.035584
0.724712 0.0359655 0.0361486
0.734096 0.0347448 0.0366979
0.738567 0.0341802 0.0372168
0.742748 0.0341497 0.0377203
0.746715 0.0344549 0.0382391
0.747845 0.0345312 0.0383917
0.747845 0.0345312 0.0383917
0.747845 0.0345312 0.0383917
0.0176242 0.0451514 0.0163882
0.0183413 0.0450904 0.0164645
0.0190585 0.0449836 0.0165408
0.0270085 0.0456397 0.0178531
0.0357519 0.0462196 0.0191653
0.0462501 0.0466316 0.0200351
0.0573434 0.0470741 0.0204471
0.0666972 0.0470436 0.0204318
0.0763409 0.046891 0.0203403
0.0856794 0.0460212 0.0200504
0.095079 0.0449836 0.0198978
0.104616 0.0439765 0.0200961
0.113848 0.0422675 0.0201419
0.122545 0.0390021 0.0195468
0.132006 0.0370947 0.0193484
0.143008 0.0371252 0.0196689
0.153689 0.0366369 0.0199741
0.163912 0.0350652 0.0197604
0.174807 0.0336614 0.0195621
0.186374 0.0325933 0.01944
0.19855 0.0327611 0.0196841
0.211658 0.0335393 0.0202335
0.22414 0.0338903 0.0207675
0.236347 0.0339666 0.0211795
0.248875 0.0336767 0.0214847
0.261662 0.0332799 0.0217441
0.272938 0.032105 0.0218204
0.28397 0.030869 0.0218967
0.296513 0.0313268 0.0223697
0.309285 0.031754 0.0228885
0.324407 0.0332494 0.0237736
0.339361 0.0345464 0.0245518
0.351949 0.0343328 0.0248569
0.363912 0.0337377 0.0250095
0.373297 0.0317845 0.0249027
0.38204 0.0295109 0.0247807
0.389242 0.0265049 0.024506
0.400595 0.0255436 0.0246891
0.418189 0.0275273 0.0254063
0.436118 0.0293126 0.0260471
0.454093 0.0308537 0.0266117
0.469169 0.0311894 0.0269017
0.482231 0.0306554 0.0270237
0.492042 0.0284886 0.0268406
0.499992 0.0255283 0.0265202
0.51252 0.0246128 0.026566
0.526299 0.0243839 0.0266728
0.541299 0.0246891 0.0269017
0.557168 0.0251926 0.0273136
0.573465 0.0257115 0.0277562
0.590448 0.0264286 0.0282444
0.611307 0.0289311 0.02916
0.632761 0.0315862 0.0301976
0.65362 0.0349432 0.031754
0.674388 0.0378576 0.0333562
0.691905 0.0388647 0.0346227
0.70901 0.0386664 0.0356756
0.723735 0.036408 0.0361944
0.733532 0.0349889 0.0367132
0.738033 0.0342412 0.037171
0.742412 0.0341192 0.0376745
0.746258 0.0344244 0.0381628
0.747585 0.0345159 0.0383459
0.747585 0.0345159 0.0383459
0.747585 0.0345159 0.0383459
0.0209659 0.0539712 0.0194858
0.0219425 0.0540932 0.0196689
0.0230564 0.0542153 0.0198672
0.0283513 0.0546426 0.0207218
0.0340887 0.055024 0.0217136
0.045304 0.0558785 0.0233005
0.0574807 0.056611 0.0242924
0.0670939 0.0569162 0.024445
0.0768292 0.0571298 0.0243381
0.0864729 0.0573587 0.0241398
0.0966506 0.0575418 0.0240024
0.106706 0.0573129 0.0240635
0.116686 0.0566567 0.024094
0.126741 0.0554055 0.0243381
0.136629 0.0540627 0.0244755
0.146975 0.0524453 0.0243534
0.15697 0.0501564 0.0240635
0.166949 0.0469673 0.0233463
0.177844 0.0449073 0.0229191
0.189776 0.043946 0.0227817
0.202121 0.043183 0.0226596
0.214588 0.0426032 0.0227207
0.226459 0.0416419 0.0227817
0.237568 0.0404517 0.0227665
0.249882 0.0394598 0.022858
0.262455 0.038407 0.0229191
0.275059 0.0378576 0.0231174
0.287816 0.0373846 0.0233463
0.300465 0.0374762 0.0237125
0.313344 0.037583 0.0241245
0.327321 0.0381628 0.0247959
0.341283 0.0386969 0.0253758
0.353063 0.0377813 0.0255131
0.364584 0.0365759 0.0255436
0.373449 0.0341192 0.0253147
0.3823 0.0317693 0.0251621
0.391012 0.0294652 0.0250401
0.403128 0.0287022 0.0252232
0.420874 0.0306706 0.0259098
0.438544 0.0322118 0.0264897
0.455543 0.0332189 0.0269474
0.470253 0.0332647 0.0271611
0.482643 0.0323186 0.0272221
0.49189 0.0299229 0.027039
0.499352 0.0266423 0.0266728
0.510613 0.0251469 0.026627
0.523552 0.024445 0.0266575
0.538476 0.0246128 0.0268406
0.554314 0.0251011 0.0272221
0.570504 0.0256046 0.0276799
0.587304 0.0262608 0.0281376
0.610788 0.0299992 0.0293126
0.634455 0.0337682 0.0306096
0.655222 0.0369268 0.032166
0.675837 0.0397345 0.0337835
0.692729 0.0403754 0.0350042
0.709178 0.0399329 0.0359808
0.72311 0.0372625 0.0363928
0.732845 0.0353857 0.0367895
0.737682 0.0344396 0.0372015
0.74197 0.0340887 0.037644
0.745907 0.0343938 0.0381018
0.747417 0.0345006 0.0382849
0.747417 0.0345006 0.0383001
0.747433 0.0345006 0.0383001
0.0245212 0.0624094 0.0224765
0.0252842 0.0625772 0.0226444
0.0261845 0.0626993 0.022797
0.0298009 0.0630045 0.0234379
0.0338293 0.0632944 0.0241245
0.0442359 0.0641947 0.0258183
0.0558328 0.0652781 0.0273899
0.0662242 0.0657969 0.0279698
0.0769207 0.0662699 0.0281987
0.086717 0.0664225 0.0278782
0.0967422 0.0666209 0.027512
0.106798 0.0667887 0.0273136
0.117052 0.066453 0.0269169
0.127459 0.0657511 0.0268864
0.137896 0.0650034 0.0270237
0.148684 0.0638285 0.0271611
0.159365 0.0623484 0.0272374
0.17055 0.0600137 0.0268406
0.181857 0.0582742 0.0265812
0.194125 0.0572671 0.0263981
0.206531 0.0557565 0.0260166
0.21886 0.0538491 0.0256504
0.230564 0.0519112 0.0253452
0.241993 0.0501869 0.0251621
0.254185 0.0487068 0.0250858
0.266819 0.0473487 0.0250248
0.280018 0.0465553 0.0251469
0.293095 0.0458076 0.0252689
0.305898 0.0454414 0.0255131
0.318486 0.0451057 0.0257725
0.331716 0.0448768 0.0261692
0.344884 0.0446632 0.0265354
0.3561 0.0429694 0.0264897
0.367163 0.0412146 0.0264134
0.376654 0.0387121 0.0261692
0.386252 0.0362402 0.0260166
0.396414 0.0344549 0.0260014
0.408606 0.0336767 0.0261387
0.425696 0.0350958 0.0266575
0.442588 0.0361181 0.0271
0.458442 0.0365148 0.0274205
0.472251 0.0360876 0.0275425
0.483909 0.0345769 0.027512
0.492576 0.0318303 0.0272984
0.499214 0.0280766 0.0268711
0.509056 0.0258946 0.0267033
0.520638 0.0245365 0.0266423
0.535409 0.024567 0.0268101
0.551293 0.0250706 0.0271611
0.568673 0.0260777 0.0276951
0.586374 0.0271763 0.0282597
0.611322 0.0316625 0.0295872
0.636912 0.0363622 0.0310979
0.657359 0.0392157 0.0326696
0.677424 0.0418555 0.0343023
0.693721 0.0420691 0.0354314
0.709575 0.0413672 0.0363317
0.722454 0.0381933 0.0365911
0.732067 0.0358282 0.0368811
0.737148 0.0346075 0.037232
0.741573 0.0340581 0.0375982
0.74551 0.0343633 0.0380407
0.747112 0.0344854 0.0382391
0.747112 0.0344854 0.0382391
0.747112 0.0344854 0.0382544
0.0280461 0.0711528 0.0255436
0.0286412 0.0713207 0.0256809
0.0293889 0.0714885 0.0258183
0.0315557 0.0715648 0.0261845
0.0339971 0.0716106 0.026566
0.0434119 0.0726635 0.0282139
0.0544594 0.0738384 0.0300603
0.0652476 0.0746929 0.0313268
0.0766918 0.0754711 0.0320287
0.0868849 0.0755627 0.0316625
0.0968643 0.0757458 0.03122
0.106676 0.076051 0.0307927
0.117052 0.0760967 0.0300908
0.127489 0.0757916 0.0296788
0.138354 0.0754406 0.0294347
0.149416 0.0750744 0.0294957
0.160952 0.0745251 0.0296941
0.173159 0.073106 0.0296178
0.185275 0.0719921 0.029572
0.198093 0.071107 0.0293584
0.210636 0.0691386 0.0289158
0.223133 0.0658885 0.0283665
0.23508 0.0633555 0.027924
0.247013 0.0614023 0.0275578
0.259556 0.0597238 0.0274357
0.272465 0.0583505 0.027451
0.28571 0.0569619 0.0273747
0.298939 0.0555734 0.0273136
0.311757 0.0545815 0.0274205
0.324422 0.0537118 0.0275731
0.336965 0.0527657 0.0277104
0.349554 0.0519417 0.0278935
0.360403 0.0493324 0.0277104
0.370993 0.0469368 0.0274968
0.382162 0.0451972 0.0274052
0.393332 0.0434577 0.0273747
0.404944 0.0421607 0.0274357
0.417655 0.0413062 0.0275425
0.433112 0.0417945 0.0278782
0.448371 0.0420081 0.0281071
0.463218 0.0416571 0.0282444
0.476112 0.0404974 0.0282292
0.486473 0.0379492 0.0279545
0.494331 0.0344396 0.0276493
0.499718 0.0301671 0.0271611
0.507942 0.0271 0.0268559
0.51754 0.0247959 0.0266423
0.531914 0.0246128 0.0267796
0.548012 0.0252537 0.0271
0.569497 0.0280461 0.0280156
0.591806 0.0314031 0.0290532
0.616953 0.0359045 0.0304112
0.64242 0.04065 0.0320439
0.66186 0.0430152 0.0336156
0.681392 0.0453651 0.0352941
0.696269 0.0448463 0.0361791
0.710872 0.0435187 0.0368811
0.722606 0.0397345 0.0369573
0.731884 0.0366674 0.0370794
0.736706 0.0349279 0.0372625
0.741009 0.0340276 0.0375219
0.744945 0.0343175 0.0379339
0.746838 0.0344549 0.0381323
0.746838 0.0344549 0.0381323
0.746838 0.0344549 0.0381323
0.0303044 0.0795453 0.0280156
0.0309911 0.0796674 0.0281529
0.0319524 0.0799268 0.0283513
0.0344091 0.0801251 0.0287785
0.0372778 0.080293 0.0292668
0.0443427 0.0810712 0.030457
0.052491 0.0819562 0.0318608
0.063035 0.082887 0.0336919
0.0742351 0.0838941 0.0347906
0.0851148 0.0843671 0.0350042
0.0966201 0.0846723 0.0348058
0.106905 0.0848249 0.034226
0.117266 0.0849775 0.0335393
0.12752 0.0849165 0.0328679
0.138293 0.0847791 0.0322728
0.14934 0.084596 0.0319066
0.161227 0.0841993 0.0317998
0.173693 0.0832227 0.0316014
0.186389 0.0822461 0.0315557
0.199619 0.0813916 0.0313268
0.212863 0.0796674 0.030869
0.226017 0.0768902 0.0302892
0.238865 0.0745861 0.0298924
0.251698 0.0727855 0.0296483
0.264714 0.0712596 0.0295109
0.278126 0.0700847 0.0295262
0.291524 0.0683757 0.0294652
0.304936 0.0662852 0.0292821
0.317998 0.0647288 0.0292515
0.330907 0.063447 0.0292821
0.343496 0.0622873 0.0293126
0.355978 0.0611887 0.0293431
0.367178 0.0584878 0.0291447
0.378088 0.0555734 0.0289311
0.390311 0.0537881 0.0289464
0.402533 0.0521706 0.0290227
0.415045 0.0509651 0.0290532
0.427771 0.0501259 0.0290684
0.442298 0.0498665 0.0292668
0.456657 0.0494087 0.0294041
0.46978 0.0481422 0.0293126
0.481285 0.0460059 0.0291295
0.490272 0.0424659 0.0287175
0.496956 0.0378424 0.0280766
0.501152 0.0327001 0.027512
0.507881 0.0289921 0.0271
0.516579 0.0261387 0.0268254
0.53135 0.0261082 0.0269932
0.548974 0.0273289 0.0274662
0.572625 0.0311742 0.0285496
0.598566 0.0362249 0.0299687
0.624002 0.0408789 0.0314946
0.6495 0.0457771 0.0333257
0.668025 0.0475776 0.0348669
0.686351 0.0493782 0.0364233
0.69984 0.0479591 0.0370794
0.713085 0.0460975 0.0376135
0.723323 0.0413519 0.0373693
0.731807 0.0374609 0.0372625
0.736217 0.0352483 0.0372778
0.740429 0.0339818 0.0374151
0.744457 0.034287 0.0377966
0.746502 0.0344244 0.0380102
0.746502 0.0344244 0.0380255
0.746502 0.0344244 0.0380255
0.0326543 0.0883497 0.0305943
0.0333562 0.0884871 0.0307469
0.0344244 0.0886702 0.0309606
0.0371405 0.0889601 0.0314488
0.0404822 0.0893416 0.0320745
0.045594 0.0898299 0.0328069
0.0512856 0.0903639 0.033753
0.0610971 0.091249 0.0355383
0.0723125 0.0923476 0.0373541
0.0831006 0.0932174 0.0382391
0.0961166 0.0935836 0.0383001
0.106798 0.0937057 0.0377661
0.117494 0.093843 0.0370642
0.127764 0.0939803 0.0363012
0.138186 0.0940261 0.0355077
0.149157 0.0940414 0.0348058
0.160922 0.0936599 0.0342412
0.173175 0.0928817 0.0335393
0.18613 0.0919966 0.0330663
0.19939 0.0910353 0.0326085
0.213123 0.0895857 0.0321965
0.22739 0.087602 0.031754
0.241657 0.0857862 0.0314183
0.255573 0.0841993 0.031281
0.269444 0.0830091 0.0312963
0.283314 0.0822309 0.0312657
0.297002 0.0803845 0.0310674
0.310613 0.0777905 0.0308537
0.323812 0.075761 0.0307164
0.337072 0.0740673 0.0306554
0.350011 0.0727855 0.0306859
0.36321 0.0717327 0.0307317
0.375463 0.0694438 0.0306401
0.387518 0.0668803 0.0304723
0.400031 0.0650034 0.0304417
0.412528 0.0632029 0.0305028
0.425345 0.0618753 0.0305791
0.438605 0.0607309 0.0306249
0.452949 0.0602579 0.0307774
0.466697 0.059144 0.0308537
0.478523 0.0563058 0.0306096
0.488823 0.052903 0.0302434
0.496162 0.0483253 0.0297093
0.501381 0.0427558 0.0289158
0.503975 0.0361639 0.0280003
0.510369 0.032105 0.0275578
0.52018 0.0297398 0.0273747
0.537804 0.0308843 0.0278019
0.560189 0.0342107 0.0287633
0.58439 0.038407 0.029984
0.609796 0.043473 0.0316014
0.635782 0.0485847 0.033463
0.662348 0.0538949 0.0356756
0.679942 0.0550698 0.0370947
0.696788 0.0560464 0.0384375
0.708247 0.0531319 0.0386969
0.719417 0.0497139 0.0387884
0.726726 0.0431678 0.0378729
0.733166 0.0379034 0.0373388
0.736599 0.0354772 0.037171
0.740276 0.0339666 0.037171
0.74435 0.0342412 0.0374609
0.746715 0.0344244 0.0376593
0.7467 0.0344244 0.0376593
0.7467 0.0344244 0.0376745
0.035523 0.0990768 0.0336461
0.0358434 0.0991531 0.0337072
0.036347 0.0991836 0.0337987
0.0387274 0.0994125 0.034226
0.0420844 0.0997177 0.0348211
0.0474403 0.100267 0.035584
0.0536507 0.100832 0.0365301
0.0628672 0.10164 0.0381018
0.0735637 0.102663 0.0400397
0.0839094 0.103395 0.0413519
0.0954604 0.10399 0.0418097
0.106798 0.104265 0.0416419
0.119081 0.104341 0.0408942
0.12987 0.104173 0.0398413
0.140505 0.104021 0.0387884
0.151263 0.103883 0.0378424
0.162585 0.103456 0.0369421
0.174472 0.102632 0.035874
0.18732 0.101686 0.0348669
0.200549 0.10074 0.0340581
0.214481 0.0993668 0.0335241
0.228733 0.0976577 0.0329137
0.24361 0.0961929 0.0325017
0.258213 0.094728 0.0321965
0.272694 0.0936141 0.0320287
0.287053 0.0929732 0.0319524
0.301396 0.0914015 0.0318456
0.315724 0.0890822 0.0317388
0.329702 0.0869917 0.0317235
0.343633 0.0852827 0.0317082
0.357244 0.0840467 0.031693
0.370748 0.082948 0.0317845
0.383917 0.0810864 0.0318456
0.396674 0.0790265 0.0318914
0.409552 0.0770275 0.0318914
0.422644 0.0752728 0.0319219
0.436118 0.0740673 0.0319982
0.449699 0.0727855 0.0320897
0.464103 0.0722362 0.0323644
0.478141 0.0709239 0.0325475
0.488518 0.0668498 0.0322423
0.497963 0.062211 0.031754
0.504997 0.0560769 0.0310063
0.510185 0.0500801 0.0302434
0.512795 0.043183 0.029221
0.518715 0.0381628 0.0284886
0.529076 0.0357366 0.0283207
0.547784 0.0374151 0.0289006
0.573236 0.0424048 0.0303807
0.597589 0.0471962 0.0319982
0.621866 0.0519265 0.0336767
0.648127 0.0569467 0.0356756
0.674968 0.0621958 0.0381476
0.691875 0.0628672 0.0394141
0.707515 0.0630045 0.0405127
0.716625 0.0585946 0.0403754
0.725612 0.0538033 0.0400549
0.730465 0.0455177 0.038529
0.734554 0.0384985 0.0374304
0.737011 0.0357519 0.0370642
0.740169 0.0339361 0.0369116
0.744259 0.0342107 0.0371099
0.746807 0.0344091 0.0372931
0.746807 0.0344091 0.0372931
0.746807 0.0344091 0.0372931
0.038529 0.109895 0.0365759
0.038468 0.109804 0.0365454
0.038468 0.109804 0.0365454
0.0403449 0.109926 0.0368658
0.0435187 0.110231 0.0373999
0.0489815 0.110887 0.0382086
0.0557259 0.111528 0.0392462
0.0645151 0.112337 0.0407263
0.0747845 0.113313 0.0425269
0.0848249 0.113863 0.0440528
0.0951858 0.114412 0.0449989
0.106172 0.115114 0.0453956
0.120012 0.115267 0.0446479
0.131762 0.114809 0.0433967
0.143236 0.114321 0.0420539
0.154009 0.114031 0.0409552
0.164904 0.113603 0.0398871
0.176471 0.11284 0.0385748
0.188922 0.111986 0.0372931
0.20206 0.111131 0.0361791
0.215885 0.109941 0.0352941
0.230121 0.108309 0.0343786
0.24506 0.106828 0.0336614
0.260166 0.105287 0.0330663
0.275135 0.104097 0.0326848
0.290074 0.103166 0.0324407
0.305226 0.101869 0.0323644
0.320516 0.0999771 0.0324254
0.335027 0.0982528 0.0323491
0.349401 0.0967575 0.0322423
0.363592 0.095613 0.0321813
0.377707 0.0947585 0.0323186
0.391562 0.09337 0.032517
0.405417 0.0919966 0.0327306
0.419165 0.0903182 0.0329442
0.432929 0.0885023 0.0331273
0.446998 0.0873426 0.033341
0.461204 0.086305 0.0335851
0.475944 0.0859388 0.0339971
0.490547 0.0848554 0.0343481
0.500237 0.0794995 0.0340429
0.509621 0.0738994 0.0336004
0.517494 0.0678569 0.03299
0.524849 0.0618296 0.0323491
0.531701 0.0559091 0.0316777
0.539437 0.0515297 0.0311589
0.549172 0.0484474 0.0308537
0.567071 0.0495308 0.0314794
